%
(Header)
(Generated by gcodetools from Inkscape.)
(Using default header. To add your own header create file "header" in the output dir.)
M3
(Header end.)
G21 (All units in mm)

(Pass at depth -1.0)
(Start cutting path id: path4440)
(Change tool to Plasma cutter)
 
G00 Z 5.0000
G00 X 305.6411 Y 179.0009
G31 Z -100.0000 F 500.0000 (f 500.0000ind metal)
G92 Z 0.0000 (z 0.0000ero z 0.0000)
G00 Z 10.0000 F 500.0000 (going up)
M03 (turn on plasma)
G04 P0.2 (pause)
G01 Z 1.0000 (going to cutting z 1.0000)
G01 Z -1.0000 F 100.0000(Penetrate)
G01 X 265.1411 Y 179.0009 Z -1.0000 F 400.0000
G00 Z 5.0000
M05 (turn off plasma)
(End cutting path id: path4440)

(Start cutting path id: path4438)
(Change tool to Plasma cutter)
 
G00 Z 5.0000
G00 X 95.1411 Y 179.0009
G31 Z -100.0000 F 500.0000 (f 500.0000ind metal)
G92 Z 0.0000 (z 0.0000ero z 0.0000)
G00 Z 10.0000 F 500.0000 (going up)
M03 (turn on plasma)
G04 P0.2 (pause)
G01 Z 1.0000 (going to cutting z 1.0000)
G01 Z -1.0000 F 100.0000(Penetrate)
G01 X 54.6411 Y 179.0009 Z -1.0000 F 400.0000
G00 Z 5.0000
M05 (turn off plasma)
(End cutting path id: path4438)

(Start cutting path id: path4436)
(Change tool to Plasma cutter)
 
G00 Z 5.0000
G00 X 265.1411 Y 219.8608
G31 Z -100.0000 F 500.0000 (f 500.0000ind metal)
G92 Z 0.0000 (z 0.0000ero z 0.0000)
G00 Z 10.0000 F 500.0000 (going up)
M03 (turn on plasma)
G04 P0.2 (pause)
G01 Z 1.0000 (going to cutting z 1.0000)
G01 Z -1.0000 F 100.0000(Penetrate)
G01 X 95.1411 Y 219.8608 Z -1.0000 F 400.0000
G00 Z 5.0000
M05 (turn off plasma)
(End cutting path id: path4436)

(Start cutting path id: path4434)
(Change tool to Plasma cutter)
 
G00 Z 5.0000
G00 X 265.1411 Y 179.0009
G31 Z -100.0000 F 500.0000 (f 500.0000ind metal)
G92 Z 0.0000 (z 0.0000ero z 0.0000)
G00 Z 10.0000 F 500.0000 (going up)
M03 (turn on plasma)
G04 P0.2 (pause)
G01 Z 1.0000 (going to cutting z 1.0000)
G01 Z -1.0000 F 100.0000(Penetrate)
G01 X 265.1411 Y 219.8608 Z -1.0000 F 400.0000
G00 Z 5.0000
M05 (turn off plasma)
(End cutting path id: path4434)

(Start cutting path id: path4432)
(Change tool to Plasma cutter)
 
G00 Z 5.0000
G00 X 95.1411 Y 179.0009
G31 Z -100.0000 F 500.0000 (f 500.0000ind metal)
G92 Z 0.0000 (z 0.0000ero z 0.0000)
G00 Z 10.0000 F 500.0000 (going up)
M03 (turn on plasma)
G04 P0.2 (pause)
G01 Z 1.0000 (going to cutting z 1.0000)
G01 Z -1.0000 F 100.0000(Penetrate)
G01 X 95.1411 Y 219.8608 Z -1.0000 F 400.0000
G00 Z 5.0000
M05 (turn off plasma)
(End cutting path id: path4432)

(Start cutting path id: path4430)
(Change tool to Plasma cutter)
 
G00 Z 5.0000
G00 X 54.6411 Y 41.0009
G31 Z -100.0000 F 500.0000 (f 500.0000ind metal)
G92 Z 0.0000 (z 0.0000ero z 0.0000)
G00 Z 10.0000 F 500.0000 (going up)
M03 (turn on plasma)
G04 P0.2 (pause)
G01 Z 1.0000 (going to cutting z 1.0000)
G01 Z -1.0000 F 100.0000(Penetrate)
G01 X 95.1411 Y 41.0009 Z -1.0000 F 400.0000
G00 Z 5.0000
M05 (turn off plasma)
(End cutting path id: path4430)

(Start cutting path id: path4428)
(Change tool to Plasma cutter)
 
G00 Z 5.0000
G00 X 265.1411 Y 41.0009
G31 Z -100.0000 F 500.0000 (f 500.0000ind metal)
G92 Z 0.0000 (z 0.0000ero z 0.0000)
G00 Z 10.0000 F 500.0000 (going up)
M03 (turn on plasma)
G04 P0.2 (pause)
G01 Z 1.0000 (going to cutting z 1.0000)
G01 Z -1.0000 F 100.0000(Penetrate)
G01 X 305.6411 Y 41.0009 Z -1.0000 F 400.0000
G00 Z 5.0000
M05 (turn off plasma)
(End cutting path id: path4428)

(Start cutting path id: path4426)
(Change tool to Plasma cutter)
 
G00 Z 5.0000
G00 X 95.1411 Y 0.1411
G31 Z -100.0000 F 500.0000 (f 500.0000ind metal)
G92 Z 0.0000 (z 0.0000ero z 0.0000)
G00 Z 10.0000 F 500.0000 (going up)
M03 (turn on plasma)
G04 P0.2 (pause)
G01 Z 1.0000 (going to cutting z 1.0000)
G01 Z -1.0000 F 100.0000(Penetrate)
G01 X 265.1411 Y 0.1411 Z -1.0000 F 400.0000
G00 Z 5.0000
M05 (turn off plasma)
(End cutting path id: path4426)

(Start cutting path id: path4424)
(Change tool to Plasma cutter)
 
G00 Z 5.0000
G00 X 95.1411 Y 41.0009
G31 Z -100.0000 F 500.0000 (f 500.0000ind metal)
G92 Z 0.0000 (z 0.0000ero z 0.0000)
G00 Z 10.0000 F 500.0000 (going up)
M03 (turn on plasma)
G04 P0.2 (pause)
G01 Z 1.0000 (going to cutting z 1.0000)
G01 Z -1.0000 F 100.0000(Penetrate)
G01 X 95.1411 Y 0.1411 Z -1.0000 F 400.0000
G00 Z 5.0000
M05 (turn off plasma)
(End cutting path id: path4424)

(Start cutting path id: path4422)
(Change tool to Plasma cutter)
 
G00 Z 5.0000
G00 X 265.1411 Y 41.0009
G31 Z -100.0000 F 500.0000 (f 500.0000ind metal)
G92 Z 0.0000 (z 0.0000ero z 0.0000)
G00 Z 10.0000 F 500.0000 (going up)
M03 (turn on plasma)
G04 P0.2 (pause)
G01 Z 1.0000 (going to cutting z 1.0000)
G01 Z -1.0000 F 100.0000(Penetrate)
G01 X 265.1411 Y 0.1411 Z -1.0000 F 400.0000
G00 Z 5.0000
M05 (turn off plasma)
(End cutting path id: path4422)

(Start cutting path id: path4420)
(Change tool to Plasma cutter)
 
G00 Z 5.0000
G00 X 54.6411 Y 219.8608
G31 Z -100.0000 F 500.0000 (f 500.0000ind metal)
G92 Z 0.0000 (z 0.0000ero z 0.0000)
G00 Z 10.0000 F 500.0000 (going up)
M03 (turn on plasma)
G04 P0.2 (pause)
G01 Z 1.0000 (going to cutting z 1.0000)
G01 Z -1.0000 F 100.0000(Penetrate)
G01 X 32.1411 Y 219.8608 Z -1.0000 F 400.0000
G00 Z 5.0000
M05 (turn off plasma)
(End cutting path id: path4420)

(Start cutting path id: path4418)
(Change tool to Plasma cutter)
 
G00 Z 5.0000
G00 X 54.6411 Y 179.0009
G31 Z -100.0000 F 500.0000 (f 500.0000ind metal)
G92 Z 0.0000 (z 0.0000ero z 0.0000)
G00 Z 10.0000 F 500.0000 (going up)
M03 (turn on plasma)
G04 P0.2 (pause)
G01 Z 1.0000 (going to cutting z 1.0000)
G01 Z -1.0000 F 100.0000(Penetrate)
G01 X 54.6411 Y 219.8608 Z -1.0000 F 400.0000
G00 Z 5.0000
M05 (turn off plasma)
(End cutting path id: path4418)

(Start cutting path id: path4416)
(Change tool to Plasma cutter)
 
G00 Z 5.0000
G00 X 32.1411 Y 0.1411
G31 Z -100.0000 F 500.0000 (f 500.0000ind metal)
G92 Z 0.0000 (z 0.0000ero z 0.0000)
G00 Z 10.0000 F 500.0000 (going up)
M03 (turn on plasma)
G04 P0.2 (pause)
G01 Z 1.0000 (going to cutting z 1.0000)
G01 Z -1.0000 F 100.0000(Penetrate)
G01 X 54.6411 Y 0.1411 Z -1.0000 F 400.0000
G00 Z 5.0000
M05 (turn off plasma)
(End cutting path id: path4416)

(Start cutting path id: path4414)
(Change tool to Plasma cutter)
 
G00 Z 5.0000
G00 X 54.6411 Y 41.0009
G31 Z -100.0000 F 500.0000 (f 500.0000ind metal)
G92 Z 0.0000 (z 0.0000ero z 0.0000)
G00 Z 10.0000 F 500.0000 (going up)
M03 (turn on plasma)
G04 P0.2 (pause)
G01 Z 1.0000 (going to cutting z 1.0000)
G01 Z -1.0000 F 100.0000(Penetrate)
G01 X 54.6411 Y 0.1411 Z -1.0000 F 400.0000
G00 Z 5.0000
M05 (turn off plasma)
(End cutting path id: path4414)

(Start cutting path id: path4412)
(Change tool to Plasma cutter)
 
G00 Z 5.0000
G00 X 393.1411 Y 219.8608
G31 Z -100.0000 F 500.0000 (f 500.0000ind metal)
G92 Z 0.0000 (z 0.0000ero z 0.0000)
G00 Z 10.0000 F 500.0000 (going up)
M03 (turn on plasma)
G04 P0.2 (pause)
G01 Z 1.0000 (going to cutting z 1.0000)
G01 Z -1.0000 F 100.0000(Penetrate)
G01 X 305.6411 Y 219.8608 Z -1.0000 F 400.0000
G00 Z 5.0000
M05 (turn off plasma)
(End cutting path id: path4412)

(Start cutting path id: path4410)
(Change tool to Plasma cutter)
 
G00 Z 5.0000
G00 X 305.6411 Y 179.0009
G31 Z -100.0000 F 500.0000 (f 500.0000ind metal)
G92 Z 0.0000 (z 0.0000ero z 0.0000)
G00 Z 10.0000 F 500.0000 (going up)
M03 (turn on plasma)
G04 P0.2 (pause)
G01 Z 1.0000 (going to cutting z 1.0000)
G01 Z -1.0000 F 100.0000(Penetrate)
G01 X 305.6411 Y 219.8608 Z -1.0000 F 400.0000
G00 Z 5.0000
M05 (turn off plasma)
(End cutting path id: path4410)

(Start cutting path id: path4408)
(Change tool to Plasma cutter)
 
G00 Z 5.0000
G00 X 305.6411 Y 0.1411
G31 Z -100.0000 F 500.0000 (f 500.0000ind metal)
G92 Z 0.0000 (z 0.0000ero z 0.0000)
G00 Z 10.0000 F 500.0000 (going up)
M03 (turn on plasma)
G04 P0.2 (pause)
G01 Z 1.0000 (going to cutting z 1.0000)
G01 Z -1.0000 F 100.0000(Penetrate)
G01 X 393.1411 Y 0.1411 Z -1.0000 F 400.0000
G00 Z 5.0000
M05 (turn off plasma)
(End cutting path id: path4408)

(Start cutting path id: path4406)
(Change tool to Plasma cutter)
 
G00 Z 5.0000
G00 X 305.6411 Y 41.0009
G31 Z -100.0000 F 500.0000 (f 500.0000ind metal)
G92 Z 0.0000 (z 0.0000ero z 0.0000)
G00 Z 10.0000 F 500.0000 (going up)
M03 (turn on plasma)
G04 P0.2 (pause)
G01 Z 1.0000 (going to cutting z 1.0000)
G01 Z -1.0000 F 100.0000(Penetrate)
G01 X 305.6411 Y 0.1411 Z -1.0000 F 400.0000
G00 Z 5.0000
M05 (turn off plasma)
(End cutting path id: path4406)

(Start cutting path id: path4404)
(Change tool to Plasma cutter)
 
G00 Z 5.0000
G00 X 425.1411 Y 32.1411
G31 Z -100.0000 F 500.0000 (f 500.0000ind metal)
G92 Z 0.0000 (z 0.0000ero z 0.0000)
G00 Z 10.0000 F 500.0000 (going up)
M03 (turn on plasma)
G04 P0.2 (pause)
G01 Z 1.0000 (going to cutting z 1.0000)
G01 Z -1.0000 F 100.0000(Penetrate)
G01 X 425.1411 Y 187.8608 Z -1.0000 F 400.0000
G00 Z 5.0000
M05 (turn off plasma)
(End cutting path id: path4404)

(Start cutting path id: path4402)
(Change tool to Plasma cutter)
 
G00 Z 5.0000
G00 X 425.1411 Y 187.8608
G31 Z -100.0000 F 500.0000 (f 500.0000ind metal)
G92 Z 0.0000 (z 0.0000ero z 0.0000)
G00 Z 10.0000 F 500.0000 (going up)
M03 (turn on plasma)
G04 P0.2 (pause)
G01 Z 1.0000 (going to cutting z 1.0000)
G01 Z -1.0000 F 100.0000(Penetrate)
G03 X 415.7685 Y 210.4882 Z -1.0000 I -32.0000 J -0.0000 F 400.0000
G03 X 393.1411 Y 219.8608 Z -1.0000 I -22.6274 J -22.6274
G00 Z 5.0000
M05 (turn off plasma)
(End cutting path id: path4402)

(Start cutting path id: path4400)
(Change tool to Plasma cutter)
 
G00 Z 5.0000
G00 X 393.1411 Y 0.1411
G31 Z -100.0000 F 500.0000 (f 500.0000ind metal)
G92 Z 0.0000 (z 0.0000ero z 0.0000)
G00 Z 10.0000 F 500.0000 (going up)
M03 (turn on plasma)
G04 P0.2 (pause)
G01 Z 1.0000 (going to cutting z 1.0000)
G01 Z -1.0000 F 100.0000(Penetrate)
G03 X 415.7685 Y 9.5137 Z -1.0000 I -0.0000 J 32.0000 F 400.0000
G03 X 425.1411 Y 32.1411 Z -1.0000 I -22.6274 J 22.6274
G00 Z 5.0000
M05 (turn off plasma)
(End cutting path id: path4400)

(Start cutting path id: path4398)
(Change tool to Plasma cutter)
 
G00 Z 5.0000
G00 X 0.1411 Y 32.1411
G31 Z -100.0000 F 500.0000 (f 500.0000ind metal)
G92 Z 0.0000 (z 0.0000ero z 0.0000)
G00 Z 10.0000 F 500.0000 (going up)
M03 (turn on plasma)
G04 P0.2 (pause)
G01 Z 1.0000 (going to cutting z 1.0000)
G01 Z -1.0000 F 100.0000(Penetrate)
G01 X 0.1411 Y 187.8608 Z -1.0000 F 400.0000
G00 Z 5.0000
M05 (turn off plasma)
(End cutting path id: path4398)

(Start cutting path id: path4396)
(Change tool to Plasma cutter)
 
G00 Z 5.0000
G00 X 32.1411 Y 219.8608
G31 Z -100.0000 F 500.0000 (f 500.0000ind metal)
G92 Z 0.0000 (z 0.0000ero z 0.0000)
G00 Z 10.0000 F 500.0000 (going up)
M03 (turn on plasma)
G04 P0.2 (pause)
G01 Z 1.0000 (going to cutting z 1.0000)
G01 Z -1.0000 F 100.0000(Penetrate)
G03 X 9.5137 Y 210.4882 Z -1.0000 I -0.0000 J -32.0000 F 400.0000
G03 X 0.1411 Y 187.8608 Z -1.0000 I 22.6274 J -22.6274
G00 Z 5.0000
M05 (turn off plasma)
(End cutting path id: path4396)

(Start cutting path id: path4394)
(Change tool to Plasma cutter)
 
G00 Z 5.0000
G00 X 0.1411 Y 32.1411
G31 Z -100.0000 F 500.0000 (f 500.0000ind metal)
G92 Z 0.0000 (z 0.0000ero z 0.0000)
G00 Z 10.0000 F 500.0000 (going up)
M03 (turn on plasma)
G04 P0.2 (pause)
G01 Z 1.0000 (going to cutting z 1.0000)
G01 Z -1.0000 F 100.0000(Penetrate)
G03 X 9.5137 Y 9.5137 Z -1.0000 I 32.0000 J 0.0000 F 400.0000
G03 X 32.1411 Y 0.1411 Z -1.0000 I 22.6274 J 22.6274
G00 Z 5.0000
M05 (turn off plasma)
(End cutting path id: path4394)

(Start cutting path id: path4392)
(Change tool to Plasma cutter)
 
G00 Z 5.0000
G00 X 23.8911 Y 60.0009
G31 Z -100.0000 F 500.0000 (f 500.0000ind metal)
G92 Z 0.0000 (z 0.0000ero z 0.0000)
G00 Z 10.0000 F 500.0000 (going up)
M03 (turn on plasma)
G04 P0.2 (pause)
G01 Z 1.0000 (going to cutting z 1.0000)
G01 Z -1.0000 F 100.0000(Penetrate)
G03 X 23.0538 Y 63.1259 Z -1.0000 I -6.2500 J 0.0000 F 400.0000
G03 X 20.7661 Y 65.4136 Z -1.0000 I -5.4127 J -3.1250
G03 X 17.6411 Y 66.2509 Z -1.0000 I -3.1250 J -5.4127
G03 X 14.5161 Y 65.4136 Z -1.0000 I -0.0000 J -6.2500
G03 X 12.2285 Y 63.1259 Z -1.0000 I 3.1250 J -5.4127
G03 X 11.3911 Y 60.0009 Z -1.0000 I 5.4127 J -3.1250
G03 X 12.2285 Y 56.8759 Z -1.0000 I 6.2500 J 0.0000
G03 X 14.5161 Y 54.5883 Z -1.0000 I 5.4127 J 3.1250
G03 X 17.6411 Y 53.7509 Z -1.0000 I 3.1250 J 5.4127
G03 X 20.7661 Y 54.5883 Z -1.0000 I -0.0000 J 6.2500
G03 X 23.0538 Y 56.8759 Z -1.0000 I -3.1250 J 5.4127
G03 X 23.8911 Y 60.0009 Z -1.0000 I -5.4127 J 3.1250
G01 X 23.8911 Y 60.0009 Z -1.0000
G00 Z 5.0000
M05 (turn off plasma)
(End cutting path id: path4392)

(Start cutting path id: path4390)
(Change tool to Plasma cutter)
 
G00 Z 5.0000
G00 X 23.8911 Y 160.0010
G31 Z -100.0000 F 500.0000 (f 500.0000ind metal)
G92 Z 0.0000 (z 0.0000ero z 0.0000)
G00 Z 10.0000 F 500.0000 (going up)
M03 (turn on plasma)
G04 P0.2 (pause)
G01 Z 1.0000 (going to cutting z 1.0000)
G01 Z -1.0000 F 100.0000(Penetrate)
G03 X 23.0538 Y 163.1260 Z -1.0000 I -6.2500 J 0.0000 F 400.0000
G03 X 20.7661 Y 165.4136 Z -1.0000 I -5.4127 J -3.1250
G03 X 17.6411 Y 166.2510 Z -1.0000 I -3.1250 J -5.4127
G03 X 14.5161 Y 165.4136 Z -1.0000 I -0.0000 J -6.2500
G03 X 12.2285 Y 163.1260 Z -1.0000 I 3.1250 J -5.4127
G03 X 11.3911 Y 160.0010 Z -1.0000 I 5.4127 J -3.1250
G03 X 12.2285 Y 156.8760 Z -1.0000 I 6.2500 J -0.0000
G03 X 14.5161 Y 154.5883 Z -1.0000 I 5.4127 J 3.1250
G03 X 17.6411 Y 153.7510 Z -1.0000 I 3.1250 J 5.4127
G03 X 20.7661 Y 154.5883 Z -1.0000 I -0.0000 J 6.2500
G03 X 23.0538 Y 156.8760 Z -1.0000 I -3.1250 J 5.4127
G03 X 23.8911 Y 160.0010 Z -1.0000 I -5.4127 J 3.1250
G01 X 23.8911 Y 160.0010 Z -1.0000
G00 Z 5.0000
M05 (turn off plasma)
(End cutting path id: path4390)

(Start cutting path id: path4388)
(Change tool to Plasma cutter)
 
G00 Z 5.0000
G00 X 413.8911 Y 60.0009
G31 Z -100.0000 F 500.0000 (f 500.0000ind metal)
G92 Z 0.0000 (z 0.0000ero z 0.0000)
G00 Z 10.0000 F 500.0000 (going up)
M03 (turn on plasma)
G04 P0.2 (pause)
G01 Z 1.0000 (going to cutting z 1.0000)
G01 Z -1.0000 F 100.0000(Penetrate)
G03 X 413.0566 Y 63.1295 Z -1.0000 I -6.2500 J 0.0084 F 400.0000
G03 X 410.7685 Y 65.4206 Z -1.0000 I -5.4155 J -3.1201
G03 X 407.6411 Y 66.2593 Z -1.0000 I -3.1274 J -5.4113
G03 X 404.5137 Y 65.4206 Z -1.0000 I -0.0000 J -6.2500
G03 X 402.2257 Y 63.1295 Z -1.0000 I 3.1274 J -5.4113
G03 X 401.3911 Y 60.0009 Z -1.0000 I 5.4155 J -3.1201
G03 X 402.2257 Y 56.8724 Z -1.0000 I 6.2500 J -0.0084
G03 X 404.5137 Y 54.5813 Z -1.0000 I 5.4155 J 3.1201
G03 X 407.6411 Y 53.7425 Z -1.0000 I 3.1274 J 5.4113
G03 X 410.7685 Y 54.5813 Z -1.0000 I 0.0000 J 6.2500
G03 X 413.0566 Y 56.8724 Z -1.0000 I -3.1274 J 5.4113
G03 X 413.8911 Y 60.0009 Z -1.0000 I -5.4155 J 3.1201
G01 X 413.8911 Y 60.0009 Z -1.0000
G00 Z 5.0000
M05 (turn off plasma)
(End cutting path id: path4388)

(Start cutting path id: path4386)
(Change tool to Plasma cutter)
 
G00 Z 5.0000
G00 X 413.8911 Y 160.0010
G31 Z -100.0000 F 500.0000 (f 500.0000ind metal)
G92 Z 0.0000 (z 0.0000ero z 0.0000)
G00 Z 10.0000 F 500.0000 (going up)
M03 (turn on plasma)
G04 P0.2 (pause)
G01 Z 1.0000 (going to cutting z 1.0000)
G01 Z -1.0000 F 100.0000(Penetrate)
G03 X 413.0566 Y 163.1295 Z -1.0000 I -6.2500 J 0.0084 F 400.0000
G03 X 410.7685 Y 165.4206 Z -1.0000 I -5.4155 J -3.1201
G03 X 407.6411 Y 166.2594 Z -1.0000 I -3.1274 J -5.4113
G03 X 404.5137 Y 165.4206 Z -1.0000 I 0.0000 J -6.2500
G03 X 402.2257 Y 163.1295 Z -1.0000 I 3.1274 J -5.4113
G03 X 401.3911 Y 160.0010 Z -1.0000 I 5.4155 J -3.1201
G03 X 402.2257 Y 156.8724 Z -1.0000 I 6.2500 J -0.0084
G03 X 404.5137 Y 154.5813 Z -1.0000 I 5.4155 J 3.1201
G03 X 407.6411 Y 153.7426 Z -1.0000 I 3.1274 J 5.4113
G03 X 410.7685 Y 154.5813 Z -1.0000 I 0.0000 J 6.2500
G03 X 413.0566 Y 156.8724 Z -1.0000 I -3.1274 J 5.4113
G03 X 413.8911 Y 160.0010 Z -1.0000 I -5.4155 J 3.1201
G01 X 413.8911 Y 160.0010 Z -1.0000
G00 Z 5.0000
M05 (turn off plasma)
(End cutting path id: path4386)

(Start cutting path id: path4384)
(Change tool to Plasma cutter)
 
G00 Z 5.0000
G00 X 373.8911 Y 60.0009
G31 Z -100.0000 F 500.0000 (f 500.0000ind metal)
G92 Z 0.0000 (z 0.0000ero z 0.0000)
G00 Z 10.0000 F 500.0000 (going up)
M03 (turn on plasma)
G04 P0.2 (pause)
G01 Z 1.0000 (going to cutting z 1.0000)
G01 Z -1.0000 F 100.0000(Penetrate)
G03 X 373.0565 Y 63.1294 Z -1.0000 I -6.2500 J 0.0082 F 400.0000
G03 X 370.7685 Y 65.4204 Z -1.0000 I -5.4154 J -3.1203
G03 X 367.6411 Y 66.2591 Z -1.0000 I -3.1274 J -5.4113
G03 X 364.5137 Y 65.4204 Z -1.0000 I -0.0000 J -6.2500
G03 X 362.2257 Y 63.1294 Z -1.0000 I 3.1274 J -5.4113
G03 X 361.3911 Y 60.0009 Z -1.0000 I 5.4154 J -3.1203
G03 X 362.2257 Y 56.8725 Z -1.0000 I 6.2500 J -0.0082
G03 X 364.5137 Y 54.5814 Z -1.0000 I 5.4154 J 3.1203
G03 X 367.6411 Y 53.7427 Z -1.0000 I 3.1274 J 5.4113
G03 X 370.7685 Y 54.5814 Z -1.0000 I 0.0000 J 6.2500
G03 X 373.0565 Y 56.8725 Z -1.0000 I -3.1274 J 5.4113
G03 X 373.8911 Y 60.0009 Z -1.0000 I -5.4154 J 3.1203
G01 X 373.8911 Y 60.0009 Z -1.0000
G00 Z 5.0000
M05 (turn off plasma)
(End cutting path id: path4384)

(Start cutting path id: path4382)
(Change tool to Plasma cutter)
 
G00 Z 5.0000
G00 X 373.8911 Y 160.0010
G31 Z -100.0000 F 500.0000 (f 500.0000ind metal)
G92 Z 0.0000 (z 0.0000ero z 0.0000)
G00 Z 10.0000 F 500.0000 (going up)
M03 (turn on plasma)
G04 P0.2 (pause)
G01 Z 1.0000 (going to cutting z 1.0000)
G01 Z -1.0000 F 100.0000(Penetrate)
G03 X 373.0565 Y 163.1294 Z -1.0000 I -6.2500 J 0.0082 F 400.0000
G03 X 370.7685 Y 165.4204 Z -1.0000 I -5.4154 J -3.1203
G03 X 367.6411 Y 166.2591 Z -1.0000 I -3.1274 J -5.4113
G03 X 364.5137 Y 165.4204 Z -1.0000 I -0.0000 J -6.2500
G03 X 362.2257 Y 163.1294 Z -1.0000 I 3.1274 J -5.4113
G03 X 361.3911 Y 160.0010 Z -1.0000 I 5.4154 J -3.1203
G03 X 362.2257 Y 156.8725 Z -1.0000 I 6.2500 J -0.0082
G03 X 364.5137 Y 154.5815 Z -1.0000 I 5.4154 J 3.1203
G03 X 367.6411 Y 153.7428 Z -1.0000 I 3.1274 J 5.4113
G03 X 370.7685 Y 154.5815 Z -1.0000 I 0.0000 J 6.2500
G03 X 373.0565 Y 156.8725 Z -1.0000 I -3.1274 J 5.4113
G03 X 373.8911 Y 160.0010 Z -1.0000 I -5.4154 J 3.1203
G01 X 373.8911 Y 160.0010 Z -1.0000
G00 Z 5.0000
M05 (turn off plasma)
(End cutting path id: path4382)

(Start cutting path id: path4380)
(Change tool to Plasma cutter)
 
G00 Z 5.0000
G00 X 387.6411 Y 110.0009
G31 Z -100.0000 F 500.0000 (f 500.0000ind metal)
G92 Z 0.0000 (z 0.0000ero z 0.0000)
G00 Z 10.0000 F 500.0000 (going up)
M03 (turn on plasma)
G04 P0.2 (pause)
G01 Z 1.0000 (going to cutting z 1.0000)
G01 Z -1.0000 F 100.0000(Penetrate)
G03 X 382.9520 Y 127.5009 Z -1.0000 I -35.0000 J 0.0000 F 400.0000
G03 X 370.1411 Y 140.3118 Z -1.0000 I -30.3109 J -17.5000
G03 X 352.6411 Y 145.0009 Z -1.0000 I -17.5000 J -30.3109
G03 X 335.1411 Y 140.3118 Z -1.0000 I 0.0000 J -35.0000
G03 X 322.3302 Y 127.5009 Z -1.0000 I 17.5000 J -30.3109
G03 X 317.6411 Y 110.0009 Z -1.0000 I 30.3109 J -17.5000
G03 X 322.3302 Y 92.5009 Z -1.0000 I 35.0000 J -0.0000
G03 X 335.1411 Y 79.6900 Z -1.0000 I 30.3109 J 17.5000
G03 X 352.6411 Y 75.0009 Z -1.0000 I 17.5000 J 30.3109
G03 X 370.1411 Y 79.6900 Z -1.0000 I -0.0000 J 35.0000
G03 X 382.9520 Y 92.5009 Z -1.0000 I -17.5000 J 30.3109
G03 X 387.6411 Y 110.0009 Z -1.0000 I -30.3109 J 17.5000
G01 X 387.6411 Y 110.0009 Z -1.0000
G00 Z 5.0000
M05 (turn off plasma)
(End cutting path id: path4380)

(Start cutting path id: path4378)
(Change tool to Plasma cutter)
 
G00 Z 5.0000
G00 X 127.6411 Y 145.0009
G31 Z -100.0000 F 500.0000 (f 500.0000ind metal)
G92 Z 0.0000 (z 0.0000ero z 0.0000)
G00 Z 10.0000 F 500.0000 (going up)
M03 (turn on plasma)
G04 P0.2 (pause)
G01 Z 1.0000 (going to cutting z 1.0000)
G01 Z -1.0000 F 100.0000(Penetrate)
G01 X 232.6411 Y 145.0009 Z -1.0000 F 400.0000
G00 Z 5.0000
M05 (turn off plasma)
(End cutting path id: path4378)

(Start cutting path id: path4376)
(Change tool to Plasma cutter)
 
G00 Z 5.0000
G00 X 127.6411 Y 145.0009
G31 Z -100.0000 F 500.0000 (f 500.0000ind metal)
G92 Z 0.0000 (z 0.0000ero z 0.0000)
G00 Z 10.0000 F 500.0000 (going up)
M03 (turn on plasma)
G04 P0.2 (pause)
G01 Z 1.0000 (going to cutting z 1.0000)
G01 Z -1.0000 F 100.0000(Penetrate)
G03 X 110.1411 Y 140.3118 Z -1.0000 I 0.0000 J -35.0000 F 400.0000
G03 X 97.3302 Y 127.5009 Z -1.0000 I 17.5000 J -30.3109
G03 X 92.6411 Y 110.0009 Z -1.0000 I 30.3109 J -17.5000
G03 X 97.3302 Y 92.5009 Z -1.0000 I 35.0000 J -0.0000
G03 X 110.1411 Y 79.6900 Z -1.0000 I 30.3109 J 17.5000
G03 X 127.6411 Y 75.0009 Z -1.0000 I 17.5000 J 30.3109
G00 Z 5.0000
M05 (turn off plasma)
(End cutting path id: path4376)

(Start cutting path id: path4374)
(Change tool to Plasma cutter)
 
G00 Z 5.0000
G00 X 232.6411 Y 75.0009
G31 Z -100.0000 F 500.0000 (f 500.0000ind metal)
G92 Z 0.0000 (z 0.0000ero z 0.0000)
G00 Z 10.0000 F 500.0000 (going up)
M03 (turn on plasma)
G04 P0.2 (pause)
G01 Z 1.0000 (going to cutting z 1.0000)
G01 Z -1.0000 F 100.0000(Penetrate)
G01 X 127.6411 Y 75.0009 Z -1.0000 F 400.0000
G00 Z 5.0000
M05 (turn off plasma)
(End cutting path id: path4374)

(Start cutting path id: path4372)
(Change tool to Plasma cutter)
 
G00 Z 5.0000
G00 X 232.6411 Y 75.0009
G31 Z -100.0000 F 500.0000 (f 500.0000ind metal)
G92 Z 0.0000 (z 0.0000ero z 0.0000)
G00 Z 10.0000 F 500.0000 (going up)
M03 (turn on plasma)
G04 P0.2 (pause)
G01 Z 1.0000 (going to cutting z 1.0000)
G01 Z -1.0000 F 100.0000(Penetrate)
G03 X 250.1411 Y 79.6900 Z -1.0000 I -0.0000 J 35.0000 F 400.0000
G03 X 262.9520 Y 92.5009 Z -1.0000 I -17.5000 J 30.3109
G03 X 267.6411 Y 110.0009 Z -1.0000 I -30.3109 J 17.5000
G03 X 262.9520 Y 127.5009 Z -1.0000 I -35.0000 J 0.0000
G03 X 250.1411 Y 140.3118 Z -1.0000 I -30.3109 J -17.5000
G03 X 232.6411 Y 145.0009 Z -1.0000 I -17.5000 J -30.3109
G00 Z 5.0000
M05 (turn off plasma)
(End cutting path id: path4372)

(Start cutting path id: path4370)
(Change tool to Plasma cutter)
 
G00 Z 5.0000
G00 X 415.6411 Y 199.8608
G31 Z -100.0000 F 500.0000 (f 500.0000ind metal)
G92 Z 0.0000 (z 0.0000ero z 0.0000)
G00 Z 10.0000 F 500.0000 (going up)
M03 (turn on plasma)
G04 P0.2 (pause)
G01 Z 1.0000 (going to cutting z 1.0000)
G01 Z -1.0000 F 100.0000(Penetrate)
G03 X 415.3079 Y 201.1129 Z -1.0000 I -2.5000 J 0.0050 F 400.0000
G03 X 414.3926 Y 202.0300 Z -1.0000 I -2.1667 J -1.2471
G03 X 413.1411 Y 202.3658 Z -1.0000 I -1.2515 J -2.1642
G03 X 411.8897 Y 202.0300 Z -1.0000 I 0.0000 J -2.5000
G03 X 410.9744 Y 201.1129 Z -1.0000 I 1.2515 J -2.1642
G03 X 410.6411 Y 199.8608 Z -1.0000 I 2.1667 J -1.2471
G03 X 410.9744 Y 198.6086 Z -1.0000 I 2.5000 J -0.0050
G03 X 411.8897 Y 197.6915 Z -1.0000 I 2.1667 J 1.2471
G03 X 413.1411 Y 197.3557 Z -1.0000 I 1.2515 J 2.1642
G03 X 414.3926 Y 197.6915 Z -1.0000 I 0.0000 J 2.5000
G03 X 415.3079 Y 198.6086 Z -1.0000 I -1.2515 J 2.1642
G03 X 415.6411 Y 199.8608 Z -1.0000 I -2.1667 J 1.2471
G01 X 415.6411 Y 199.8608 Z -1.0000
G00 Z 5.0000
M05 (turn off plasma)
(End cutting path id: path4370)

(Start cutting path id: path4368)
(Change tool to Plasma cutter)
 
G00 Z 5.0000
G00 X 372.1411 Y 199.8608
G31 Z -100.0000 F 500.0000 (f 500.0000ind metal)
G92 Z 0.0000 (z 0.0000ero z 0.0000)
G00 Z 10.0000 F 500.0000 (going up)
M03 (turn on plasma)
G04 P0.2 (pause)
G01 Z 1.0000 (going to cutting z 1.0000)
G01 Z -1.0000 F 100.0000(Penetrate)
G03 X 371.8062 Y 201.1108 Z -1.0000 I -2.5000 J 0.0000 F 400.0000
G03 X 370.8911 Y 202.0258 Z -1.0000 I -2.1651 J -1.2500
G03 X 369.6411 Y 202.3608 Z -1.0000 I -1.2500 J -2.1651
G03 X 368.3911 Y 202.0258 Z -1.0000 I -0.0000 J -2.5000
G03 X 367.4760 Y 201.1108 Z -1.0000 I 1.2500 J -2.1651
G03 X 367.1411 Y 199.8608 Z -1.0000 I 2.1651 J -1.2500
G03 X 367.4760 Y 198.6108 Z -1.0000 I 2.5000 J -0.0000
G03 X 368.3911 Y 197.6957 Z -1.0000 I 2.1651 J 1.2500
G03 X 369.6411 Y 197.3608 Z -1.0000 I 1.2500 J 2.1651
G03 X 370.8911 Y 197.6957 Z -1.0000 I -0.0000 J 2.5000
G03 X 371.8062 Y 198.6108 Z -1.0000 I -1.2500 J 2.1651
G03 X 372.1411 Y 199.8608 Z -1.0000 I -2.1651 J 1.2500
G01 X 372.1411 Y 199.8608 Z -1.0000
G00 Z 5.0000
M05 (turn off plasma)
(End cutting path id: path4368)



(Footer)
M5
G00 X0.0000 Y0.0000
M2
(Using default footer. To add your own footer create file "footer" in the output dir.)
(end)
%