%
(Generated by SketchUcam V1.4-22ee)
(Bit diameter: ~ 3mm)
(Feed rate: 2540mm/min)
(Material Thickness: ~ 6mm)
(Material length: ~ 559mm X width: ~ 1067mm)
(Overhead Gantry: false)
(Plunge Depth first)
(Optimization is ON)
(www.PhlatBoyz.com)
G90 G21 G49  G17
M3 S15000
G00 Z3.175
 X9.919 Y9.919
G00 Z0.500
G01 Z-6.350 F2540
G03 X15.8006 Y5.4059 R28.4125
 X22.6498 Y2.5689 R28.4125
 X30.1041 Y1.5875 R28.4125
G01 X48.412
 Y36.587
 X86.587
 Y1.587
 X278.412
 Y36.588
 X316.587
 Y1.588
 X394.896
G03 X402.3502 Y2.5689 R28.4125
 X409.1994 Y5.4059 R28.4125
 X415.0810 Y9.9190 R28.4125
 X419.5941 Y15.8006 R28.4125
 X422.4311 Y22.6498 R28.4125
 X423.4125 Y30.1041 R28.4125
G01 Y194.896
G03 X422.4311 Y202.3502 R28.4125
 X419.5941 Y209.1994 R28.4125
 X415.0810 Y215.0810 R28.4125
 X409.1994 Y219.5941 R28.4125
 X402.3502 Y222.4311 R28.4125
 X394.8959 Y223.4125 R28.4125
G01 X316.587
 Y188.412
 X278.412
 Y223.412
 X86.587
 Y188.412
 X48.412
 Y223.412
 X30.104
G03 X22.6498 Y222.4311 R28.4125
 X15.8006 Y219.5941 R28.4125
 X9.9190 Y215.0810 R28.4125
 X5.4059 Y209.1994 R28.4125
 X2.5689 Y202.3502 R28.4125
 X1.5875 Y194.8959 R28.4125
G01 Y30.104
G03 X2.5689 Y22.6498 R28.4125
 X5.4059 Y15.8006 R28.4125
 X9.9190 Y9.9190 R28.4125
G00 Z3.175
 X7.655 Y7.655
G00 Z0.500
G01 Z-6.350 F2540
G02 X2.6326 Y14.1994 R31.5875
 X-0.5244 Y21.8210 R31.5875
 X-1.5875 Y29.8959 R31.5875
(move x= -0.062500 LT min of 0.0)
G01 X0.000 Y195.104
G02 X-0.5244 Y203.1790 R31.5875
 X2.6326 Y210.8006 R31.5875
 X7.6546 Y217.3454 R31.5875
 X14.1994 Y222.3674 R31.5875
 X21.8210 Y225.5244 R31.5875
 X29.8959 Y226.5875 R31.5875
G01 X51.587
 Y191.587
 X83.412
 Y226.588
 X281.587
 Y191.587
 X313.413
 Y226.588
 X395.104
G02 X403.1790 Y225.5244 R31.5875
 X410.8006 Y222.3674 R31.5875
 X417.3454 Y217.3454 R31.5875
 X422.3674 Y210.8006 R31.5875
 X425.5244 Y203.1790 R31.5875
 X426.5875 Y195.1041 R31.5875
G01 Y29.896
G02 X425.5244 Y21.8210 R31.5875
 X422.3674 Y14.1994 R31.5875
 X417.3454 Y7.6546 R31.5875
 X410.8006 Y2.6326 R31.5875
 X403.1790 Y-0.5244 R31.5875
 X395.1041 Y-1.5875 R31.5875
(move y= -0.062500 LT min of 0.0)
G01 X313.412 Y0.000
 Y33.413
 X281.587
(move y= -0.062500 LT min of 0.0)
 Y0.000
(move y= -0.062500 LT min of 0.0)
 X83.412
 Y33.413
 X51.587
(move y= -0.062500 LT min of 0.0)
 Y0.000
(move y= -0.062500 LT min of 0.0)
 X29.896
G02 X21.8210 Y-0.5244 R31.5875
 X14.1994 Y2.6326 R31.5875
 X7.6546 Y7.6546 R31.5875
G00 Z3.175
G00 X0 Y0 (home)
M05
M30
%
