%
(Header)
(Generated by gcodetools from Inkscape.)
(Using default header. To add your own header create file "header" in the output dir.)
(M3)
(Header end.)
G21 (All units in mm)

(Start cutting path id: path7630)
(Change tool to Plasma cutter)
 
G00 Z30.000000
G00 X372.141131 Y199.860780
G31 Z-100 F500 (find metal)
G00 Z0.0000 (zero z)
G00 Z10 F500 (going up)
(M03 (turn on plasma))
G04 P0.2 (pause)
G01 Z1 (going to cutting z)
G01 Z-1.000000 F100.0(Penetrate)
G02 X372.055944 Y199.213730 Z-1.000000 I-2.500009 J0.000006 F400.000000
G02 X371.806190 Y198.610776 Z-1.000000 I-2.414822 J0.647057
G00 Z30.000000
(M05 (turn off plasma))
(End cutting path id: path7630)


(Start cutting path id: path7628)
(Change tool to Plasma cutter)
 
G00 Z30.000000
G00 X371.806190 Y198.610776
G31 Z-100 F500 (find metal)
G00 Z0.0000 (zero z)
G00 Z10 F500 (going up)
(M03 (turn on plasma))
G04 P0.2 (pause)
G01 Z1 (going to cutting z)
G01 Z-1.000000 F100.0(Penetrate)
G02 X371.408887 Y198.093006 Z-1.000000 I-2.165066 J1.250015 F400.000000
G02 X370.891113 Y197.695710 Z-1.000000 I-1.767763 J1.767784
G00 Z30.000000
(M05 (turn off plasma))
(End cutting path id: path7628)


(Start cutting path id: path7626)
(Change tool to Plasma cutter)
 
G00 Z30.000000
G00 X370.891113 Y197.695710
G31 Z-100 F500 (find metal)
G00 Z0.0000 (zero z)
G00 Z10 F500 (going up)
(M03 (turn on plasma))
G04 P0.2 (pause)
G01 Z1 (going to cutting z)
G01 Z-1.000000 F100.0(Penetrate)
G02 X370.288165 Y197.445959 Z-1.000000 I-1.250006 J2.165071 F400.000000
G02 X369.641122 Y197.360771 Z-1.000000 I-0.647058 J2.414821
G00 Z30.000000
(M05 (turn off plasma))
(End cutting path id: path7626)


(Start cutting path id: path7624)
(Change tool to Plasma cutter)
 
G00 Z30.000000
G00 X369.641122 Y197.360771
G31 Z-100 F500 (find metal)
G00 Z0.0000 (zero z)
G00 Z10 F500 (going up)
(M03 (turn on plasma))
G04 P0.2 (pause)
G01 Z1 (going to cutting z)
G01 Z-1.000000 F100.0(Penetrate)
G02 X368.994065 Y197.445955 Z-1.000000 I-0.000013 J2.500009 F400.000000
G02 X368.391103 Y197.695710 Z-1.000000 I0.647045 J2.414825
G00 Z30.000000
(M05 (turn off plasma))
(End cutting path id: path7624)


(Start cutting path id: path7622)
(Change tool to Plasma cutter)
 
G00 Z30.000000
G00 X368.391103 Y197.695710
G31 Z-100 F500 (find metal)
G00 Z0.0000 (zero z)
G00 Z10 F500 (going up)
(M03 (turn on plasma))
G04 P0.2 (pause)
G01 Z1 (going to cutting z)
G01 Z-1.000000 F100.0(Penetrate)
G02 X367.873329 Y198.093006 Z-1.000000 I1.249988 J2.165081 F400.000000
G02 X367.476026 Y198.610776 Z-1.000000 I1.767763 J1.767784
G00 Z30.000000
(M05 (turn off plasma))
(End cutting path id: path7622)


(Start cutting path id: path7620)
(Change tool to Plasma cutter)
 
G00 Z30.000000
G00 X367.476026 Y198.610776
G31 Z-100 F500 (find metal)
G00 Z0.0000 (zero z)
G00 Z10 F500 (going up)
(M03 (turn on plasma))
G04 P0.2 (pause)
G01 Z1 (going to cutting z)
G01 Z-1.000000 F100.0(Penetrate)
G02 X367.226287 Y199.213732 Z-1.000000 I2.165096 J1.249962 F400.000000
G02 X367.141113 Y199.860780 Z-1.000000 I2.414835 J0.647006
G00 Z30.000000
(M05 (turn off plasma))
(End cutting path id: path7620)


(Start cutting path id: path7618)
(Change tool to Plasma cutter)
 
G00 Z30.000000
G00 X367.141113 Y199.860780
G31 Z-100 F500 (find metal)
G00 Z0.0000 (zero z)
G00 Z10 F500 (going up)
(M03 (turn on plasma))
G04 P0.2 (pause)
G01 Z1 (going to cutting z)
G01 Z-1.000000 F100.0(Penetrate)
G02 X367.226287 Y200.507828 Z-1.000000 I2.500009 J0.000043 F400.000000
G02 X367.476026 Y201.110785 Z-1.000000 I2.414835 J-0.647006
G00 Z30.000000
(M05 (turn off plasma))
(End cutting path id: path7618)


(Start cutting path id: path7616)
(Change tool to Plasma cutter)
 
G00 Z30.000000
G00 X367.476026 Y201.110785
G31 Z-100 F500 (find metal)
G00 Z0.0000 (zero z)
G00 Z10 F500 (going up)
(M03 (turn on plasma))
G04 P0.2 (pause)
G01 Z1 (going to cutting z)
G01 Z-1.000000 F100.0(Penetrate)
G02 X367.873329 Y201.628554 Z-1.000000 I2.165066 J-1.250015 F400.000000
G02 X368.391103 Y202.025851 Z-1.000000 I1.767763 J-1.767784
G00 Z30.000000
(M05 (turn off plasma))
(End cutting path id: path7616)


(Start cutting path id: path7614)
(Change tool to Plasma cutter)
 
G00 Z30.000000
G00 X368.391103 Y202.025851
G31 Z-100 F500 (find metal)
G00 Z0.0000 (zero z)
G00 Z10 F500 (going up)
(M03 (turn on plasma))
G04 P0.2 (pause)
G01 Z1 (going to cutting z)
G01 Z-1.000000 F100.0(Penetrate)
G02 X368.994065 Y202.275605 Z-1.000000 I1.250006 J-2.165071 F400.000000
G02 X369.641122 Y202.360789 Z-1.000000 I0.647045 J-2.414825
G00 Z30.000000
(M05 (turn off plasma))
(End cutting path id: path7614)


(Start cutting path id: path7612)
(Change tool to Plasma cutter)
 
G00 Z30.000000
G00 X369.641122 Y202.360789
G31 Z-100 F500 (find metal)
G00 Z0.0000 (zero z)
G00 Z10 F500 (going up)
(M03 (turn on plasma))
G04 P0.2 (pause)
G01 Z1 (going to cutting z)
G01 Z-1.000000 F100.0(Penetrate)
G02 X370.288165 Y202.275601 Z-1.000000 I-0.000016 J-2.500009 F400.000000
G02 X370.891113 Y202.025851 Z-1.000000 I-0.647058 J-2.414821
G00 Z30.000000
(M05 (turn off plasma))
(End cutting path id: path7612)


(Start cutting path id: path7610)
(Change tool to Plasma cutter)
 
G00 Z30.000000
G00 X370.891113 Y202.025851
G31 Z-100 F500 (find metal)
G00 Z0.0000 (zero z)
G00 Z10 F500 (going up)
(M03 (turn on plasma))
G04 P0.2 (pause)
G01 Z1 (going to cutting z)
G01 Z-1.000000 F100.0(Penetrate)
G02 X371.408887 Y201.628554 Z-1.000000 I-1.249988 J-2.165081 F400.000000
G02 X371.806190 Y201.110785 Z-1.000000 I-1.767763 J-1.767784
G00 Z30.000000
(M05 (turn off plasma))
(End cutting path id: path7610)


(Start cutting path id: path7608)
(Change tool to Plasma cutter)
 
G00 Z30.000000
G00 X371.806190 Y201.110785
G31 Z-100 F500 (find metal)
G00 Z0.0000 (zero z)
G00 Z10 F500 (going up)
(M03 (turn on plasma))
G04 P0.2 (pause)
G01 Z1 (going to cutting z)
G01 Z-1.000000 F100.0(Penetrate)
G02 X372.055944 Y200.507830 Z-1.000000 I-2.165068 J-1.250011 F400.000000
G02 X372.141131 Y199.860780 Z-1.000000 I-2.414822 J-0.647057
G00 Z30.000000
(M05 (turn off plasma))
(End cutting path id: path7608)


(Start cutting path id: path4368)
(Change tool to Plasma cutter)
 
G00 Z30.000000
G00 X372.141128 Y199.860777
G31 Z-100 F500 (find metal)
G00 Z0.0000 (zero z)
G00 Z10 F500 (going up)
(M03 (turn on plasma))
G04 P0.2 (pause)
G01 Z1 (going to cutting z)
G01 Z-1.000000 F100.0(Penetrate)
G03 X371.806191 Y201.110782 Z-1.000000 I-2.500009 J0.000000 F400.000000
G03 X370.891124 Y202.025849 Z-1.000000 I-2.165071 J-1.250005
G03 X369.641119 Y202.360787 Z-1.000000 I-1.250005 J-2.165071
G03 X368.391115 Y202.025849 Z-1.000000 I-0.000000 J-2.500009
G03 X367.476048 Y201.110782 Z-1.000000 I1.250005 J-2.165071
G03 X367.141110 Y199.860777 Z-1.000000 I2.165071 J-1.250005
G03 X367.476048 Y198.610773 Z-1.000000 I2.500009 J-0.000000
G03 X368.391115 Y197.695706 Z-1.000000 I2.165071 J1.250005
G03 X369.641119 Y197.360768 Z-1.000000 I1.250005 J2.165071
G03 X370.891124 Y197.695706 Z-1.000000 I-0.000000 J2.500009
G03 X371.806191 Y198.610773 Z-1.000000 I-1.250005 J2.165071
G03 X372.141128 Y199.860777 Z-1.000000 I-2.165071 J1.250005
G01 X372.141128 Y199.860777 Z-1.000000
G00 Z30.000000
(M05 (turn off plasma))
(End cutting path id: path4368)


(Start cutting path id: path4412)
(Change tool to Plasma cutter)
 
G00 Z30.000000
G00 X393.141115 Y219.860766
G31 Z-100 F500 (find metal)
G00 Z0.0000 (zero z)
G00 Z10 F500 (going up)
(M03 (turn on plasma))
G04 P0.2 (pause)
G01 Z1 (going to cutting z)
G01 Z-1.000000 F100.0(Penetrate)
G01 X305.641106 Y219.860766 Z-1.000000 F400.000000
G00 Z30.000000
(M05 (turn off plasma))
(End cutting path id: path4412)


(Start cutting path id: path4436)
(Change tool to Plasma cutter)
 
G00 Z30.000000
G00 X265.141116 Y219.860766
G31 Z-100 F500 (find metal)
G00 Z0.0000 (zero z)
G00 Z10 F500 (going up)
(M03 (turn on plasma))
G04 P0.2 (pause)
G01 Z1 (going to cutting z)
G01 Z-1.000000 F100.0(Penetrate)
G01 X95.141114 Y219.860766 Z-1.000000 F400.000000
G00 Z30.000000
(M05 (turn off plasma))
(End cutting path id: path4436)


(Start cutting path id: path4420)
(Change tool to Plasma cutter)
 
G00 Z30.000000
G00 X54.641112 Y219.860766
G31 Z-100 F500 (find metal)
G00 Z0.0000 (zero z)
G00 Z10 F500 (going up)
(M03 (turn on plasma))
G04 P0.2 (pause)
G01 Z1 (going to cutting z)
G01 Z-1.000000 F100.0(Penetrate)
G01 X32.141112 Y219.860766 Z-1.000000 F400.000000
G00 Z30.000000
(M05 (turn off plasma))
(End cutting path id: path4420)


(Start cutting path id: path4396)
(Change tool to Plasma cutter)
 
G00 Z30.000000
G00 X32.141112 Y219.860766
G31 Z-100 F500 (find metal)
G00 Z0.0000 (zero z)
G00 Z10 F500 (going up)
(M03 (turn on plasma))
G04 P0.2 (pause)
G01 Z1 (going to cutting z)
G01 Z-1.000000 F100.0(Penetrate)
G03 X9.513697 Y210.488185 Z-1.000000 I-0.000000 J-32.000001 F400.000000
G03 X0.141111 Y187.860773 Z-1.000000 I22.627415 J-22.627421
G00 Z30.000000
(M05 (turn off plasma))
(End cutting path id: path4396)


(Start cutting path id: path7366)
(Change tool to Plasma cutter)
 
G00 Z30.000000
G00 X0.141111 Y187.860770
G31 Z-100 F500 (find metal)
G00 Z0.0000 (zero z)
G00 Z10 F500 (going up)
(M03 (turn on plasma))
G04 P0.2 (pause)
G01 Z1 (going to cutting z)
G01 Z-1.000000 F100.0(Penetrate)
G02 X2.576968 Y200.106639 Z-1.000000 I32.000001 J-0.000006 F400.000000
G02 X9.513698 Y210.488185 Z-1.000000 I29.564144 J-12.245875
G00 Z30.000000
(M05 (turn off plasma))
(End cutting path id: path7366)


(Start cutting path id: path7364)
(Change tool to Plasma cutter)
 
G00 Z30.000000
G00 X9.513698 Y210.488185
G31 Z-100 F500 (find metal)
G00 Z0.0000 (zero z)
G00 Z10 F500 (going up)
(M03 (turn on plasma))
G04 P0.2 (pause)
G01 Z1 (going to cutting z)
G01 Z-1.000000 F100.0(Penetrate)
G02 X19.895244 Y217.424911 Z-1.000000 I22.627415 J-22.627421 F400.000000
G02 X32.141112 Y219.860766 Z-1.000000 I12.245868 J-29.564147
G00 Z30.000000
(M05 (turn off plasma))
(End cutting path id: path7364)


(Start cutting path id: path4418)
(Change tool to Plasma cutter)
 
G00 Z30.000000
G00 X54.641112 Y179.000943
G31 Z-100 F500 (find metal)
G00 Z0.0000 (zero z)
G00 Z10 F500 (going up)
(M03 (turn on plasma))
G04 P0.2 (pause)
G01 Z1 (going to cutting z)
G01 Z-1.000000 F100.0(Penetrate)
G01 X54.641112 Y219.860766 Z-1.000000 F400.000000
G00 Z30.000000
(M05 (turn off plasma))
(End cutting path id: path4418)


(Start cutting path id: path4438)
(Change tool to Plasma cutter)
 
G00 Z30.000000
G00 X95.141114 Y179.000943
G31 Z-100 F500 (find metal)
G00 Z0.0000 (zero z)
G00 Z10 F500 (going up)
(M03 (turn on plasma))
G04 P0.2 (pause)
G01 Z1 (going to cutting z)
G01 Z-1.000000 F100.0(Penetrate)
G01 X54.641112 Y179.000943 Z-1.000000 F400.000000
G00 Z30.000000
(M05 (turn off plasma))
(End cutting path id: path4438)


(Start cutting path id: path7398)
(Change tool to Plasma cutter)
 
G00 Z30.000000
G00 X23.053772 Y163.125957
G31 Z-100 F500 (find metal)
G00 Z0.0000 (zero z)
G00 Z10 F500 (going up)
(M03 (turn on plasma))
G04 P0.2 (pause)
G01 Z1 (going to cutting z)
G01 Z-1.000000 F100.0(Penetrate)
G02 X23.678150 Y161.618575 Z-1.000000 I-5.412659 J-3.125000 F400.000000
G02 X23.891113 Y160.000955 Z-1.000000 I-6.037037 J-1.617618
G00 Z30.000000
(M05 (turn off plasma))
(End cutting path id: path7398)


(Start cutting path id: path7420)
(Change tool to Plasma cutter)
 
G00 Z30.000000
G00 X23.891113 Y160.000955
G31 Z-100 F500 (find metal)
G00 Z0.0000 (zero z)
G00 Z10 F500 (going up)
(M03 (turn on plasma))
G04 P0.2 (pause)
G01 Z1 (going to cutting z)
G01 Z-1.000000 F100.0(Penetrate)
G02 X23.678150 Y158.383337 Z-1.000000 I-6.250000 J0.000001 F400.000000
G02 X23.053772 Y156.875956 Z-1.000000 I-6.037036 J1.617620
G00 Z30.000000
(M05 (turn off plasma))
(End cutting path id: path7420)


(Start cutting path id: path7418)
(Change tool to Plasma cutter)
 
G00 Z30.000000
G00 X23.053772 Y156.875956
G31 Z-100 F500 (find metal)
G00 Z0.0000 (zero z)
G00 Z10 F500 (going up)
(M03 (turn on plasma))
G04 P0.2 (pause)
G01 Z1 (going to cutting z)
G01 Z-1.000000 F100.0(Penetrate)
G02 X22.060531 Y155.581539 Z-1.000000 I-5.412659 J3.124999 F400.000000
G02 X20.766113 Y154.588297 Z-1.000000 I-4.419418 J4.419417
G00 Z30.000000
(M05 (turn off plasma))
(End cutting path id: path7418)


(Start cutting path id: path7416)
(Change tool to Plasma cutter)
 
G00 Z30.000000
G00 X20.766113 Y154.588297
G31 Z-100 F500 (find metal)
G00 Z0.0000 (zero z)
G00 Z10 F500 (going up)
(M03 (turn on plasma))
G04 P0.2 (pause)
G01 Z1 (going to cutting z)
G01 Z-1.000000 F100.0(Penetrate)
G02 X19.258732 Y153.963919 Z-1.000000 I-3.125001 J5.412658 F400.000000
G02 X17.641113 Y153.750955 Z-1.000000 I-1.617621 J6.037036
G00 Z30.000000
(M05 (turn off plasma))
(End cutting path id: path7416)


(Start cutting path id: path7414)
(Change tool to Plasma cutter)
 
G00 Z30.000000
G00 X17.641113 Y153.750955
G31 Z-100 F500 (find metal)
G00 Z0.0000 (zero z)
G00 Z10 F500 (going up)
(M03 (turn on plasma))
G04 P0.2 (pause)
G01 Z1 (going to cutting z)
G01 Z-1.000000 F100.0(Penetrate)
G02 X16.023494 Y153.963919 Z-1.000000 I0.000001 J6.250000 F400.000000
G02 X14.516113 Y154.588297 Z-1.000000 I1.617621 J6.037036
G00 Z30.000000
(M05 (turn off plasma))
(End cutting path id: path7414)


(Start cutting path id: path7412)
(Change tool to Plasma cutter)
 
G00 Z30.000000
G00 X14.516113 Y154.588297
G31 Z-100 F500 (find metal)
G00 Z0.0000 (zero z)
G00 Z10 F500 (going up)
(M03 (turn on plasma))
G04 P0.2 (pause)
G01 Z1 (going to cutting z)
G01 Z-1.000000 F100.0(Penetrate)
G02 X13.221696 Y155.581539 Z-1.000000 I3.125001 J5.412659 F400.000000
G02 X12.228454 Y156.875956 Z-1.000000 I4.419418 J4.419417
G00 Z30.000000
(M05 (turn off plasma))
(End cutting path id: path7412)


(Start cutting path id: path7410)
(Change tool to Plasma cutter)
 
G00 Z30.000000
G00 X12.228454 Y156.875956
G31 Z-100 F500 (find metal)
G00 Z0.0000 (zero z)
G00 Z10 F500 (going up)
(M03 (turn on plasma))
G04 P0.2 (pause)
G01 Z1 (going to cutting z)
G01 Z-1.000000 F100.0(Penetrate)
G02 X11.604077 Y158.383337 Z-1.000000 I5.412659 J3.125000 F400.000000
G02 X11.391113 Y160.000955 Z-1.000000 I6.037036 J1.617620
G00 Z30.000000
(M05 (turn off plasma))
(End cutting path id: path7410)


(Start cutting path id: path7408)
(Change tool to Plasma cutter)
 
G00 Z30.000000
G00 X11.391113 Y160.000955
G31 Z-100 F500 (find metal)
G00 Z0.0000 (zero z)
G00 Z10 F500 (going up)
(M03 (turn on plasma))
G04 P0.2 (pause)
G01 Z1 (going to cutting z)
G01 Z-1.000000 F100.0(Penetrate)
G02 X11.604076 Y161.618575 Z-1.000000 I6.250000 J0.000002 F400.000000
G02 X12.228454 Y163.125957 Z-1.000000 I6.037037 J-1.617618
G00 Z30.000000
(M05 (turn off plasma))
(End cutting path id: path7408)


(Start cutting path id: path7406)
(Change tool to Plasma cutter)
 
G00 Z30.000000
G00 X12.228454 Y163.125957
G31 Z-100 F500 (find metal)
G00 Z0.0000 (zero z)
G00 Z10 F500 (going up)
(M03 (turn on plasma))
G04 P0.2 (pause)
G01 Z1 (going to cutting z)
G01 Z-1.000000 F100.0(Penetrate)
G02 X13.221696 Y164.420374 Z-1.000000 I5.412659 J-3.124999 F400.000000
G02 X14.516113 Y165.413616 Z-1.000000 I4.419418 J-4.419417
G00 Z30.000000
(M05 (turn off plasma))
(End cutting path id: path7406)


(Start cutting path id: path7404)
(Change tool to Plasma cutter)
 
G00 Z30.000000
G00 X14.516113 Y165.413616
G31 Z-100 F500 (find metal)
G00 Z0.0000 (zero z)
G00 Z10 F500 (going up)
(M03 (turn on plasma))
G04 P0.2 (pause)
G01 Z1 (going to cutting z)
G01 Z-1.000000 F100.0(Penetrate)
G02 X16.023494 Y166.037993 Z-1.000000 I3.124997 J-5.412661 F400.000000
G02 X17.641113 Y166.250955 Z-1.000000 I1.617615 J-6.037038
G00 Z30.000000
(M05 (turn off plasma))
(End cutting path id: path7404)


(Start cutting path id: path7402)
(Change tool to Plasma cutter)
 
G00 Z30.000000
G00 X17.641113 Y166.250955
G31 Z-100 F500 (find metal)
G00 Z0.0000 (zero z)
G00 Z10 F500 (going up)
(M03 (turn on plasma))
G04 P0.2 (pause)
G01 Z1 (going to cutting z)
G01 Z-1.000000 F100.0(Penetrate)
G02 X19.258732 Y166.037993 Z-1.000000 I0.000004 J-6.250000 F400.000000
G02 X20.766113 Y165.413616 Z-1.000000 I-1.617615 J-6.037038
G00 Z30.000000
(M05 (turn off plasma))
(End cutting path id: path7402)


(Start cutting path id: path7400)
(Change tool to Plasma cutter)
 
G00 Z30.000000
G00 X20.766113 Y165.413616
G31 Z-100 F500 (find metal)
G00 Z0.0000 (zero z)
G00 Z10 F500 (going up)
(M03 (turn on plasma))
G04 P0.2 (pause)
G01 Z1 (going to cutting z)
G01 Z-1.000000 F100.0(Penetrate)
G02 X22.060531 Y164.420374 Z-1.000000 I-3.125001 J-5.412659 F400.000000
G02 X23.053772 Y163.125957 Z-1.000000 I-4.419418 J-4.419417
G00 Z30.000000
(M05 (turn off plasma))
(End cutting path id: path7400)


(Start cutting path id: path4390)
(Change tool to Plasma cutter)
 
G00 Z30.000000
G00 X23.891113 Y160.000952
G31 Z-100 F500 (find metal)
G00 Z0.0000 (zero z)
G00 Z10 F500 (going up)
(M03 (turn on plasma))
G04 P0.2 (pause)
G01 Z1 (going to cutting z)
G01 Z-1.000000 F100.0(Penetrate)
G03 X23.053772 Y163.125952 Z-1.000000 I-6.250000 J0.000000 F400.000000
G03 X20.766113 Y165.413611 Z-1.000000 I-5.412659 J-3.125000
G03 X17.641113 Y166.250952 Z-1.000000 I-3.125000 J-5.412659
G03 X14.516113 Y165.413611 Z-1.000000 I-0.000000 J-6.250000
G03 X12.228454 Y163.125952 Z-1.000000 I3.125000 J-5.412659
G03 X11.391113 Y160.000952 Z-1.000000 I5.412659 J-3.125000
G03 X12.228454 Y156.875952 Z-1.000000 I6.250000 J-0.000000
G03 X14.516113 Y154.588293 Z-1.000000 I5.412659 J3.125000
G03 X17.641113 Y153.750952 Z-1.000000 I3.125000 J5.412659
G03 X20.766113 Y154.588293 Z-1.000000 I-0.000000 J6.250000
G03 X23.053772 Y156.875952 Z-1.000000 I-3.125000 J5.412659
G03 X23.891113 Y160.000952 Z-1.000000 I-5.412659 J3.125000
G01 X23.891113 Y160.000952 Z-1.000000
G00 Z30.000000
(M05 (turn off plasma))
(End cutting path id: path4390)


(Start cutting path id: path4432)
(Change tool to Plasma cutter)
 
G00 Z30.000000
G00 X95.141114 Y179.000943
G31 Z-100 F500 (find metal)
G00 Z0.0000 (zero z)
G00 Z10 F500 (going up)
(M03 (turn on plasma))
G04 P0.2 (pause)
G01 Z1 (going to cutting z)
G01 Z-1.000000 F100.0(Penetrate)
G01 X95.141114 Y219.860766 Z-1.000000 F400.000000
G00 Z30.000000
(M05 (turn off plasma))
(End cutting path id: path4432)


(Start cutting path id: path7556)
(Change tool to Plasma cutter)
 
G00 Z30.000000
G00 X110.141115 Y140.311812
G31 Z-100 F500 (find metal)
G00 Z0.0000 (zero z)
G00 Z10 F500 (going up)
(M03 (turn on plasma))
G04 P0.2 (pause)
G01 Z1 (going to cutting z)
G01 Z-1.000000 F100.0(Penetrate)
G02 X118.582449 Y143.808327 Z-1.000000 I17.500000 J-30.310890 F400.000000
G02 X127.641116 Y145.000923 Z-1.000000 I9.058666 J-33.807405
G00 Z30.000000
(M05 (turn off plasma))
(End cutting path id: path7556)


(Start cutting path id: path4378)
(Change tool to Plasma cutter)
 
G00 Z30.000000
G00 X127.641114 Y145.000926
G31 Z-100 F500 (find metal)
G00 Z0.0000 (zero z)
G00 Z10 F500 (going up)
(M03 (turn on plasma))
G04 P0.2 (pause)
G01 Z1 (going to cutting z)
G01 Z-1.000000 F100.0(Penetrate)
G01 X232.641113 Y145.000926 Z-1.000000 F400.000000
G00 Z30.000000
(M05 (turn off plasma))
(End cutting path id: path4378)


(Start cutting path id: path7580)
(Change tool to Plasma cutter)
 
G00 Z30.000000
G00 X232.641116 Y145.000923
G31 Z-100 F500 (find metal)
G00 Z0.0000 (zero z)
G00 Z10 F500 (going up)
(M03 (turn on plasma))
G04 P0.2 (pause)
G01 Z1 (going to cutting z)
G01 Z-1.000000 F100.0(Penetrate)
G02 X241.699782 Y143.808327 Z-1.000000 I-0.000001 J-35.000001 F400.000000
G02 X250.141115 Y140.311812 Z-1.000000 I-9.058667 J-33.807404
G00 Z30.000000
(M05 (turn off plasma))
(End cutting path id: path7580)


(Start cutting path id: path7578)
(Change tool to Plasma cutter)
 
G00 Z30.000000
G00 X250.141115 Y140.311812
G31 Z-100 F500 (find metal)
G00 Z0.0000 (zero z)
G00 Z10 F500 (going up)
(M03 (turn on plasma))
G04 P0.2 (pause)
G01 Z1 (going to cutting z)
G01 Z-1.000000 F100.0(Penetrate)
G02 X257.389853 Y134.749661 Z-1.000000 I-17.499997 J-30.310892 F400.000000
G02 X262.952006 Y127.500924 Z-1.000000 I-24.748735 J-24.748741
G00 Z30.000000
(M05 (turn off plasma))
(End cutting path id: path7578)


(Start cutting path id: path7576)
(Change tool to Plasma cutter)
 
G00 Z30.000000
G00 X262.952006 Y127.500924
G31 Z-100 F500 (find metal)
G00 Z0.0000 (zero z)
G00 Z10 F500 (going up)
(M03 (turn on plasma))
G04 P0.2 (pause)
G01 Z1 (going to cutting z)
G01 Z-1.000000 F100.0(Penetrate)
G02 X266.448520 Y119.059591 Z-1.000000 I-30.310890 J-17.500000 F400.000000
G02 X267.641117 Y110.000925 Z-1.000000 I-33.807404 J-9.058667
G00 Z30.000000
(M05 (turn off plasma))
(End cutting path id: path7576)


(Start cutting path id: path7574)
(Change tool to Plasma cutter)
 
G00 Z30.000000
G00 X267.641117 Y110.000925
G31 Z-100 F500 (find metal)
G00 Z0.0000 (zero z)
G00 Z10 F500 (going up)
(M03 (turn on plasma))
G04 P0.2 (pause)
G01 Z1 (going to cutting z)
G01 Z-1.000000 F100.0(Penetrate)
G02 X266.448521 Y100.942257 Z-1.000000 I-35.000001 J-0.000001 F400.000000
G02 X262.952006 Y92.500923 Z-1.000000 I-33.807405 J9.058666
G00 Z30.000000
(M05 (turn off plasma))
(End cutting path id: path7574)


(Start cutting path id: path7572)
(Change tool to Plasma cutter)
 
G00 Z30.000000
G00 X262.952006 Y92.500923
G31 Z-100 F500 (find metal)
G00 Z0.0000 (zero z)
G00 Z10 F500 (going up)
(M03 (turn on plasma))
G04 P0.2 (pause)
G01 Z1 (going to cutting z)
G01 Z-1.000000 F100.0(Penetrate)
G02 X257.389853 Y85.252186 Z-1.000000 I-30.310888 J17.500004 F400.000000
G02 X250.141115 Y79.690035 Z-1.000000 I-24.748735 J24.748741
G00 Z30.000000
(M05 (turn off plasma))
(End cutting path id: path7572)


(Start cutting path id: path7570)
(Change tool to Plasma cutter)
 
G00 Z30.000000
G00 X250.141115 Y79.690035
G31 Z-100 F500 (find metal)
G00 Z0.0000 (zero z)
G00 Z10 F500 (going up)
(M03 (turn on plasma))
G04 P0.2 (pause)
G01 Z1 (going to cutting z)
G01 Z-1.000000 F100.0(Penetrate)
G02 X241.699782 Y76.193520 Z-1.000000 I-17.500000 J30.310890 F400.000000
G02 X232.641116 Y75.000924 Z-1.000000 I-9.058667 J33.807404
G00 Z30.000000
(M05 (turn off plasma))
(End cutting path id: path7570)


(Start cutting path id: path4374)
(Change tool to Plasma cutter)
 
G00 Z30.000000
G00 X232.641113 Y75.000924
G31 Z-100 F500 (find metal)
G00 Z0.0000 (zero z)
G00 Z10 F500 (going up)
(M03 (turn on plasma))
G04 P0.2 (pause)
G01 Z1 (going to cutting z)
G01 Z-1.000000 F100.0(Penetrate)
G01 X127.641114 Y75.000924 Z-1.000000 F400.000000
G00 Z30.000000
(M05 (turn off plasma))
(End cutting path id: path4374)


(Start cutting path id: path7566)
(Change tool to Plasma cutter)
 
G00 Z30.000000
G00 X127.641116 Y75.000924
G31 Z-100 F500 (find metal)
G00 Z0.0000 (zero z)
G00 Z10 F500 (going up)
(M03 (turn on plasma))
G04 P0.2 (pause)
G01 Z1 (going to cutting z)
G01 Z-1.000000 F100.0(Penetrate)
G02 X118.582449 Y76.193520 Z-1.000000 I-0.000001 J35.000001 F400.000000
G02 X110.141115 Y79.690035 Z-1.000000 I9.058666 J33.807405
G00 Z30.000000
(M05 (turn off plasma))
(End cutting path id: path7566)


(Start cutting path id: path7564)
(Change tool to Plasma cutter)
 
G00 Z30.000000
G00 X110.141115 Y79.690035
G31 Z-100 F500 (find metal)
G00 Z0.0000 (zero z)
G00 Z10 F500 (going up)
(M03 (turn on plasma))
G04 P0.2 (pause)
G01 Z1 (going to cutting z)
G01 Z-1.000000 F100.0(Penetrate)
G02 X102.892378 Y85.252187 Z-1.000000 I17.500001 J30.310889 F400.000000
G02 X97.330227 Y92.500923 Z-1.000000 I24.748738 J24.748738
G00 Z30.000000
(M05 (turn off plasma))
(End cutting path id: path7564)


(Start cutting path id: path7562)
(Change tool to Plasma cutter)
 
G00 Z30.000000
G00 X97.330227 Y92.500923
G31 Z-100 F500 (find metal)
G00 Z0.0000 (zero z)
G00 Z10 F500 (going up)
(M03 (turn on plasma))
G04 P0.2 (pause)
G01 Z1 (going to cutting z)
G01 Z-1.000000 F100.0(Penetrate)
G02 X93.833712 Y100.942257 Z-1.000000 I30.310890 J17.500000 F400.000000
G02 X92.641116 Y110.000925 Z-1.000000 I33.807405 J9.058666
G00 Z30.000000
(M05 (turn off plasma))
(End cutting path id: path7562)


(Start cutting path id: path7560)
(Change tool to Plasma cutter)
 
G00 Z30.000000
G00 X92.641116 Y110.000925
G31 Z-100 F500 (find metal)
G00 Z0.0000 (zero z)
G00 Z10 F500 (going up)
(M03 (turn on plasma))
G04 P0.2 (pause)
G01 Z1 (going to cutting z)
G01 Z-1.000000 F100.0(Penetrate)
G02 X93.833712 Y119.059591 Z-1.000000 I35.000001 J-0.000001 F400.000000
G02 X97.330227 Y127.500924 Z-1.000000 I33.807404 J-9.058667
G00 Z30.000000
(M05 (turn off plasma))
(End cutting path id: path7560)


(Start cutting path id: path7558)
(Change tool to Plasma cutter)
 
G00 Z30.000000
G00 X97.330227 Y127.500924
G31 Z-100 F500 (find metal)
G00 Z0.0000 (zero z)
G00 Z10 F500 (going up)
(M03 (turn on plasma))
G04 P0.2 (pause)
G01 Z1 (going to cutting z)
G01 Z-1.000000 F100.0(Penetrate)
G02 X102.892378 Y134.749661 Z-1.000000 I30.310889 J-17.500001 F400.000000
G02 X110.141115 Y140.311812 Z-1.000000 I24.748738 J-24.748738
G00 Z30.000000
(M05 (turn off plasma))
(End cutting path id: path7558)


(Start cutting path id: path4376)
(Change tool to Plasma cutter)
 
G00 Z30.000000
G00 X127.641114 Y145.000926
G31 Z-100 F500 (find metal)
G00 Z0.0000 (zero z)
G00 Z10 F500 (going up)
(M03 (turn on plasma))
G04 P0.2 (pause)
G01 Z1 (going to cutting z)
G01 Z-1.000000 F100.0(Penetrate)
G03 X110.141113 Y140.311815 Z-1.000000 I0.000000 J-35.000001 F400.000000
G03 X97.330224 Y127.500925 Z-1.000000 I17.500000 J-30.310890
G03 X92.641113 Y110.000925 Z-1.000000 I30.310890 J-17.500000
G03 X97.330224 Y92.500925 Z-1.000000 I35.000001 J-0.000000
G03 X110.141113 Y79.690035 Z-1.000000 I30.310890 J17.500000
G03 X127.641114 Y75.000924 Z-1.000000 I17.500000 J30.310890
G00 Z30.000000
(M05 (turn off plasma))
(End cutting path id: path4376)


(Start cutting path id: path4424)
(Change tool to Plasma cutter)
 
G00 Z30.000000
G00 X95.141114 Y41.000936
G31 Z-100 F500 (find metal)
G00 Z0.0000 (zero z)
G00 Z10 F500 (going up)
(M03 (turn on plasma))
G04 P0.2 (pause)
G01 Z1 (going to cutting z)
G01 Z-1.000000 F100.0(Penetrate)
G01 X95.141114 Y0.141112 Z-1.000000 F400.000000
G00 Z30.000000
(M05 (turn off plasma))
(End cutting path id: path4424)


(Start cutting path id: path4426)
(Change tool to Plasma cutter)
 
G00 Z30.000000
G00 X95.141114 Y0.141112
G31 Z-100 F500 (find metal)
G00 Z0.0000 (zero z)
G00 Z10 F500 (going up)
(M03 (turn on plasma))
G04 P0.2 (pause)
G01 Z1 (going to cutting z)
G01 Z-1.000000 F100.0(Penetrate)
G01 X265.141116 Y0.141112 Z-1.000000 F400.000000
G00 Z30.000000
(M05 (turn off plasma))
(End cutting path id: path4426)


(Start cutting path id: path4408)
(Change tool to Plasma cutter)
 
G00 Z30.000000
G00 X305.641106 Y0.141112
G31 Z-100 F500 (find metal)
G00 Z0.0000 (zero z)
G00 Z10 F500 (going up)
(M03 (turn on plasma))
G04 P0.2 (pause)
G01 Z1 (going to cutting z)
G01 Z-1.000000 F100.0(Penetrate)
G01 X393.141115 Y0.141112 Z-1.000000 F400.000000
G00 Z30.000000
(M05 (turn off plasma))
(End cutting path id: path4408)


(Start cutting path id: path4400)
(Change tool to Plasma cutter)
 
G00 Z30.000000
G00 X393.141115 Y0.141112
G31 Z-100 F500 (find metal)
G00 Z0.0000 (zero z)
G00 Z10 F500 (going up)
(M03 (turn on plasma))
G04 P0.2 (pause)
G01 Z1 (going to cutting z)
G01 Z-1.000000 F100.0(Penetrate)
G03 X415.768524 Y9.513696 Z-1.000000 I-0.000008 J32.000001 F400.000000
G03 X425.141107 Y32.141105 Z-1.000000 I-22.627418 J22.627418
G00 Z30.000000
(M05 (turn off plasma))
(End cutting path id: path4400)


(Start cutting path id: path4404)
(Change tool to Plasma cutter)
 
G00 Z30.000000
G00 X425.141107 Y32.141105
G31 Z-100 F500 (find metal)
G00 Z0.0000 (zero z)
G00 Z10 F500 (going up)
(M03 (turn on plasma))
G04 P0.2 (pause)
G01 Z1 (going to cutting z)
G01 Z-1.000000 F100.0(Penetrate)
G01 X425.141107 Y187.860773 Z-1.000000 F400.000000
G00 Z30.000000
(M05 (turn off plasma))
(End cutting path id: path4404)


(Start cutting path id: path4402)
(Change tool to Plasma cutter)
 
G00 Z30.000000
G00 X425.141107 Y187.860773
G31 Z-100 F500 (find metal)
G00 Z0.0000 (zero z)
G00 Z10 F500 (going up)
(M03 (turn on plasma))
G04 P0.2 (pause)
G01 Z1 (going to cutting z)
G01 Z-1.000000 F100.0(Penetrate)
G03 X415.768524 Y210.488182 Z-1.000000 I-32.000001 J-0.000008 F400.000000
G03 X393.141115 Y219.860766 Z-1.000000 I-22.627418 J-22.627418
G00 Z30.000000
(M05 (turn off plasma))
(End cutting path id: path4402)


(Start cutting path id: path7356)
(Change tool to Plasma cutter)
 
G00 Z30.000000
G00 X393.141118 Y219.860766
G31 Z-100 F500 (find metal)
G00 Z0.0000 (zero z)
G00 Z10 F500 (going up)
(M03 (turn on plasma))
G04 P0.2 (pause)
G01 Z1 (going to cutting z)
G01 Z-1.000000 F100.0(Penetrate)
G02 X405.386974 Y217.424906 Z-1.000000 I-0.000025 J-32.000001 F400.000000
G02 X415.768510 Y210.488183 Z-1.000000 I-12.245882 J-29.564141
G00 Z30.000000
(M05 (turn off plasma))
(End cutting path id: path7356)


(Start cutting path id: path7354)
(Change tool to Plasma cutter)
 
G00 Z30.000000
G00 X415.768510 Y210.488183
G31 Z-100 F500 (find metal)
G00 Z0.0000 (zero z)
G00 Z10 F500 (going up)
(M03 (turn on plasma))
G04 P0.2 (pause)
G01 Z1 (going to cutting z)
G01 Z-1.000000 F100.0(Penetrate)
G02 X422.705246 Y200.106640 Z-1.000000 I-22.627401 J-22.627435 F400.000000
G02 X425.141110 Y187.860770 Z-1.000000 I-29.564137 J-12.245891
G00 Z30.000000
(M05 (turn off plasma))
(End cutting path id: path7354)


(Start cutting path id: path7600)
(Change tool to Plasma cutter)
 
G00 Z30.000000
G00 X414.392592 Y197.691519
G31 Z-100 F500 (find metal)
G00 Z0.0000 (zero z)
G00 Z10 F500 (going up)
(M03 (turn on plasma))
G04 P0.2 (pause)
G01 Z1 (going to cutting z)
G01 Z-1.000000 F100.0(Penetrate)
G02 X413.788995 Y197.441144 Z-1.000000 I-1.251454 J2.164223 F400.000000
G02 X413.141134 Y197.355742 Z-1.000000 I-0.647857 J2.414598
G00 Z30.000000
(M05 (turn off plasma))
(End cutting path id: path7600)


(Start cutting path id: path7598)
(Change tool to Plasma cutter)
 
G00 Z30.000000
G00 X413.141134 Y197.355742
G31 Z-100 F500 (find metal)
G00 Z0.0000 (zero z)
G00 Z10 F500 (going up)
(M03 (turn on plasma))
G04 P0.2 (pause)
G01 Z1 (going to cutting z)
G01 Z-1.000000 F100.0(Penetrate)
G02 X412.493274 Y197.441144 Z-1.000000 I-0.000004 J2.500000 F400.000000
G02 X411.889676 Y197.691519 Z-1.000000 I0.647857 J2.414598
G00 Z30.000000
(M05 (turn off plasma))
(End cutting path id: path7598)


(Start cutting path id: path7596)
(Change tool to Plasma cutter)
 
G00 Z30.000000
G00 X411.889676 Y197.691519
G31 Z-100 F500 (find metal)
G00 Z0.0000 (zero z)
G00 Z10 F500 (going up)
(M03 (turn on plasma))
G04 P0.2 (pause)
G01 Z1 (going to cutting z)
G01 Z-1.000000 F100.0(Penetrate)
G02 X411.371574 Y198.089756 Z-1.000000 I1.251431 J2.164237 F400.000000
G02 X410.974373 Y198.608653 Z-1.000000 I1.769533 J1.765999
G00 Z30.000000
(M05 (turn off plasma))
(End cutting path id: path7596)


(Start cutting path id: path7594)
(Change tool to Plasma cutter)
 
G00 Z30.000000
G00 X410.974373 Y198.608653
G31 Z-100 F500 (find metal)
G00 Z0.0000 (zero z)
G00 Z10 F500 (going up)
(M03 (turn on plasma))
G04 P0.2 (pause)
G01 Z1 (going to cutting z)
G01 Z-1.000000 F100.0(Penetrate)
G02 X410.725219 Y199.212752 Z-1.000000 I2.166747 J1.247080 F400.000000
G02 X410.641125 Y199.860780 Z-1.000000 I2.415901 J0.642981
G00 Z30.000000
(M05 (turn off plasma))
(End cutting path id: path7594)


(Start cutting path id: path7592)
(Change tool to Plasma cutter)
 
G00 Z30.000000
G00 X410.641125 Y199.860777
G31 Z-100 F500 (find metal)
G00 Z0.0000 (zero z)
G00 Z10 F500 (going up)
(M03 (turn on plasma))
G04 P0.2 (pause)
G01 Z1 (going to cutting z)
G01 Z-1.000000 F100.0(Penetrate)
G02 X410.725219 Y200.508807 Z-1.000000 I2.499995 J0.005050 F400.000000
G02 X410.974373 Y201.112907 Z-1.000000 I2.415901 J-0.642980
G00 Z30.000000
(M05 (turn off plasma))
(End cutting path id: path7592)


(Start cutting path id: path7590)
(Change tool to Plasma cutter)
 
G00 Z30.000000
G00 X410.974373 Y201.112907
G31 Z-100 F500 (find metal)
G00 Z0.0000 (zero z)
G00 Z10 F500 (going up)
(M03 (turn on plasma))
G04 P0.2 (pause)
G01 Z1 (going to cutting z)
G01 Z-1.000000 F100.0(Penetrate)
G02 X411.371574 Y201.631804 Z-1.000000 I2.166734 J-1.247102 F400.000000
G02 X411.889676 Y202.030042 Z-1.000000 I1.769533 J-1.765999
G00 Z30.000000
(M05 (turn off plasma))
(End cutting path id: path7590)


(Start cutting path id: path7588)
(Change tool to Plasma cutter)
 
G00 Z30.000000
G00 X411.889676 Y202.030042
G31 Z-100 F500 (find metal)
G00 Z0.0000 (zero z)
G00 Z10 F500 (going up)
(M03 (turn on plasma))
G04 P0.2 (pause)
G01 Z1 (going to cutting z)
G01 Z-1.000000 F100.0(Penetrate)
G02 X412.493274 Y202.280416 Z-1.000000 I1.251454 J-2.164223 F400.000000
G02 X413.141134 Y202.365819 Z-1.000000 I0.647857 J-2.414598
G00 Z30.000000
(M05 (turn off plasma))
(End cutting path id: path7588)


(Start cutting path id: path7586)
(Change tool to Plasma cutter)
 
G00 Z30.000000
G00 X413.141134 Y202.365819
G31 Z-100 F500 (find metal)
G00 Z0.0000 (zero z)
G00 Z10 F500 (going up)
(M03 (turn on plasma))
G04 P0.2 (pause)
G01 Z1 (going to cutting z)
G01 Z-1.000000 F100.0(Penetrate)
G02 X413.788995 Y202.280416 Z-1.000000 I0.000004 J-2.500000 F400.000000
G02 X414.392592 Y202.030042 Z-1.000000 I-0.647857 J-2.414598
G00 Z30.000000
(M05 (turn off plasma))
(End cutting path id: path7586)


(Start cutting path id: path7584)
(Change tool to Plasma cutter)
 
G00 Z30.000000
G00 X414.392592 Y202.030042
G31 Z-100 F500 (find metal)
G00 Z0.0000 (zero z)
G00 Z10 F500 (going up)
(M03 (turn on plasma))
G04 P0.2 (pause)
G01 Z1 (going to cutting z)
G01 Z-1.000000 F100.0(Penetrate)
G02 X414.910679 Y201.631801 Z-1.000000 I-1.251473 J-2.164212 F400.000000
G02 X415.307867 Y201.112907 Z-1.000000 I-1.769560 J-1.765972
G00 Z30.000000
(M05 (turn off plasma))
(End cutting path id: path7584)


(Start cutting path id: path7582)
(Change tool to Plasma cutter)
 
G00 Z30.000000
G00 X415.307867 Y201.112907
G31 Z-100 F500 (find metal)
G00 Z0.0000 (zero z)
G00 Z10 F500 (going up)
(M03 (turn on plasma))
G04 P0.2 (pause)
G01 Z1 (going to cutting z)
G01 Z-1.000000 F100.0(Penetrate)
G02 X415.557021 Y200.508807 Z-1.000000 I-2.166747 J-1.247080 F400.000000
G02 X415.641115 Y199.860777 Z-1.000000 I-2.415901 J-0.642980
G00 Z30.000000
(M05 (turn off plasma))
(End cutting path id: path7582)


(Start cutting path id: path7604)
(Change tool to Plasma cutter)
 
G00 Z30.000000
G00 X415.641115 Y199.860780
G31 Z-100 F500 (find metal)
G00 Z0.0000 (zero z)
G00 Z10 F500 (going up)
(M03 (turn on plasma))
G04 P0.2 (pause)
G01 Z1 (going to cutting z)
G01 Z-1.000000 F100.0(Penetrate)
G02 X415.557021 Y199.212752 Z-1.000000 I-2.499995 J-0.005047 F400.000000
G02 X415.307867 Y198.608653 Z-1.000000 I-2.415901 J0.642981
G00 Z30.000000
(M05 (turn off plasma))
(End cutting path id: path7604)


(Start cutting path id: path7602)
(Change tool to Plasma cutter)
 
G00 Z30.000000
G00 X415.307867 Y198.608653
G31 Z-100 F500 (find metal)
G00 Z0.0000 (zero z)
G00 Z10 F500 (going up)
(M03 (turn on plasma))
G04 P0.2 (pause)
G01 Z1 (going to cutting z)
G01 Z-1.000000 F100.0(Penetrate)
G02 X414.910679 Y198.089759 Z-1.000000 I-2.166748 J1.247078 F400.000000
G02 X414.392592 Y197.691519 Z-1.000000 I-1.769560 J1.765972
G00 Z30.000000
(M05 (turn off plasma))
(End cutting path id: path7602)


(Start cutting path id: path4370)
(Change tool to Plasma cutter)
 
G00 Z30.000000
G00 X415.641112 Y199.860777
G31 Z-100 F500 (find metal)
G00 Z0.0000 (zero z)
G00 Z10 F500 (going up)
(M03 (turn on plasma))
G04 P0.2 (pause)
G01 Z1 (going to cutting z)
G01 Z-1.000000 F100.0(Penetrate)
G03 X415.307859 Y201.112906 Z-1.000000 I-2.499995 J0.005040 F400.000000
G03 X414.392572 Y202.030040 Z-1.000000 I-2.166742 J-1.247089
G03 X413.141117 Y202.365817 Z-1.000000 I-1.251455 J-2.164223
G03 X411.889663 Y202.030040 Z-1.000000 I0.000000 J-2.500000
G03 X410.974376 Y201.112906 Z-1.000000 I1.251455 J-2.164223
G03 X410.641122 Y199.860777 Z-1.000000 I2.166742 J-1.247089
G03 X410.974376 Y198.608648 Z-1.000000 I2.499995 J-0.005040
G03 X411.889663 Y197.691514 Z-1.000000 I2.166742 J1.247089
G03 X413.141117 Y197.355737 Z-1.000000 I1.251455 J2.164223
G03 X414.392572 Y197.691514 Z-1.000000 I0.000000 J2.500000
G03 X415.307859 Y198.608648 Z-1.000000 I-1.251455 J2.164223
G03 X415.641112 Y199.860777 Z-1.000000 I-2.166742 J1.247089
G01 X415.641112 Y199.860777 Z-1.000000
G00 Z30.000000
(M05 (turn off plasma))
(End cutting path id: path4370)


(Start cutting path id: path7454)
(Change tool to Plasma cutter)
 
G00 Z30.000000
G00 X407.641103 Y166.259354
G31 Z-100 F500 (find metal)
G00 Z0.0000 (zero z)
G00 Z10 F500 (going up)
(M03 (turn on plasma))
G04 P0.2 (pause)
G01 Z1 (going to cutting z)
G01 Z-1.000000 F100.0(Penetrate)
G02 X409.260070 Y166.046027 Z-1.000000 I-0.000007 J-6.250000 F400.000000
G02 X410.768520 Y165.420612 Z-1.000000 I-1.618975 J-6.036673
G00 Z30.000000
(M05 (turn off plasma))
(End cutting path id: path7454)


(Start cutting path id: path7452)
(Change tool to Plasma cutter)
 
G00 Z30.000000
G00 X410.768520 Y165.420612
G31 Z-100 F500 (find metal)
G00 Z0.0000 (zero z)
G00 Z10 F500 (going up)
(M03 (turn on plasma))
G04 P0.2 (pause)
G01 Z1 (going to cutting z)
G01 Z-1.000000 F100.0(Penetrate)
G02 X412.063482 Y164.425800 Z-1.000000 I-3.127426 J-5.411257 F400.000000
G02 X413.056552 Y163.129501 Z-1.000000 I-4.422388 J-4.416445
G00 Z30.000000
(M05 (turn off plasma))
(End cutting path id: path7452)


(Start cutting path id: path7450)
(Change tool to Plasma cutter)
 
G00 Z30.000000
G00 X413.056552 Y163.129501
G31 Z-100 F500 (find metal)
G00 Z0.0000 (zero z)
G00 Z10 F500 (going up)
(M03 (turn on plasma))
G04 P0.2 (pause)
G01 Z1 (going to cutting z)
G01 Z-1.000000 F100.0(Penetrate)
G02 X413.679937 Y161.620208 Z-1.000000 I-5.415463 J-3.120138 F400.000000
G02 X413.891083 Y160.000952 Z-1.000000 I-6.038848 J-1.610845
G00 Z30.000000
(M05 (turn off plasma))
(End cutting path id: path7450)


(Start cutting path id: path7472)
(Change tool to Plasma cutter)
 
G00 Z30.000000
G00 X413.891083 Y160.000949
G31 Z-100 F500 (find metal)
G00 Z0.0000 (zero z)
G00 Z10 F500 (going up)
(M03 (turn on plasma))
G04 P0.2 (pause)
G01 Z1 (going to cutting z)
G01 Z-1.000000 F100.0(Penetrate)
G02 X413.679937 Y158.381693 Z-1.000000 I-6.249995 J-0.008411 F400.000000
G02 X413.056552 Y156.872400 Z-1.000000 I-6.038848 J1.610845
G00 Z30.000000
(M05 (turn off plasma))
(End cutting path id: path7472)


(Start cutting path id: path7470)
(Change tool to Plasma cutter)
 
G00 Z30.000000
G00 X413.056552 Y156.872400
G31 Z-100 F500 (find metal)
G00 Z0.0000 (zero z)
G00 Z10 F500 (going up)
(M03 (turn on plasma))
G04 P0.2 (pause)
G01 Z1 (going to cutting z)
G01 Z-1.000000 F100.0(Penetrate)
G02 X412.063482 Y155.576103 Z-1.000000 I-5.415456 J3.120151 F400.000000
G02 X410.768520 Y154.581292 Z-1.000000 I-4.422385 J4.416448
G00 Z30.000000
(M05 (turn off plasma))
(End cutting path id: path7470)


(Start cutting path id: path7468)
(Change tool to Plasma cutter)
 
G00 Z30.000000
G00 X410.768520 Y154.581292
G31 Z-100 F500 (find metal)
G00 Z0.0000 (zero z)
G00 Z10 F500 (going up)
(M03 (turn on plasma))
G04 P0.2 (pause)
G01 Z1 (going to cutting z)
G01 Z-1.000000 F100.0(Penetrate)
G02 X409.260070 Y153.955877 Z-1.000000 I-3.127425 J5.411258 F400.000000
G02 X407.641103 Y153.742550 Z-1.000000 I-1.618975 J6.036673
G00 Z30.000000
(M05 (turn off plasma))
(End cutting path id: path7468)


(Start cutting path id: path7466)
(Change tool to Plasma cutter)
 
G00 Z30.000000
G00 X407.641103 Y153.742550
G31 Z-100 F500 (find metal)
G00 Z0.0000 (zero z)
G00 Z10 F500 (going up)
(M03 (turn on plasma))
G04 P0.2 (pause)
G01 Z1 (going to cutting z)
G01 Z-1.000000 F100.0(Penetrate)
G02 X406.022135 Y153.955877 Z-1.000000 I0.000007 J6.250000 F400.000000
G02 X404.513685 Y154.581292 Z-1.000000 I1.618975 J6.036673
G00 Z30.000000
(M05 (turn off plasma))
(End cutting path id: path7466)


(Start cutting path id: path7464)
(Change tool to Plasma cutter)
 
G00 Z30.000000
G00 X404.513685 Y154.581292
G31 Z-100 F500 (find metal)
G00 Z0.0000 (zero z)
G00 Z10 F500 (going up)
(M03 (turn on plasma))
G04 P0.2 (pause)
G01 Z1 (going to cutting z)
G01 Z-1.000000 F100.0(Penetrate)
G02 X403.218724 Y155.576103 Z-1.000000 I3.127424 J5.411259 F400.000000
G02 X402.225653 Y156.872400 Z-1.000000 I4.422385 J4.416448
G00 Z30.000000
(M05 (turn off plasma))
(End cutting path id: path7464)


(Start cutting path id: path7462)
(Change tool to Plasma cutter)
 
G00 Z30.000000
G00 X402.225653 Y156.872400
G31 Z-100 F500 (find metal)
G00 Z0.0000 (zero z)
G00 Z10 F500 (going up)
(M03 (turn on plasma))
G04 P0.2 (pause)
G01 Z1 (going to cutting z)
G01 Z-1.000000 F100.0(Penetrate)
G02 X401.602255 Y158.381691 Z-1.000000 I5.415435 J3.120186 F400.000000
G02 X401.391094 Y160.000949 Z-1.000000 I6.038834 J1.610895
G00 Z30.000000
(M05 (turn off plasma))
(End cutting path id: path7462)


(Start cutting path id: path7460)
(Change tool to Plasma cutter)
 
G00 Z30.000000
G00 X401.391094 Y160.000952
G31 Z-100 F500 (find metal)
G00 Z0.0000 (zero z)
G00 Z10 F500 (going up)
(M03 (turn on plasma))
G04 P0.2 (pause)
G01 Z1 (going to cutting z)
G01 Z-1.000000 F100.0(Penetrate)
G02 X401.602255 Y161.620210 Z-1.000000 I6.249995 J0.008363 F400.000000
G02 X402.225653 Y163.129501 Z-1.000000 I6.038834 J-1.610895
G00 Z30.000000
(M05 (turn off plasma))
(End cutting path id: path7460)


(Start cutting path id: path7458)
(Change tool to Plasma cutter)
 
G00 Z30.000000
G00 X402.225653 Y163.129501
G31 Z-100 F500 (find metal)
G00 Z0.0000 (zero z)
G00 Z10 F500 (going up)
(M03 (turn on plasma))
G04 P0.2 (pause)
G01 Z1 (going to cutting z)
G01 Z-1.000000 F100.0(Penetrate)
G02 X403.218724 Y164.425800 Z-1.000000 I5.415458 J-3.120146 F400.000000
G02 X404.513685 Y165.420612 Z-1.000000 I4.422388 J-4.416445
G00 Z30.000000
(M05 (turn off plasma))
(End cutting path id: path7458)


(Start cutting path id: path7456)
(Change tool to Plasma cutter)
 
G00 Z30.000000
G00 X404.513685 Y165.420612
G31 Z-100 F500 (find metal)
G00 Z0.0000 (zero z)
G00 Z10 F500 (going up)
(M03 (turn on plasma))
G04 P0.2 (pause)
G01 Z1 (going to cutting z)
G01 Z-1.000000 F100.0(Penetrate)
G02 X406.022135 Y166.046027 Z-1.000000 I3.127425 J-5.411258 F400.000000
G02 X407.641103 Y166.259354 Z-1.000000 I1.618975 J-6.036673
G00 Z30.000000
(M05 (turn off plasma))
(End cutting path id: path7456)


(Start cutting path id: path4386)
(Change tool to Plasma cutter)
 
G00 Z30.000000
G00 X413.891109 Y160.000952
G31 Z-100 F500 (find metal)
G00 Z0.0000 (zero z)
G00 Z10 F500 (going up)
(M03 (turn on plasma))
G04 P0.2 (pause)
G01 Z1 (going to cutting z)
G01 Z-1.000000 F100.0(Penetrate)
G03 X413.056571 Y163.129501 Z-1.000000 I-6.249995 J0.008400 F400.000000
G03 X410.768539 Y165.420610 Z-1.000000 I-5.415457 J-3.120149
G03 X407.641114 Y166.259352 Z-1.000000 I-3.127425 J-5.411258
G03 X404.513690 Y165.420610 Z-1.000000 I0.000000 J-6.250000
G03 X402.225657 Y163.129501 Z-1.000000 I3.127425 J-5.411258
G03 X401.391120 Y160.000952 Z-1.000000 I5.415457 J-3.120149
G03 X402.225657 Y156.872403 Z-1.000000 I6.249995 J-0.008400
G03 X404.513690 Y154.581294 Z-1.000000 I5.415457 J3.120149
G03 X407.641114 Y153.742552 Z-1.000000 I3.127425 J5.411258
G03 X410.768539 Y154.581294 Z-1.000000 I0.000000 J6.250000
G03 X413.056571 Y156.872403 Z-1.000000 I-3.127425 J5.411258
G03 X413.891109 Y160.000952 Z-1.000000 I-5.415457 J3.120149
G01 X413.891109 Y160.000952 Z-1.000000
G00 Z30.000000
(M05 (turn off plasma))
(End cutting path id: path4386)


(Start cutting path id: path4382)
(Change tool to Plasma cutter)
 
G00 Z30.000000
G00 X373.891104 Y160.000952
G31 Z-100 F500 (find metal)
G00 Z0.0000 (zero z)
G00 Z10 F500 (going up)
(M03 (turn on plasma))
G04 P0.2 (pause)
G01 Z1 (going to cutting z)
G01 Z-1.000000 F100.0(Penetrate)
G03 X373.056495 Y163.129411 Z-1.000000 I-6.249995 J0.008187 F400.000000
G03 X370.768472 Y165.420433 Z-1.000000 I-5.415386 J-3.120272
G03 X367.641109 Y166.259139 Z-1.000000 I-3.127363 J-5.411294
G03 X364.513746 Y165.420433 Z-1.000000 I-0.000000 J-6.250000
G03 X362.225724 Y163.129411 Z-1.000000 I3.127363 J-5.411294
G03 X361.391115 Y160.000952 Z-1.000000 I5.415386 J-3.120272
G03 X362.225724 Y156.872493 Z-1.000000 I6.249995 J-0.008187
G03 X364.513746 Y154.581472 Z-1.000000 I5.415386 J3.120272
G03 X367.641109 Y153.742765 Z-1.000000 I3.127363 J5.411294
G03 X370.768472 Y154.581472 Z-1.000000 I0.000000 J6.250000
G03 X373.056495 Y156.872493 Z-1.000000 I-3.127363 J5.411294
G03 X373.891104 Y160.000952 Z-1.000000 I-5.415386 J3.120272
G01 X373.891104 Y160.000952 Z-1.000000
G00 Z30.000000
(M05 (turn off plasma))
(End cutting path id: path4382)


(Start cutting path id: path7524)
(Change tool to Plasma cutter)
 
G00 Z30.000000
G00 X373.891078 Y160.000952
G31 Z-100 F500 (find metal)
G00 Z0.0000 (zero z)
G00 Z10 F500 (going up)
(M03 (turn on plasma))
G04 P0.2 (pause)
G01 Z1 (going to cutting z)
G01 Z-1.000000 F100.0(Penetrate)
G02 X373.679893 Y158.381739 Z-1.000000 I-6.249995 J-0.008224 F400.000000
G02 X373.056491 Y156.872494 Z-1.000000 I-6.038809 J1.610990
G00 Z30.000000
(M05 (turn off plasma))
(End cutting path id: path7524)


(Start cutting path id: path7522)
(Change tool to Plasma cutter)
 
G00 Z30.000000
G00 X373.056491 Y156.872494
G31 Z-100 F500 (find metal)
G00 Z0.0000 (zero z)
G00 Z10 F500 (going up)
(M03 (turn on plasma))
G04 P0.2 (pause)
G01 Z1 (going to cutting z)
G01 Z-1.000000 F100.0(Penetrate)
G02 X372.063412 Y155.576242 Z-1.000000 I-5.415383 J3.120278 F400.000000
G02 X370.768459 Y154.581470 Z-1.000000 I-4.422304 J4.416529
G00 Z30.000000
(M05 (turn off plasma))
(End cutting path id: path7522)


(Start cutting path id: path7520)
(Change tool to Plasma cutter)
 
G00 Z30.000000
G00 X370.768459 Y154.581470
G31 Z-100 F500 (find metal)
G00 Z0.0000 (zero z)
G00 Z10 F500 (going up)
(M03 (turn on plasma))
G04 P0.2 (pause)
G01 Z1 (going to cutting z)
G01 Z-1.000000 F100.0(Penetrate)
G02 X369.260034 Y153.956081 Z-1.000000 I-3.127361 J5.411295 F400.000000
G02 X367.641098 Y153.742765 Z-1.000000 I-1.618936 J6.036684
G00 Z30.000000
(M05 (turn off plasma))
(End cutting path id: path7520)


(Start cutting path id: path7518)
(Change tool to Plasma cutter)
 
G00 Z30.000000
G00 X367.641098 Y153.742765
G31 Z-100 F500 (find metal)
G00 Z0.0000 (zero z)
G00 Z10 F500 (going up)
(M03 (turn on plasma))
G04 P0.2 (pause)
G01 Z1 (going to cutting z)
G01 Z-1.000000 F100.0(Penetrate)
G02 X366.022162 Y153.956081 Z-1.000000 I0.000000 J6.250000 F400.000000
G02 X364.513737 Y154.581470 Z-1.000000 I1.618936 J6.036684
G00 Z30.000000
(M05 (turn off plasma))
(End cutting path id: path7518)


(Start cutting path id: path7516)
(Change tool to Plasma cutter)
 
G00 Z30.000000
G00 X364.513737 Y154.581470
G31 Z-100 F500 (find metal)
G00 Z0.0000 (zero z)
G00 Z10 F500 (going up)
(M03 (turn on plasma))
G04 P0.2 (pause)
G01 Z1 (going to cutting z)
G01 Z-1.000000 F100.0(Penetrate)
G02 X363.218784 Y155.576242 Z-1.000000 I3.127351 J5.411301 F400.000000
G02 X362.225705 Y156.872494 Z-1.000000 I4.422304 J4.416529
G00 Z30.000000
(M05 (turn off plasma))
(End cutting path id: path7516)


(Start cutting path id: path7514)
(Change tool to Plasma cutter)
 
G00 Z30.000000
G00 X362.225705 Y156.872494
G31 Z-100 F500 (find metal)
G00 Z0.0000 (zero z)
G00 Z10 F500 (going up)
(M03 (turn on plasma))
G04 P0.2 (pause)
G01 Z1 (going to cutting z)
G01 Z-1.000000 F100.0(Penetrate)
G02 X361.602289 Y158.381737 Z-1.000000 I5.415379 J3.120284 F400.000000
G02 X361.391089 Y160.000952 Z-1.000000 I6.038796 J1.611041
G00 Z30.000000
(M05 (turn off plasma))
(End cutting path id: path7514)


(Start cutting path id: path7512)
(Change tool to Plasma cutter)
 
G00 Z30.000000
G00 X361.391089 Y160.000949
G31 Z-100 F500 (find metal)
G00 Z0.0000 (zero z)
G00 Z10 F500 (going up)
(M03 (turn on plasma))
G04 P0.2 (pause)
G01 Z1 (going to cutting z)
G01 Z-1.000000 F100.0(Penetrate)
G02 X361.602288 Y161.620166 Z-1.000000 I6.249995 J0.008178 F400.000000
G02 X362.225705 Y163.129411 Z-1.000000 I6.038796 J-1.611039
G00 Z30.000000
(M05 (turn off plasma))
(End cutting path id: path7512)


(Start cutting path id: path7510)
(Change tool to Plasma cutter)
 
G00 Z30.000000
G00 X362.225705 Y163.129411
G31 Z-100 F500 (find metal)
G00 Z0.0000 (zero z)
G00 Z10 F500 (going up)
(M03 (turn on plasma))
G04 P0.2 (pause)
G01 Z1 (going to cutting z)
G01 Z-1.000000 F100.0(Penetrate)
G02 X363.218784 Y164.425661 Z-1.000000 I5.415380 J-3.120282 F400.000000
G02 X364.513737 Y165.420432 Z-1.000000 I4.422301 J-4.416532
G00 Z30.000000
(M05 (turn off plasma))
(End cutting path id: path7510)


(Start cutting path id: path7508)
(Change tool to Plasma cutter)
 
G00 Z30.000000
G00 X364.513737 Y165.420432
G31 Z-100 F500 (find metal)
G00 Z0.0000 (zero z)
G00 Z10 F500 (going up)
(M03 (turn on plasma))
G04 P0.2 (pause)
G01 Z1 (going to cutting z)
G01 Z-1.000000 F100.0(Penetrate)
G02 X366.022162 Y166.045820 Z-1.000000 I3.127361 J-5.411295 F400.000000
G02 X367.641098 Y166.259137 Z-1.000000 I1.618936 J-6.036684
G00 Z30.000000
(M05 (turn off plasma))
(End cutting path id: path7508)


(Start cutting path id: path7506)
(Change tool to Plasma cutter)
 
G00 Z30.000000
G00 X367.641098 Y166.259137
G31 Z-100 F500 (find metal)
G00 Z0.0000 (zero z)
G00 Z10 F500 (going up)
(M03 (turn on plasma))
G04 P0.2 (pause)
G01 Z1 (going to cutting z)
G01 Z-1.000000 F100.0(Penetrate)
G02 X369.260034 Y166.045820 Z-1.000000 I-0.000000 J-6.250000 F400.000000
G02 X370.768459 Y165.420432 Z-1.000000 I-1.618936 J-6.036684
G00 Z30.000000
(M05 (turn off plasma))
(End cutting path id: path7506)


(Start cutting path id: path7504)
(Change tool to Plasma cutter)
 
G00 Z30.000000
G00 X370.768459 Y165.420432
G31 Z-100 F500 (find metal)
G00 Z0.0000 (zero z)
G00 Z10 F500 (going up)
(M03 (turn on plasma))
G04 P0.2 (pause)
G01 Z1 (going to cutting z)
G01 Z-1.000000 F100.0(Penetrate)
G02 X372.063412 Y164.425661 Z-1.000000 I-3.127348 J-5.411303 F400.000000
G02 X373.056491 Y163.129411 Z-1.000000 I-4.422301 J-4.416532
G00 Z30.000000
(M05 (turn off plasma))
(End cutting path id: path7504)


(Start cutting path id: path7502)
(Change tool to Plasma cutter)
 
G00 Z30.000000
G00 X373.056491 Y163.129411
G31 Z-100 F500 (find metal)
G00 Z0.0000 (zero z)
G00 Z10 F500 (going up)
(M03 (turn on plasma))
G04 P0.2 (pause)
G01 Z1 (going to cutting z)
G01 Z-1.000000 F100.0(Penetrate)
G02 X373.679893 Y161.620164 Z-1.000000 I-5.415407 J-3.120235 F400.000000
G02 X373.891078 Y160.000949 Z-1.000000 I-6.038809 J-1.610988
G00 Z30.000000
(M05 (turn off plasma))
(End cutting path id: path7502)


(Start cutting path id: path7530)
(Change tool to Plasma cutter)
 
G00 Z30.000000
G00 X370.141107 Y140.311829
G31 Z-100 F500 (find metal)
G00 Z0.0000 (zero z)
G00 Z10 F500 (going up)
(M03 (turn on plasma))
G04 P0.2 (pause)
G01 Z1 (going to cutting z)
G01 Z-1.000000 F100.0(Penetrate)
G02 X377.389842 Y134.749677 Z-1.000000 I-17.500006 J-30.310887 F400.000000
G02 X382.951992 Y127.500941 Z-1.000000 I-24.748741 J-24.748735
G00 Z30.000000
(M05 (turn off plasma))
(End cutting path id: path7530)


(Start cutting path id: path7528)
(Change tool to Plasma cutter)
 
G00 Z30.000000
G00 X382.951992 Y127.500941
G31 Z-100 F500 (find metal)
G00 Z0.0000 (zero z)
G00 Z10 F500 (going up)
(M03 (turn on plasma))
G04 P0.2 (pause)
G01 Z1 (going to cutting z)
G01 Z-1.000000 F100.0(Penetrate)
G02 X386.448513 Y119.059609 Z-1.000000 I-30.310879 J-17.500020 F400.000000
G02 X387.641114 Y110.000942 Z-1.000000 I-33.807399 J-9.058688
G00 Z30.000000
(M05 (turn off plasma))
(End cutting path id: path7528)


(Start cutting path id: path7550)
(Change tool to Plasma cutter)
 
G00 Z30.000000
G00 X387.641114 Y110.000942
G31 Z-100 F500 (find metal)
G00 Z0.0000 (zero z)
G00 Z10 F500 (going up)
(M03 (turn on plasma))
G04 P0.2 (pause)
G01 Z1 (going to cutting z)
G01 Z-1.000000 F100.0(Penetrate)
G02 X386.448513 Y100.942274 Z-1.000000 I-35.000001 J0.000018 F400.000000
G02 X382.951992 Y92.500940 Z-1.000000 I-33.807399 J9.058686
G00 Z30.000000
(M05 (turn off plasma))
(End cutting path id: path7550)


(Start cutting path id: path7548)
(Change tool to Plasma cutter)
 
G00 Z30.000000
G00 X382.951992 Y92.500940
G31 Z-100 F500 (find metal)
G00 Z0.0000 (zero z)
G00 Z10 F500 (going up)
(M03 (turn on plasma))
G04 P0.2 (pause)
G01 Z1 (going to cutting z)
G01 Z-1.000000 F100.0(Penetrate)
G02 X377.389842 Y85.252204 Z-1.000000 I-30.310891 J17.499999 F400.000000
G02 X370.141107 Y79.690052 Z-1.000000 I-24.748741 J24.748735
G00 Z30.000000
(M05 (turn off plasma))
(End cutting path id: path7548)


(Start cutting path id: path7546)
(Change tool to Plasma cutter)
 
G00 Z30.000000
G00 X370.141107 Y79.690052
G31 Z-100 F500 (find metal)
G00 Z0.0000 (zero z)
G00 Z10 F500 (going up)
(M03 (turn on plasma))
G04 P0.2 (pause)
G01 Z1 (going to cutting z)
G01 Z-1.000000 F100.0(Penetrate)
G02 X361.699770 Y76.193536 Z-1.000000 I-17.500000 J30.310890 F400.000000
G02 X352.641100 Y75.000941 Z-1.000000 I-9.058663 J33.807406
G00 Z30.000000
(M05 (turn off plasma))
(End cutting path id: path7546)


(Start cutting path id: path7544)
(Change tool to Plasma cutter)
 
G00 Z30.000000
G00 X352.641100 Y75.000941
G31 Z-100 F500 (find metal)
G00 Z0.0000 (zero z)
G00 Z10 F500 (going up)
(M03 (turn on plasma))
G04 P0.2 (pause)
G01 Z1 (going to cutting z)
G01 Z-1.000000 F100.0(Penetrate)
G02 X343.582444 Y76.193540 Z-1.000000 I0.000021 J35.000001 F400.000000
G02 X335.141120 Y79.690052 Z-1.000000 I9.058677 J33.807402
G00 Z30.000000
(M05 (turn off plasma))
(End cutting path id: path7544)


(Start cutting path id: path7542)
(Change tool to Plasma cutter)
 
G00 Z30.000000
G00 X335.141120 Y79.690052
G31 Z-100 F500 (find metal)
G00 Z0.0000 (zero z)
G00 Z10 F500 (going up)
(M03 (turn on plasma))
G04 P0.2 (pause)
G01 Z1 (going to cutting z)
G01 Z-1.000000 F100.0(Penetrate)
G02 X327.892385 Y85.252204 Z-1.000000 I17.500006 J30.310887 F400.000000
G02 X322.330235 Y92.500940 Z-1.000000 I24.748741 J24.748735
G00 Z30.000000
(M05 (turn off plasma))
(End cutting path id: path7542)


(Start cutting path id: path7540)
(Change tool to Plasma cutter)
 
G00 Z30.000000
G00 X322.330235 Y92.500940
G31 Z-100 F500 (find metal)
G00 Z0.0000 (zero z)
G00 Z10 F500 (going up)
(M03 (turn on plasma))
G04 P0.2 (pause)
G01 Z1 (going to cutting z)
G01 Z-1.000000 F100.0(Penetrate)
G02 X318.833714 Y100.942274 Z-1.000000 I30.310879 J17.500020 F400.000000
G02 X317.641113 Y110.000942 Z-1.000000 I33.807399 J9.058686
G00 Z30.000000
(M05 (turn off plasma))
(End cutting path id: path7540)


(Start cutting path id: path7538)
(Change tool to Plasma cutter)
 
G00 Z30.000000
G00 X317.641113 Y110.000942
G31 Z-100 F500 (find metal)
G00 Z0.0000 (zero z)
G00 Z10 F500 (going up)
(M03 (turn on plasma))
G04 P0.2 (pause)
G01 Z1 (going to cutting z)
G01 Z-1.000000 F100.0(Penetrate)
G02 X318.833715 Y119.059609 Z-1.000000 I35.000001 J-0.000021 F400.000000
G02 X322.330235 Y127.500941 Z-1.000000 I33.807399 J-9.058688
G00 Z30.000000
(M05 (turn off plasma))
(End cutting path id: path7538)


(Start cutting path id: path7536)
(Change tool to Plasma cutter)
 
G00 Z30.000000
G00 X322.330235 Y127.500941
G31 Z-100 F500 (find metal)
G00 Z0.0000 (zero z)
G00 Z10 F500 (going up)
(M03 (turn on plasma))
G04 P0.2 (pause)
G01 Z1 (going to cutting z)
G01 Z-1.000000 F100.0(Penetrate)
G02 X327.892385 Y134.749677 Z-1.000000 I30.310891 J-17.499999 F400.000000
G02 X335.141120 Y140.311829 Z-1.000000 I24.748741 J-24.748735
G00 Z30.000000
(M05 (turn off plasma))
(End cutting path id: path7536)


(Start cutting path id: path7534)
(Change tool to Plasma cutter)
 
G00 Z30.000000
G00 X335.141120 Y140.311829
G31 Z-100 F500 (find metal)
G00 Z0.0000 (zero z)
G00 Z10 F500 (going up)
(M03 (turn on plasma))
G04 P0.2 (pause)
G01 Z1 (going to cutting z)
G01 Z-1.000000 F100.0(Penetrate)
G02 X343.582444 Y143.808341 Z-1.000000 I17.500000 J-30.310890 F400.000000
G02 X352.641100 Y145.000940 Z-1.000000 I9.058677 J-33.807402
G00 Z30.000000
(M05 (turn off plasma))
(End cutting path id: path7534)


(Start cutting path id: path7532)
(Change tool to Plasma cutter)
 
G00 Z30.000000
G00 X352.641100 Y145.000940
G31 Z-100 F500 (find metal)
G00 Z0.0000 (zero z)
G00 Z10 F500 (going up)
(M03 (turn on plasma))
G04 P0.2 (pause)
G01 Z1 (going to cutting z)
G01 Z-1.000000 F100.0(Penetrate)
G02 X361.699770 Y143.808345 Z-1.000000 I0.000007 J-35.000001 F400.000000
G02 X370.141107 Y140.311829 Z-1.000000 I-9.058663 J-33.807406
G00 Z30.000000
(M05 (turn off plasma))
(End cutting path id: path7532)


(Start cutting path id: path4380)
(Change tool to Plasma cutter)
 
G00 Z30.000000
G00 X387.641112 Y110.000939
G31 Z-100 F500 (find metal)
G00 Z0.0000 (zero z)
G00 Z10 F500 (going up)
(M03 (turn on plasma))
G04 P0.2 (pause)
G01 Z1 (going to cutting z)
G01 Z-1.000000 F100.0(Penetrate)
G03 X382.952001 Y127.500939 Z-1.000000 I-35.000001 J0.000000 F400.000000
G03 X370.141111 Y140.311829 Z-1.000000 I-30.310890 J-17.500000
G03 X352.641111 Y145.000940 Z-1.000000 I-17.500000 J-30.310890
G03 X335.141111 Y140.311829 Z-1.000000 I0.000000 J-35.000001
G03 X322.330221 Y127.500939 Z-1.000000 I17.500000 J-30.310890
G03 X317.641110 Y110.000939 Z-1.000000 I30.310890 J-17.500000
G03 X322.330221 Y92.500939 Z-1.000000 I35.000001 J-0.000000
G03 X335.141111 Y79.690049 Z-1.000000 I30.310890 J17.500000
G03 X352.641111 Y75.000938 Z-1.000000 I17.500000 J30.310890
G03 X370.141111 Y79.690049 Z-1.000000 I-0.000000 J35.000001
G03 X382.952001 Y92.500939 Z-1.000000 I-17.500000 J30.310890
G03 X387.641112 Y110.000939 Z-1.000000 I-30.310890 J17.500000
G01 X387.641112 Y110.000939 Z-1.000000
G00 Z30.000000
(M05 (turn off plasma))
(End cutting path id: path4380)


(Start cutting path id: path7430)
(Change tool to Plasma cutter)
 
G00 Z30.000000
G00 X404.513685 Y65.420592
G31 Z-100 F500 (find metal)
G00 Z0.0000 (zero z)
G00 Z10 F500 (going up)
(M03 (turn on plasma))
G04 P0.2 (pause)
G01 Z1 (going to cutting z)
G01 Z-1.000000 F100.0(Penetrate)
G02 X406.022135 Y66.046006 Z-1.000000 I3.127425 J-5.411258 F400.000000
G02 X407.641103 Y66.259334 Z-1.000000 I1.618975 J-6.036673
G00 Z30.000000
(M05 (turn off plasma))
(End cutting path id: path7430)


(Start cutting path id: path7428)
(Change tool to Plasma cutter)
 
G00 Z30.000000
G00 X407.641103 Y66.259334
G31 Z-100 F500 (find metal)
G00 Z0.0000 (zero z)
G00 Z10 F500 (going up)
(M03 (turn on plasma))
G04 P0.2 (pause)
G01 Z1 (going to cutting z)
G01 Z-1.000000 F100.0(Penetrate)
G02 X409.260070 Y66.046006 Z-1.000000 I-0.000007 J-6.250000 F400.000000
G02 X410.768520 Y65.420592 Z-1.000000 I-1.618975 J-6.036673
G00 Z30.000000
(M05 (turn off plasma))
(End cutting path id: path7428)


(Start cutting path id: path7426)
(Change tool to Plasma cutter)
 
G00 Z30.000000
G00 X410.768520 Y65.420592
G31 Z-100 F500 (find metal)
G00 Z0.0000 (zero z)
G00 Z10 F500 (going up)
(M03 (turn on plasma))
G04 P0.2 (pause)
G01 Z1 (going to cutting z)
G01 Z-1.000000 F100.0(Penetrate)
G02 X412.063482 Y64.425779 Z-1.000000 I-3.127426 J-5.411257 F400.000000
G02 X413.056552 Y63.129481 Z-1.000000 I-4.422388 J-4.416445
G00 Z30.000000
(M05 (turn off plasma))
(End cutting path id: path7426)


(Start cutting path id: path7424)
(Change tool to Plasma cutter)
 
G00 Z30.000000
G00 X413.056552 Y63.129481
G31 Z-100 F500 (find metal)
G00 Z0.0000 (zero z)
G00 Z10 F500 (going up)
(M03 (turn on plasma))
G04 P0.2 (pause)
G01 Z1 (going to cutting z)
G01 Z-1.000000 F100.0(Penetrate)
G02 X413.679937 Y61.620188 Z-1.000000 I-5.415463 J-3.120138 F400.000000
G02 X413.891083 Y60.000932 Z-1.000000 I-6.038848 J-1.610845
G00 Z30.000000
(M05 (turn off plasma))
(End cutting path id: path7424)


(Start cutting path id: path7446)
(Change tool to Plasma cutter)
 
G00 Z30.000000
G00 X413.891083 Y60.000920
G31 Z-100 F500 (find metal)
G00 Z0.0000 (zero z)
G00 Z10 F500 (going up)
(M03 (turn on plasma))
G04 P0.2 (pause)
G01 Z1 (going to cutting z)
G01 Z-1.000000 F100.0(Penetrate)
G02 X413.679937 Y58.381664 Z-1.000000 I-6.249995 J-0.008411 F400.000000
G02 X413.056552 Y56.872371 Z-1.000000 I-6.038848 J1.610845
G00 Z30.000000
(M05 (turn off plasma))
(End cutting path id: path7446)


(Start cutting path id: path7444)
(Change tool to Plasma cutter)
 
G00 Z30.000000
G00 X413.056552 Y56.872371
G31 Z-100 F500 (find metal)
G00 Z0.0000 (zero z)
G00 Z10 F500 (going up)
(M03 (turn on plasma))
G04 P0.2 (pause)
G01 Z1 (going to cutting z)
G01 Z-1.000000 F100.0(Penetrate)
G02 X412.063482 Y55.576074 Z-1.000000 I-5.415456 J3.120151 F400.000000
G02 X410.768520 Y54.581263 Z-1.000000 I-4.422385 J4.416448
G00 Z30.000000
(M05 (turn off plasma))
(End cutting path id: path7444)


(Start cutting path id: path7442)
(Change tool to Plasma cutter)
 
G00 Z30.000000
G00 X410.768520 Y54.581263
G31 Z-100 F500 (find metal)
G00 Z0.0000 (zero z)
G00 Z10 F500 (going up)
(M03 (turn on plasma))
G04 P0.2 (pause)
G01 Z1 (going to cutting z)
G01 Z-1.000000 F100.0(Penetrate)
G02 X409.260070 Y53.955848 Z-1.000000 I-3.127425 J5.411258 F400.000000
G02 X407.641103 Y53.742521 Z-1.000000 I-1.618975 J6.036673
G00 Z30.000000
(M05 (turn off plasma))
(End cutting path id: path7442)


(Start cutting path id: path7440)
(Change tool to Plasma cutter)
 
G00 Z30.000000
G00 X407.641103 Y53.742521
G31 Z-100 F500 (find metal)
G00 Z0.0000 (zero z)
G00 Z10 F500 (going up)
(M03 (turn on plasma))
G04 P0.2 (pause)
G01 Z1 (going to cutting z)
G01 Z-1.000000 F100.0(Penetrate)
G02 X406.022135 Y53.955848 Z-1.000000 I0.000007 J6.250000 F400.000000
G02 X404.513685 Y54.581263 Z-1.000000 I1.618975 J6.036673
G00 Z30.000000
(M05 (turn off plasma))
(End cutting path id: path7440)


(Start cutting path id: path7438)
(Change tool to Plasma cutter)
 
G00 Z30.000000
G00 X404.513685 Y54.581263
G31 Z-100 F500 (find metal)
G00 Z0.0000 (zero z)
G00 Z10 F500 (going up)
(M03 (turn on plasma))
G04 P0.2 (pause)
G01 Z1 (going to cutting z)
G01 Z-1.000000 F100.0(Penetrate)
G02 X403.218724 Y55.576074 Z-1.000000 I3.127424 J5.411259 F400.000000
G02 X402.225653 Y56.872371 Z-1.000000 I4.422385 J4.416448
G00 Z30.000000
(M05 (turn off plasma))
(End cutting path id: path7438)


(Start cutting path id: path7436)
(Change tool to Plasma cutter)
 
G00 Z30.000000
G00 X402.225653 Y56.872371
G31 Z-100 F500 (find metal)
G00 Z0.0000 (zero z)
G00 Z10 F500 (going up)
(M03 (turn on plasma))
G04 P0.2 (pause)
G01 Z1 (going to cutting z)
G01 Z-1.000000 F100.0(Penetrate)
G02 X401.602255 Y58.381662 Z-1.000000 I5.415435 J3.120186 F400.000000
G02 X401.391094 Y60.000920 Z-1.000000 I6.038834 J1.610895
G00 Z30.000000
(M05 (turn off plasma))
(End cutting path id: path7436)


(Start cutting path id: path7434)
(Change tool to Plasma cutter)
 
G00 Z30.000000
G00 X401.391094 Y60.000932
G31 Z-100 F500 (find metal)
G00 Z0.0000 (zero z)
G00 Z10 F500 (going up)
(M03 (turn on plasma))
G04 P0.2 (pause)
G01 Z1 (going to cutting z)
G01 Z-1.000000 F100.0(Penetrate)
G02 X401.602255 Y61.620190 Z-1.000000 I6.249995 J0.008363 F400.000000
G02 X402.225653 Y63.129481 Z-1.000000 I6.038834 J-1.610895
G00 Z30.000000
(M05 (turn off plasma))
(End cutting path id: path7434)


(Start cutting path id: path7432)
(Change tool to Plasma cutter)
 
G00 Z30.000000
G00 X402.225653 Y63.129481
G31 Z-100 F500 (find metal)
G00 Z0.0000 (zero z)
G00 Z10 F500 (going up)
(M03 (turn on plasma))
G04 P0.2 (pause)
G01 Z1 (going to cutting z)
G01 Z-1.000000 F100.0(Penetrate)
G02 X403.218724 Y64.425779 Z-1.000000 I5.415458 J-3.120146 F400.000000
G02 X404.513685 Y65.420592 Z-1.000000 I4.422388 J-4.416445
G00 Z30.000000
(M05 (turn off plasma))
(End cutting path id: path7432)


(Start cutting path id: path4388)
(Change tool to Plasma cutter)
 
G00 Z30.000000
G00 X413.891109 Y60.000926
G31 Z-100 F500 (find metal)
G00 Z0.0000 (zero z)
G00 Z10 F500 (going up)
(M03 (turn on plasma))
G04 P0.2 (pause)
G01 Z1 (going to cutting z)
G01 Z-1.000000 F100.0(Penetrate)
G03 X413.056571 Y63.129475 Z-1.000000 I-6.249995 J0.008400 F400.000000
G03 X410.768539 Y65.420584 Z-1.000000 I-5.415457 J-3.120149
G03 X407.641114 Y66.259326 Z-1.000000 I-3.127425 J-5.411258
G03 X404.513690 Y65.420584 Z-1.000000 I-0.000000 J-6.250000
G03 X402.225657 Y63.129475 Z-1.000000 I3.127425 J-5.411258
G03 X401.391120 Y60.000926 Z-1.000000 I5.415457 J-3.120149
G03 X402.225657 Y56.872377 Z-1.000000 I6.249995 J-0.008400
G03 X404.513690 Y54.581268 Z-1.000000 I5.415457 J3.120149
G03 X407.641114 Y53.742526 Z-1.000000 I3.127425 J5.411258
G03 X410.768539 Y54.581268 Z-1.000000 I0.000000 J6.250000
G03 X413.056571 Y56.872377 Z-1.000000 I-3.127425 J5.411258
G03 X413.891109 Y60.000926 Z-1.000000 I-5.415457 J3.120149
G01 X413.891109 Y60.000926 Z-1.000000
G00 Z30.000000
(M05 (turn off plasma))
(End cutting path id: path4388)


(Start cutting path id: path7360)
(Change tool to Plasma cutter)
 
G00 Z30.000000
G00 X425.141110 Y32.141102
G31 Z-100 F500 (find metal)
G00 Z0.0000 (zero z)
G00 Z10 F500 (going up)
(M03 (turn on plasma))
G04 P0.2 (pause)
G01 Z1 (going to cutting z)
G01 Z-1.000000 F100.0(Penetrate)
G02 X422.705248 Y19.895230 Z-1.000000 I-32.000001 J0.000017 F400.000000
G02 X415.768510 Y9.513684 Z-1.000000 I-29.564138 J12.245889
G00 Z30.000000
(M05 (turn off plasma))
(End cutting path id: path7360)


(Start cutting path id: path7358)
(Change tool to Plasma cutter)
 
G00 Z30.000000
G00 X415.768510 Y9.513684
G31 Z-100 F500 (find metal)
G00 Z0.0000 (zero z)
G00 Z10 F500 (going up)
(M03 (turn on plasma))
G04 P0.2 (pause)
G01 Z1 (going to cutting z)
G01 Z-1.000000 F100.0(Penetrate)
G02 X405.386973 Y2.576967 Z-1.000000 I-22.627406 J22.627429 F400.000000
G02 X393.141118 Y0.141112 Z-1.000000 I-12.245869 J29.564147
G00 Z30.000000
(M05 (turn off plasma))
(End cutting path id: path7358)


(Start cutting path id: path7494)
(Change tool to Plasma cutter)
 
G00 Z30.000000
G00 X370.768459 Y54.581449
G31 Z-100 F500 (find metal)
G00 Z0.0000 (zero z)
G00 Z10 F500 (going up)
(M03 (turn on plasma))
G04 P0.2 (pause)
G01 Z1 (going to cutting z)
G01 Z-1.000000 F100.0(Penetrate)
G02 X369.260034 Y53.956061 Z-1.000000 I-3.127361 J5.411295 F400.000000
G02 X367.641098 Y53.742744 Z-1.000000 I-1.618936 J6.036684
G00 Z30.000000
(M05 (turn off plasma))
(End cutting path id: path7494)


(Start cutting path id: path7492)
(Change tool to Plasma cutter)
 
G00 Z30.000000
G00 X367.641098 Y53.742744
G31 Z-100 F500 (find metal)
G00 Z0.0000 (zero z)
G00 Z10 F500 (going up)
(M03 (turn on plasma))
G04 P0.2 (pause)
G01 Z1 (going to cutting z)
G01 Z-1.000000 F100.0(Penetrate)
G02 X366.022162 Y53.956061 Z-1.000000 I0.000000 J6.250000 F400.000000
G02 X364.513737 Y54.581449 Z-1.000000 I1.618936 J6.036684
G00 Z30.000000
(M05 (turn off plasma))
(End cutting path id: path7492)


(Start cutting path id: path7490)
(Change tool to Plasma cutter)
 
G00 Z30.000000
G00 X364.513737 Y54.581449
G31 Z-100 F500 (find metal)
G00 Z0.0000 (zero z)
G00 Z10 F500 (going up)
(M03 (turn on plasma))
G04 P0.2 (pause)
G01 Z1 (going to cutting z)
G01 Z-1.000000 F100.0(Penetrate)
G02 X363.218784 Y55.576221 Z-1.000000 I3.127351 J5.411301 F400.000000
G02 X362.225705 Y56.872473 Z-1.000000 I4.422304 J4.416529
G00 Z30.000000
(M05 (turn off plasma))
(End cutting path id: path7490)


(Start cutting path id: path7488)
(Change tool to Plasma cutter)
 
G00 Z30.000000
G00 X362.225705 Y56.872473
G31 Z-100 F500 (find metal)
G00 Z0.0000 (zero z)
G00 Z10 F500 (going up)
(M03 (turn on plasma))
G04 P0.2 (pause)
G01 Z1 (going to cutting z)
G01 Z-1.000000 F100.0(Penetrate)
G02 X361.602289 Y58.381716 Z-1.000000 I5.415379 J3.120284 F400.000000
G02 X361.391089 Y60.000932 Z-1.000000 I6.038796 J1.611041
G00 Z30.000000
(M05 (turn off plasma))
(End cutting path id: path7488)


(Start cutting path id: path7486)
(Change tool to Plasma cutter)
 
G00 Z30.000000
G00 X361.391089 Y60.000920
G31 Z-100 F500 (find metal)
G00 Z0.0000 (zero z)
G00 Z10 F500 (going up)
(M03 (turn on plasma))
G04 P0.2 (pause)
G01 Z1 (going to cutting z)
G01 Z-1.000000 F100.0(Penetrate)
G02 X361.602288 Y61.620137 Z-1.000000 I6.249995 J0.008178 F400.000000
G02 X362.225705 Y63.129382 Z-1.000000 I6.038796 J-1.611039
G00 Z30.000000
(M05 (turn off plasma))
(End cutting path id: path7486)


(Start cutting path id: path7484)
(Change tool to Plasma cutter)
 
G00 Z30.000000
G00 X362.225705 Y63.129382
G31 Z-100 F500 (find metal)
G00 Z0.0000 (zero z)
G00 Z10 F500 (going up)
(M03 (turn on plasma))
G04 P0.2 (pause)
G01 Z1 (going to cutting z)
G01 Z-1.000000 F100.0(Penetrate)
G02 X363.218784 Y64.425632 Z-1.000000 I5.415380 J-3.120282 F400.000000
G02 X364.513737 Y65.420403 Z-1.000000 I4.422301 J-4.416532
G00 Z30.000000
(M05 (turn off plasma))
(End cutting path id: path7484)


(Start cutting path id: path7482)
(Change tool to Plasma cutter)
 
G00 Z30.000000
G00 X364.513737 Y65.420403
G31 Z-100 F500 (find metal)
G00 Z0.0000 (zero z)
G00 Z10 F500 (going up)
(M03 (turn on plasma))
G04 P0.2 (pause)
G01 Z1 (going to cutting z)
G01 Z-1.000000 F100.0(Penetrate)
G02 X366.022162 Y66.045791 Z-1.000000 I3.127361 J-5.411295 F400.000000
G02 X367.641098 Y66.259108 Z-1.000000 I1.618936 J-6.036684
G00 Z30.000000
(M05 (turn off plasma))
(End cutting path id: path7482)


(Start cutting path id: path7480)
(Change tool to Plasma cutter)
 
G00 Z30.000000
G00 X367.641098 Y66.259108
G31 Z-100 F500 (find metal)
G00 Z0.0000 (zero z)
G00 Z10 F500 (going up)
(M03 (turn on plasma))
G04 P0.2 (pause)
G01 Z1 (going to cutting z)
G01 Z-1.000000 F100.0(Penetrate)
G02 X369.260034 Y66.045791 Z-1.000000 I-0.000000 J-6.250000 F400.000000
G02 X370.768459 Y65.420403 Z-1.000000 I-1.618936 J-6.036684
G00 Z30.000000
(M05 (turn off plasma))
(End cutting path id: path7480)


(Start cutting path id: path7478)
(Change tool to Plasma cutter)
 
G00 Z30.000000
G00 X370.768459 Y65.420403
G31 Z-100 F500 (find metal)
G00 Z0.0000 (zero z)
G00 Z10 F500 (going up)
(M03 (turn on plasma))
G04 P0.2 (pause)
G01 Z1 (going to cutting z)
G01 Z-1.000000 F100.0(Penetrate)
G02 X372.063412 Y64.425632 Z-1.000000 I-3.127348 J-5.411303 F400.000000
G02 X373.056491 Y63.129382 Z-1.000000 I-4.422301 J-4.416532
G00 Z30.000000
(M05 (turn off plasma))
(End cutting path id: path7478)


(Start cutting path id: path7476)
(Change tool to Plasma cutter)
 
G00 Z30.000000
G00 X373.056491 Y63.129382
G31 Z-100 F500 (find metal)
G00 Z0.0000 (zero z)
G00 Z10 F500 (going up)
(M03 (turn on plasma))
G04 P0.2 (pause)
G01 Z1 (going to cutting z)
G01 Z-1.000000 F100.0(Penetrate)
G02 X373.679893 Y61.620135 Z-1.000000 I-5.415407 J-3.120235 F400.000000
G02 X373.891078 Y60.000920 Z-1.000000 I-6.038809 J-1.610988
G00 Z30.000000
(M05 (turn off plasma))
(End cutting path id: path7476)


(Start cutting path id: path7498)
(Change tool to Plasma cutter)
 
G00 Z30.000000
G00 X373.891078 Y60.000932
G31 Z-100 F500 (find metal)
G00 Z0.0000 (zero z)
G00 Z10 F500 (going up)
(M03 (turn on plasma))
G04 P0.2 (pause)
G01 Z1 (going to cutting z)
G01 Z-1.000000 F100.0(Penetrate)
G02 X373.679893 Y58.381718 Z-1.000000 I-6.249995 J-0.008224 F400.000000
G02 X373.056491 Y56.872473 Z-1.000000 I-6.038809 J1.610990
G00 Z30.000000
(M05 (turn off plasma))
(End cutting path id: path7498)


(Start cutting path id: path7496)
(Change tool to Plasma cutter)
 
G00 Z30.000000
G00 X373.056491 Y56.872473
G31 Z-100 F500 (find metal)
G00 Z0.0000 (zero z)
G00 Z10 F500 (going up)
(M03 (turn on plasma))
G04 P0.2 (pause)
G01 Z1 (going to cutting z)
G01 Z-1.000000 F100.0(Penetrate)
G02 X372.063412 Y55.576221 Z-1.000000 I-5.415383 J3.120278 F400.000000
G02 X370.768459 Y54.581449 Z-1.000000 I-4.422304 J4.416529
G00 Z30.000000
(M05 (turn off plasma))
(End cutting path id: path7496)


(Start cutting path id: path4384)
(Change tool to Plasma cutter)
 
G00 Z30.000000
G00 X373.891104 Y60.000926
G31 Z-100 F500 (find metal)
G00 Z0.0000 (zero z)
G00 Z10 F500 (going up)
(M03 (turn on plasma))
G04 P0.2 (pause)
G01 Z1 (going to cutting z)
G01 Z-1.000000 F100.0(Penetrate)
G03 X373.056495 Y63.129385 Z-1.000000 I-6.249995 J0.008187 F400.000000
G03 X370.768472 Y65.420407 Z-1.000000 I-5.415386 J-3.120272
G03 X367.641109 Y66.259113 Z-1.000000 I-3.127363 J-5.411294
G03 X364.513746 Y65.420407 Z-1.000000 I-0.000000 J-6.250000
G03 X362.225724 Y63.129385 Z-1.000000 I3.127363 J-5.411294
G03 X361.391115 Y60.000926 Z-1.000000 I5.415386 J-3.120272
G03 X362.225724 Y56.872467 Z-1.000000 I6.249995 J-0.008187
G03 X364.513746 Y54.581445 Z-1.000000 I5.415386 J3.120272
G03 X367.641109 Y53.742739 Z-1.000000 I3.127363 J5.411294
G03 X370.768472 Y54.581445 Z-1.000000 I0.000000 J6.250000
G03 X373.056495 Y56.872467 Z-1.000000 I-3.127363 J5.411294
G03 X373.891104 Y60.000926 Z-1.000000 I-5.415386 J3.120272
G01 X373.891104 Y60.000926 Z-1.000000
G00 Z30.000000
(M05 (turn off plasma))
(End cutting path id: path4384)


(Start cutting path id: path4406)
(Change tool to Plasma cutter)
 
G00 Z30.000000
G00 X305.641106 Y41.000936
G31 Z-100 F500 (find metal)
G00 Z0.0000 (zero z)
G00 Z10 F500 (going up)
(M03 (turn on plasma))
G04 P0.2 (pause)
G01 Z1 (going to cutting z)
G01 Z-1.000000 F100.0(Penetrate)
G01 X305.641106 Y0.141112 Z-1.000000 F400.000000
G00 Z30.000000
(M05 (turn off plasma))
(End cutting path id: path4406)


(Start cutting path id: path4428)
(Change tool to Plasma cutter)
 
G00 Z30.000000
G00 X265.141116 Y41.000936
G31 Z-100 F500 (find metal)
G00 Z0.0000 (zero z)
G00 Z10 F500 (going up)
(M03 (turn on plasma))
G04 P0.2 (pause)
G01 Z1 (going to cutting z)
G01 Z-1.000000 F100.0(Penetrate)
G01 X305.641106 Y41.000936 Z-1.000000 F400.000000
G00 Z30.000000
(M05 (turn off plasma))
(End cutting path id: path4428)


(Start cutting path id: path4422)
(Change tool to Plasma cutter)
 
G00 Z30.000000
G00 X265.141116 Y41.000936
G31 Z-100 F500 (find metal)
G00 Z0.0000 (zero z)
G00 Z10 F500 (going up)
(M03 (turn on plasma))
G04 P0.2 (pause)
G01 Z1 (going to cutting z)
G01 Z-1.000000 F100.0(Penetrate)
G01 X265.141116 Y0.141112 Z-1.000000 F400.000000
G00 Z30.000000
(M05 (turn off plasma))
(End cutting path id: path4422)


(Start cutting path id: path4372)
(Change tool to Plasma cutter)
 
G00 Z30.000000
G00 X232.641113 Y75.000924
G31 Z-100 F500 (find metal)
G00 Z0.0000 (zero z)
G00 Z10 F500 (going up)
(M03 (turn on plasma))
G04 P0.2 (pause)
G01 Z1 (going to cutting z)
G01 Z-1.000000 F100.0(Penetrate)
G03 X250.141114 Y79.690035 Z-1.000000 I-0.000000 J35.000001 F400.000000
G03 X262.952003 Y92.500925 Z-1.000000 I-17.500000 J30.310890
G03 X267.641114 Y110.000925 Z-1.000000 I-30.310890 J17.500000
G03 X262.952003 Y127.500925 Z-1.000000 I-35.000001 J0.000000
G03 X250.141114 Y140.311815 Z-1.000000 I-30.310890 J-17.500000
G03 X232.641113 Y145.000926 Z-1.000000 I-17.500000 J-30.310890
G00 Z30.000000
(M05 (turn off plasma))
(End cutting path id: path4372)


(Start cutting path id: path4434)
(Change tool to Plasma cutter)
 
G00 Z30.000000
G00 X265.141116 Y179.000943
G31 Z-100 F500 (find metal)
G00 Z0.0000 (zero z)
G00 Z10 F500 (going up)
(M03 (turn on plasma))
G04 P0.2 (pause)
G01 Z1 (going to cutting z)
G01 Z-1.000000 F100.0(Penetrate)
G01 X265.141116 Y219.860766 Z-1.000000 F400.000000
G00 Z30.000000
(M05 (turn off plasma))
(End cutting path id: path4434)


(Start cutting path id: path4440)
(Change tool to Plasma cutter)
 
G00 Z30.000000
G00 X305.641106 Y179.000943
G31 Z-100 F500 (find metal)
G00 Z0.0000 (zero z)
G00 Z10 F500 (going up)
(M03 (turn on plasma))
G04 P0.2 (pause)
G01 Z1 (going to cutting z)
G01 Z-1.000000 F100.0(Penetrate)
G01 X265.141116 Y179.000943 Z-1.000000 F400.000000
G00 Z30.000000
(M05 (turn off plasma))
(End cutting path id: path4440)


(Start cutting path id: path4410)
(Change tool to Plasma cutter)
 
G00 Z30.000000
G00 X305.641106 Y179.000943
G31 Z-100 F500 (find metal)
G00 Z0.0000 (zero z)
G00 Z10 F500 (going up)
(M03 (turn on plasma))
G04 P0.2 (pause)
G01 Z1 (going to cutting z)
G01 Z-1.000000 F100.0(Penetrate)
G01 X305.641106 Y219.860766 Z-1.000000 F400.000000
G00 Z30.000000
(M05 (turn off plasma))
(End cutting path id: path4410)


(Start cutting path id: path4430)
(Change tool to Plasma cutter)
 
G00 Z30.000000
G00 X54.641112 Y41.000936
G31 Z-100 F500 (find metal)
G00 Z0.0000 (zero z)
G00 Z10 F500 (going up)
(M03 (turn on plasma))
G04 P0.2 (pause)
G01 Z1 (going to cutting z)
G01 Z-1.000000 F100.0(Penetrate)
G01 X95.141114 Y41.000936 Z-1.000000 F400.000000
G00 Z30.000000
(M05 (turn off plasma))
(End cutting path id: path4430)


(Start cutting path id: path4414)
(Change tool to Plasma cutter)
 
G00 Z30.000000
G00 X54.641112 Y41.000936
G31 Z-100 F500 (find metal)
G00 Z0.0000 (zero z)
G00 Z10 F500 (going up)
(M03 (turn on plasma))
G04 P0.2 (pause)
G01 Z1 (going to cutting z)
G01 Z-1.000000 F100.0(Penetrate)
G01 X54.641112 Y0.141112 Z-1.000000 F400.000000
G00 Z30.000000
(M05 (turn off plasma))
(End cutting path id: path4414)


(Start cutting path id: path4416)
(Change tool to Plasma cutter)
 
G00 Z30.000000
G00 X32.141112 Y0.141112
G31 Z-100 F500 (find metal)
G00 Z0.0000 (zero z)
G00 Z10 F500 (going up)
(M03 (turn on plasma))
G04 P0.2 (pause)
G01 Z1 (going to cutting z)
G01 Z-1.000000 F100.0(Penetrate)
G01 X54.641112 Y0.141112 Z-1.000000 F400.000000
G00 Z30.000000
(M05 (turn off plasma))
(End cutting path id: path4416)


(Start cutting path id: path7370)
(Change tool to Plasma cutter)
 
G00 Z30.000000
G00 X32.141112 Y0.141112
G31 Z-100 F500 (find metal)
G00 Z0.0000 (zero z)
G00 Z10 F500 (going up)
(M03 (turn on plasma))
G04 P0.2 (pause)
G01 Z1 (going to cutting z)
G01 Z-1.000000 F100.0(Penetrate)
G02 X19.895245 Y2.576963 Z-1.000000 I-0.000008 J32.000001 F400.000000
G02 X9.513698 Y9.513684 Z-1.000000 I12.245859 J29.564151
G00 Z30.000000
(M05 (turn off plasma))
(End cutting path id: path7370)


(Start cutting path id: path7368)
(Change tool to Plasma cutter)
 
G00 Z30.000000
G00 X9.513698 Y9.513684
G31 Z-100 F500 (find metal)
G00 Z0.0000 (zero z)
G00 Z10 F500 (going up)
(M03 (turn on plasma))
G04 P0.2 (pause)
G01 Z1 (going to cutting z)
G01 Z-1.000000 F100.0(Penetrate)
G02 X2.576968 Y19.895232 Z-1.000000 I22.627415 J22.627421 F400.000000
G02 X0.141111 Y32.141102 Z-1.000000 I29.564145 J12.245874
G00 Z30.000000
(M05 (turn off plasma))
(End cutting path id: path7368)


(Start cutting path id: path4398)
(Change tool to Plasma cutter)
 
G00 Z30.000000
G00 X0.141111 Y32.141105
G31 Z-100 F500 (find metal)
G00 Z0.0000 (zero z)
G00 Z10 F500 (going up)
(M03 (turn on plasma))
G04 P0.2 (pause)
G01 Z1 (going to cutting z)
G01 Z-1.000000 F100.0(Penetrate)
G01 X0.141111 Y187.860773 Z-1.000000 F400.000000
G00 Z30.000000
(M05 (turn off plasma))
(End cutting path id: path4398)


(Start cutting path id: path7376)
(Change tool to Plasma cutter)
 
G00 Z30.000000
G00 X17.641113 Y66.250926
G31 Z-100 F500 (find metal)
G00 Z0.0000 (zero z)
G00 Z10 F500 (going up)
(M03 (turn on plasma))
G04 P0.2 (pause)
G01 Z1 (going to cutting z)
G01 Z-1.000000 F100.0(Penetrate)
G02 X19.258732 Y66.037962 Z-1.000000 I-0.000001 J-6.250000 F400.000000
G02 X20.766113 Y65.413584 Z-1.000000 I-1.617621 J-6.037036
G00 Z30.000000
(M05 (turn off plasma))
(End cutting path id: path7376)


(Start cutting path id: path7374)
(Change tool to Plasma cutter)
 
G00 Z30.000000
G00 X20.766113 Y65.413584
G31 Z-100 F500 (find metal)
G00 Z0.0000 (zero z)
G00 Z10 F500 (going up)
(M03 (turn on plasma))
G04 P0.2 (pause)
G01 Z1 (going to cutting z)
G01 Z-1.000000 F100.0(Penetrate)
G02 X22.060531 Y64.420344 Z-1.000000 I-3.124998 J-5.412660 F400.000000
G02 X23.053772 Y63.125927 Z-1.000000 I-4.419415 J-4.419420
G00 Z30.000000
(M05 (turn off plasma))
(End cutting path id: path7374)


(Start cutting path id: path7372)
(Change tool to Plasma cutter)
 
G00 Z30.000000
G00 X23.053772 Y63.125927
G31 Z-100 F500 (find metal)
G00 Z0.0000 (zero z)
G00 Z10 F500 (going up)
(M03 (turn on plasma))
G04 P0.2 (pause)
G01 Z1 (going to cutting z)
G01 Z-1.000000 F100.0(Penetrate)
G02 X23.678150 Y61.618546 Z-1.000000 I-5.412659 J-3.125000 F400.000000
G02 X23.891113 Y60.000926 Z-1.000000 I-6.037037 J-1.617618
G00 Z30.000000
(M05 (turn off plasma))
(End cutting path id: path7372)


(Start cutting path id: path7394)
(Change tool to Plasma cutter)
 
G00 Z30.000000
G00 X23.891113 Y60.000926
G31 Z-100 F500 (find metal)
G00 Z0.0000 (zero z)
G00 Z10 F500 (going up)
(M03 (turn on plasma))
G04 P0.2 (pause)
G01 Z1 (going to cutting z)
G01 Z-1.000000 F100.0(Penetrate)
G02 X23.678150 Y58.383308 Z-1.000000 I-6.250000 J0.000001 F400.000000
G02 X23.053772 Y56.875927 Z-1.000000 I-6.037036 J1.617620
G00 Z30.000000
(M05 (turn off plasma))
(End cutting path id: path7394)


(Start cutting path id: path7392)
(Change tool to Plasma cutter)
 
G00 Z30.000000
G00 X23.053772 Y56.875927
G31 Z-100 F500 (find metal)
G00 Z0.0000 (zero z)
G00 Z10 F500 (going up)
(M03 (turn on plasma))
G04 P0.2 (pause)
G01 Z1 (going to cutting z)
G01 Z-1.000000 F100.0(Penetrate)
G02 X22.060531 Y55.581509 Z-1.000000 I-5.412659 J3.124999 F400.000000
G02 X20.766113 Y54.588268 Z-1.000000 I-4.419418 J4.419417
G00 Z30.000000
(M05 (turn off plasma))
(End cutting path id: path7392)


(Start cutting path id: path7390)
(Change tool to Plasma cutter)
 
G00 Z30.000000
G00 X20.766113 Y54.588268
G31 Z-100 F500 (find metal)
G00 Z0.0000 (zero z)
G00 Z10 F500 (going up)
(M03 (turn on plasma))
G04 P0.2 (pause)
G01 Z1 (going to cutting z)
G01 Z-1.000000 F100.0(Penetrate)
G02 X19.258732 Y53.963890 Z-1.000000 I-3.125001 J5.412658 F400.000000
G02 X17.641113 Y53.750926 Z-1.000000 I-1.617621 J6.037036
G00 Z30.000000
(M05 (turn off plasma))
(End cutting path id: path7390)


(Start cutting path id: path7388)
(Change tool to Plasma cutter)
 
G00 Z30.000000
G00 X17.641113 Y53.750926
G31 Z-100 F500 (find metal)
G00 Z0.0000 (zero z)
G00 Z10 F500 (going up)
(M03 (turn on plasma))
G04 P0.2 (pause)
G01 Z1 (going to cutting z)
G01 Z-1.000000 F100.0(Penetrate)
G02 X16.023494 Y53.963890 Z-1.000000 I0.000001 J6.250000 F400.000000
G02 X14.516113 Y54.588268 Z-1.000000 I1.617621 J6.037036
G00 Z30.000000
(M05 (turn off plasma))
(End cutting path id: path7388)


(Start cutting path id: path7386)
(Change tool to Plasma cutter)
 
G00 Z30.000000
G00 X14.516113 Y54.588268
G31 Z-100 F500 (find metal)
G00 Z0.0000 (zero z)
G00 Z10 F500 (going up)
(M03 (turn on plasma))
G04 P0.2 (pause)
G01 Z1 (going to cutting z)
G01 Z-1.000000 F100.0(Penetrate)
G02 X13.221696 Y55.581509 Z-1.000000 I3.125001 J5.412659 F400.000000
G02 X12.228454 Y56.875927 Z-1.000000 I4.419418 J4.419417
G00 Z30.000000
(M05 (turn off plasma))
(End cutting path id: path7386)


(Start cutting path id: path7384)
(Change tool to Plasma cutter)
 
G00 Z30.000000
G00 X12.228454 Y56.875927
G31 Z-100 F500 (find metal)
G00 Z0.0000 (zero z)
G00 Z10 F500 (going up)
(M03 (turn on plasma))
G04 P0.2 (pause)
G01 Z1 (going to cutting z)
G01 Z-1.000000 F100.0(Penetrate)
G02 X11.604077 Y58.383308 Z-1.000000 I5.412659 J3.125000 F400.000000
G02 X11.391113 Y60.000926 Z-1.000000 I6.037036 J1.617620
G00 Z30.000000
(M05 (turn off plasma))
(End cutting path id: path7384)


(Start cutting path id: path7382)
(Change tool to Plasma cutter)
 
G00 Z30.000000
G00 X11.391113 Y60.000926
G31 Z-100 F500 (find metal)
G00 Z0.0000 (zero z)
G00 Z10 F500 (going up)
(M03 (turn on plasma))
G04 P0.2 (pause)
G01 Z1 (going to cutting z)
G01 Z-1.000000 F100.0(Penetrate)
G02 X11.604076 Y61.618546 Z-1.000000 I6.250000 J0.000002 F400.000000
G02 X12.228454 Y63.125927 Z-1.000000 I6.037037 J-1.617618
G00 Z30.000000
(M05 (turn off plasma))
(End cutting path id: path7382)


(Start cutting path id: path7380)
(Change tool to Plasma cutter)
 
G00 Z30.000000
G00 X12.228454 Y63.125927
G31 Z-100 F500 (find metal)
G00 Z0.0000 (zero z)
G00 Z10 F500 (going up)
(M03 (turn on plasma))
G04 P0.2 (pause)
G01 Z1 (going to cutting z)
G01 Z-1.000000 F100.0(Penetrate)
G02 X13.221696 Y64.420344 Z-1.000000 I5.412657 J-3.125003 F400.000000
G02 X14.516113 Y65.413584 Z-1.000000 I4.419415 J-4.419420
G00 Z30.000000
(M05 (turn off plasma))
(End cutting path id: path7380)


(Start cutting path id: path7378)
(Change tool to Plasma cutter)
 
G00 Z30.000000
G00 X14.516113 Y65.413584
G31 Z-100 F500 (find metal)
G00 Z0.0000 (zero z)
G00 Z10 F500 (going up)
(M03 (turn on plasma))
G04 P0.2 (pause)
G01 Z1 (going to cutting z)
G01 Z-1.000000 F100.0(Penetrate)
G02 X16.023494 Y66.037962 Z-1.000000 I3.125001 J-5.412658 F400.000000
G02 X17.641113 Y66.250926 Z-1.000000 I1.617621 J-6.037036
G00 Z30.000000
(M05 (turn off plasma))
(End cutting path id: path7378)


(Start cutting path id: path4392)
(Change tool to Plasma cutter)
 
G00 Z30.000000
G00 X23.891113 Y60.000926
G31 Z-100 F500 (find metal)
G00 Z0.0000 (zero z)
G00 Z10 F500 (going up)
(M03 (turn on plasma))
G04 P0.2 (pause)
G01 Z1 (going to cutting z)
G01 Z-1.000000 F100.0(Penetrate)
G03 X23.053772 Y63.125926 Z-1.000000 I-6.250000 J0.000000 F400.000000
G03 X20.766113 Y65.413585 Z-1.000000 I-5.412659 J-3.125000
G03 X17.641113 Y66.250926 Z-1.000000 I-3.125000 J-5.412659
G03 X14.516113 Y65.413585 Z-1.000000 I-0.000000 J-6.250000
G03 X12.228454 Y63.125926 Z-1.000000 I3.125000 J-5.412659
G03 X11.391113 Y60.000926 Z-1.000000 I5.412659 J-3.125000
G03 X12.228454 Y56.875926 Z-1.000000 I6.250000 J0.000000
G03 X14.516113 Y54.588267 Z-1.000000 I5.412659 J3.125000
G03 X17.641113 Y53.750926 Z-1.000000 I3.125000 J5.412659
G03 X20.766113 Y54.588267 Z-1.000000 I-0.000000 J6.250000
G03 X23.053772 Y56.875926 Z-1.000000 I-3.125000 J5.412659
G03 X23.891113 Y60.000926 Z-1.000000 I-5.412659 J3.125000
G01 X23.891113 Y60.000926 Z-1.000000
G00 Z30.000000
(M05 (turn off plasma))
(End cutting path id: path4392)


(Start cutting path id: path4394)
(Change tool to Plasma cutter)
 
G00 Z30.000000
G00 X0.141111 Y32.141105
G31 Z-100 F500 (find metal)
G00 Z0.0000 (zero z)
G00 Z10 F500 (going up)
(M03 (turn on plasma))
G04 P0.2 (pause)
G01 Z1 (going to cutting z)
G01 Z-1.000000 F100.0(Penetrate)
G03 X9.513697 Y9.513693 Z-1.000000 I32.000001 J0.000008 F400.000000
G03 X32.141112 Y0.141112 Z-1.000000 I22.627415 J22.627421
G00 Z30.000000
(M05 (turn off plasma))
(End cutting path id: path4394)


(Footer)
(M5)
G00 X0.0000 Y0.0000
(M2)
(Using default footer. To add your own footer create file "footer" in the output dir.)
(end)
%