%
(Header)
(Generated by gcodetools from Inkscape.)
(Using default header. To add your own header create file "header" in the output dir.)
M3
(Header end.)
G21 (All units in mm)

(Pass at depth -1.0)
(Start cutting path id: path7630)
(Change tool to Plasma cutter)
 
G00 Z 5.0000
G00 X 372.1411 Y 199.8608
G31 Z -100.0000 F 500.0000 (f 500.0000ind metal)
G92 Z 0.0000 (z 0.0000ero z 0.0000)
G00 Z 10.0000 F 500.0000 (going up)
M03 (turn on plasma)
G04 P0.2 (pause)
G01 Z 1.0000 (going to cutting z 1.0000)
G01 Z -1.0000 F 100.0000(Penetrate)
G02 X 372.0559 Y 199.2137 Z -1.0000 I -2.5000 J 0.0000 F 400.0000
G02 X 371.8062 Y 198.6108 Z -1.0000 I -2.4148 J 0.6471
G00 Z 5.0000
M05 (turn off plasma)
(End cutting path id: path7630)

(Start cutting path id: path7628)
(Change tool to Plasma cutter)
 
G00 Z 5.0000
G00 X 371.8062 Y 198.6108
G31 Z -100.0000 F 500.0000 (f 500.0000ind metal)
G92 Z 0.0000 (z 0.0000ero z 0.0000)
G00 Z 10.0000 F 500.0000 (going up)
M03 (turn on plasma)
G04 P0.2 (pause)
G01 Z 1.0000 (going to cutting z 1.0000)
G01 Z -1.0000 F 100.0000(Penetrate)
G02 X 371.4089 Y 198.0930 Z -1.0000 I -2.1651 J 1.2500 F 400.0000
G02 X 370.8911 Y 197.6957 Z -1.0000 I -1.7678 J 1.7678
G00 Z 5.0000
M05 (turn off plasma)
(End cutting path id: path7628)

(Start cutting path id: path7626)
(Change tool to Plasma cutter)
 
G00 Z 5.0000
G00 X 370.8911 Y 197.6957
G31 Z -100.0000 F 500.0000 (f 500.0000ind metal)
G92 Z 0.0000 (z 0.0000ero z 0.0000)
G00 Z 10.0000 F 500.0000 (going up)
M03 (turn on plasma)
G04 P0.2 (pause)
G01 Z 1.0000 (going to cutting z 1.0000)
G01 Z -1.0000 F 100.0000(Penetrate)
G02 X 370.2882 Y 197.4460 Z -1.0000 I -1.2500 J 2.1651 F 400.0000
G02 X 369.6411 Y 197.3608 Z -1.0000 I -0.6471 J 2.4148
G00 Z 5.0000
M05 (turn off plasma)
(End cutting path id: path7626)

(Start cutting path id: path7624)
(Change tool to Plasma cutter)
 
G00 Z 5.0000
G00 X 369.6411 Y 197.3608
G31 Z -100.0000 F 500.0000 (f 500.0000ind metal)
G92 Z 0.0000 (z 0.0000ero z 0.0000)
G00 Z 10.0000 F 500.0000 (going up)
M03 (turn on plasma)
G04 P0.2 (pause)
G01 Z 1.0000 (going to cutting z 1.0000)
G01 Z -1.0000 F 100.0000(Penetrate)
G02 X 368.9941 Y 197.4460 Z -1.0000 I -0.0000 J 2.5000 F 400.0000
G02 X 368.3911 Y 197.6957 Z -1.0000 I 0.6470 J 2.4148
G00 Z 5.0000
M05 (turn off plasma)
(End cutting path id: path7624)

(Start cutting path id: path7622)
(Change tool to Plasma cutter)
 
G00 Z 5.0000
G00 X 368.3911 Y 197.6957
G31 Z -100.0000 F 500.0000 (f 500.0000ind metal)
G92 Z 0.0000 (z 0.0000ero z 0.0000)
G00 Z 10.0000 F 500.0000 (going up)
M03 (turn on plasma)
G04 P0.2 (pause)
G01 Z 1.0000 (going to cutting z 1.0000)
G01 Z -1.0000 F 100.0000(Penetrate)
G02 X 367.8733 Y 198.0930 Z -1.0000 I 1.2500 J 2.1651 F 400.0000
G02 X 367.4760 Y 198.6108 Z -1.0000 I 1.7678 J 1.7678
G00 Z 5.0000
M05 (turn off plasma)
(End cutting path id: path7622)

(Start cutting path id: path7620)
(Change tool to Plasma cutter)
 
G00 Z 5.0000
G00 X 367.4760 Y 198.6108
G31 Z -100.0000 F 500.0000 (f 500.0000ind metal)
G92 Z 0.0000 (z 0.0000ero z 0.0000)
G00 Z 10.0000 F 500.0000 (going up)
M03 (turn on plasma)
G04 P0.2 (pause)
G01 Z 1.0000 (going to cutting z 1.0000)
G01 Z -1.0000 F 100.0000(Penetrate)
G02 X 367.2263 Y 199.2137 Z -1.0000 I 2.1651 J 1.2500 F 400.0000
G02 X 367.1411 Y 199.8608 Z -1.0000 I 2.4148 J 0.6470
G00 Z 5.0000
M05 (turn off plasma)
(End cutting path id: path7620)

(Start cutting path id: path7618)
(Change tool to Plasma cutter)
 
G00 Z 5.0000
G00 X 367.1411 Y 199.8608
G31 Z -100.0000 F 500.0000 (f 500.0000ind metal)
G92 Z 0.0000 (z 0.0000ero z 0.0000)
G00 Z 10.0000 F 500.0000 (going up)
M03 (turn on plasma)
G04 P0.2 (pause)
G01 Z 1.0000 (going to cutting z 1.0000)
G01 Z -1.0000 F 100.0000(Penetrate)
G02 X 367.2263 Y 200.5078 Z -1.0000 I 2.5000 J 0.0000 F 400.0000
G02 X 367.4760 Y 201.1108 Z -1.0000 I 2.4148 J -0.6470
G00 Z 5.0000
M05 (turn off plasma)
(End cutting path id: path7618)

(Start cutting path id: path7616)
(Change tool to Plasma cutter)
 
G00 Z 5.0000
G00 X 367.4760 Y 201.1108
G31 Z -100.0000 F 500.0000 (f 500.0000ind metal)
G92 Z 0.0000 (z 0.0000ero z 0.0000)
G00 Z 10.0000 F 500.0000 (going up)
M03 (turn on plasma)
G04 P0.2 (pause)
G01 Z 1.0000 (going to cutting z 1.0000)
G01 Z -1.0000 F 100.0000(Penetrate)
G02 X 367.8733 Y 201.6286 Z -1.0000 I 2.1651 J -1.2500 F 400.0000
G02 X 368.3911 Y 202.0259 Z -1.0000 I 1.7678 J -1.7678
G00 Z 5.0000
M05 (turn off plasma)
(End cutting path id: path7616)

(Start cutting path id: path7614)
(Change tool to Plasma cutter)
 
G00 Z 5.0000
G00 X 368.3911 Y 202.0259
G31 Z -100.0000 F 500.0000 (f 500.0000ind metal)
G92 Z 0.0000 (z 0.0000ero z 0.0000)
G00 Z 10.0000 F 500.0000 (going up)
M03 (turn on plasma)
G04 P0.2 (pause)
G01 Z 1.0000 (going to cutting z 1.0000)
G01 Z -1.0000 F 100.0000(Penetrate)
G02 X 368.9941 Y 202.2756 Z -1.0000 I 1.2500 J -2.1651 F 400.0000
G02 X 369.6411 Y 202.3608 Z -1.0000 I 0.6470 J -2.4148
G00 Z 5.0000
M05 (turn off plasma)
(End cutting path id: path7614)

(Start cutting path id: path7612)
(Change tool to Plasma cutter)
 
G00 Z 5.0000
G00 X 369.6411 Y 202.3608
G31 Z -100.0000 F 500.0000 (f 500.0000ind metal)
G92 Z 0.0000 (z 0.0000ero z 0.0000)
G00 Z 10.0000 F 500.0000 (going up)
M03 (turn on plasma)
G04 P0.2 (pause)
G01 Z 1.0000 (going to cutting z 1.0000)
G01 Z -1.0000 F 100.0000(Penetrate)
G02 X 370.2882 Y 202.2756 Z -1.0000 I -0.0000 J -2.5000 F 400.0000
G02 X 370.8911 Y 202.0259 Z -1.0000 I -0.6471 J -2.4148
G00 Z 5.0000
M05 (turn off plasma)
(End cutting path id: path7612)

(Start cutting path id: path7610)
(Change tool to Plasma cutter)
 
G00 Z 5.0000
G00 X 370.8911 Y 202.0259
G31 Z -100.0000 F 500.0000 (f 500.0000ind metal)
G92 Z 0.0000 (z 0.0000ero z 0.0000)
G00 Z 10.0000 F 500.0000 (going up)
M03 (turn on plasma)
G04 P0.2 (pause)
G01 Z 1.0000 (going to cutting z 1.0000)
G01 Z -1.0000 F 100.0000(Penetrate)
G02 X 371.4089 Y 201.6286 Z -1.0000 I -1.2500 J -2.1651 F 400.0000
G02 X 371.8062 Y 201.1108 Z -1.0000 I -1.7678 J -1.7678
G00 Z 5.0000
M05 (turn off plasma)
(End cutting path id: path7610)

(Start cutting path id: path7608)
(Change tool to Plasma cutter)
 
G00 Z 5.0000
G00 X 371.8062 Y 201.1108
G31 Z -100.0000 F 500.0000 (f 500.0000ind metal)
G92 Z 0.0000 (z 0.0000ero z 0.0000)
G00 Z 10.0000 F 500.0000 (going up)
M03 (turn on plasma)
G04 P0.2 (pause)
G01 Z 1.0000 (going to cutting z 1.0000)
G01 Z -1.0000 F 100.0000(Penetrate)
G02 X 372.0559 Y 200.5078 Z -1.0000 I -2.1651 J -1.2500 F 400.0000
G02 X 372.1411 Y 199.8608 Z -1.0000 I -2.4148 J -0.6471
G00 Z 5.0000
M05 (turn off plasma)
(End cutting path id: path7608)

(Start cutting path id: path7604)
(Change tool to Plasma cutter)
 
G00 Z 5.0000
G00 X 415.6411 Y 199.8608
G31 Z -100.0000 F 500.0000 (f 500.0000ind metal)
G92 Z 0.0000 (z 0.0000ero z 0.0000)
G00 Z 10.0000 F 500.0000 (going up)
M03 (turn on plasma)
G04 P0.2 (pause)
G01 Z 1.0000 (going to cutting z 1.0000)
G01 Z -1.0000 F 100.0000(Penetrate)
G02 X 415.5570 Y 199.2128 Z -1.0000 I -2.5000 J -0.0050 F 400.0000
G02 X 415.3079 Y 198.6087 Z -1.0000 I -2.4159 J 0.6430
G00 Z 5.0000
M05 (turn off plasma)
(End cutting path id: path7604)

(Start cutting path id: path7602)
(Change tool to Plasma cutter)
 
G00 Z 5.0000
G00 X 415.3079 Y 198.6087
G31 Z -100.0000 F 500.0000 (f 500.0000ind metal)
G92 Z 0.0000 (z 0.0000ero z 0.0000)
G00 Z 10.0000 F 500.0000 (going up)
M03 (turn on plasma)
G04 P0.2 (pause)
G01 Z 1.0000 (going to cutting z 1.0000)
G01 Z -1.0000 F 100.0000(Penetrate)
G02 X 414.9107 Y 198.0898 Z -1.0000 I -2.1667 J 1.2471 F 400.0000
G02 X 414.3926 Y 197.6915 Z -1.0000 I -1.7696 J 1.7660
G00 Z 5.0000
M05 (turn off plasma)
(End cutting path id: path7602)

(Start cutting path id: path7600)
(Change tool to Plasma cutter)
 
G00 Z 5.0000
G00 X 414.3926 Y 197.6915
G31 Z -100.0000 F 500.0000 (f 500.0000ind metal)
G92 Z 0.0000 (z 0.0000ero z 0.0000)
G00 Z 10.0000 F 500.0000 (going up)
M03 (turn on plasma)
G04 P0.2 (pause)
G01 Z 1.0000 (going to cutting z 1.0000)
G01 Z -1.0000 F 100.0000(Penetrate)
G02 X 413.7890 Y 197.4411 Z -1.0000 I -1.2515 J 2.1642 F 400.0000
G02 X 413.1411 Y 197.3557 Z -1.0000 I -0.6479 J 2.4146
G00 Z 5.0000
M05 (turn off plasma)
(End cutting path id: path7600)

(Start cutting path id: path7598)
(Change tool to Plasma cutter)
 
G00 Z 5.0000
G00 X 413.1411 Y 197.3557
G31 Z -100.0000 F 500.0000 (f 500.0000ind metal)
G92 Z 0.0000 (z 0.0000ero z 0.0000)
G00 Z 10.0000 F 500.0000 (going up)
M03 (turn on plasma)
G04 P0.2 (pause)
G01 Z 1.0000 (going to cutting z 1.0000)
G01 Z -1.0000 F 100.0000(Penetrate)
G02 X 412.4933 Y 197.4411 Z -1.0000 I -0.0000 J 2.5000 F 400.0000
G02 X 411.8897 Y 197.6915 Z -1.0000 I 0.6479 J 2.4146
G00 Z 5.0000
M05 (turn off plasma)
(End cutting path id: path7598)

(Start cutting path id: path7596)
(Change tool to Plasma cutter)
 
G00 Z 5.0000
G00 X 411.8897 Y 197.6915
G31 Z -100.0000 F 500.0000 (f 500.0000ind metal)
G92 Z 0.0000 (z 0.0000ero z 0.0000)
G00 Z 10.0000 F 500.0000 (going up)
M03 (turn on plasma)
G04 P0.2 (pause)
G01 Z 1.0000 (going to cutting z 1.0000)
G01 Z -1.0000 F 100.0000(Penetrate)
G02 X 411.3716 Y 198.0898 Z -1.0000 I 1.2514 J 2.1642 F 400.0000
G02 X 410.9744 Y 198.6087 Z -1.0000 I 1.7695 J 1.7660
G00 Z 5.0000
M05 (turn off plasma)
(End cutting path id: path7596)

(Start cutting path id: path7594)
(Change tool to Plasma cutter)
 
G00 Z 5.0000
G00 X 410.9744 Y 198.6087
G31 Z -100.0000 F 500.0000 (f 500.0000ind metal)
G92 Z 0.0000 (z 0.0000ero z 0.0000)
G00 Z 10.0000 F 500.0000 (going up)
M03 (turn on plasma)
G04 P0.2 (pause)
G01 Z 1.0000 (going to cutting z 1.0000)
G01 Z -1.0000 F 100.0000(Penetrate)
G02 X 410.7252 Y 199.2128 Z -1.0000 I 2.1667 J 1.2471 F 400.0000
G02 X 410.6411 Y 199.8608 Z -1.0000 I 2.4159 J 0.6430
G00 Z 5.0000
M05 (turn off plasma)
(End cutting path id: path7594)

(Start cutting path id: path7592)
(Change tool to Plasma cutter)
 
G00 Z 5.0000
G00 X 410.6411 Y 199.8608
G31 Z -100.0000 F 500.0000 (f 500.0000ind metal)
G92 Z 0.0000 (z 0.0000ero z 0.0000)
G00 Z 10.0000 F 500.0000 (going up)
M03 (turn on plasma)
G04 P0.2 (pause)
G01 Z 1.0000 (going to cutting z 1.0000)
G01 Z -1.0000 F 100.0000(Penetrate)
G02 X 410.7252 Y 200.5088 Z -1.0000 I 2.5000 J 0.0051 F 400.0000
G02 X 410.9744 Y 201.1129 Z -1.0000 I 2.4159 J -0.6430
G00 Z 5.0000
M05 (turn off plasma)
(End cutting path id: path7592)

(Start cutting path id: path7590)
(Change tool to Plasma cutter)
 
G00 Z 5.0000
G00 X 410.9744 Y 201.1129
G31 Z -100.0000 F 500.0000 (f 500.0000ind metal)
G92 Z 0.0000 (z 0.0000ero z 0.0000)
G00 Z 10.0000 F 500.0000 (going up)
M03 (turn on plasma)
G04 P0.2 (pause)
G01 Z 1.0000 (going to cutting z 1.0000)
G01 Z -1.0000 F 100.0000(Penetrate)
G02 X 411.3716 Y 201.6318 Z -1.0000 I 2.1667 J -1.2471 F 400.0000
G02 X 411.8897 Y 202.0300 Z -1.0000 I 1.7695 J -1.7660
G00 Z 5.0000
M05 (turn off plasma)
(End cutting path id: path7590)

(Start cutting path id: path7588)
(Change tool to Plasma cutter)
 
G00 Z 5.0000
G00 X 411.8897 Y 202.0300
G31 Z -100.0000 F 500.0000 (f 500.0000ind metal)
G92 Z 0.0000 (z 0.0000ero z 0.0000)
G00 Z 10.0000 F 500.0000 (going up)
M03 (turn on plasma)
G04 P0.2 (pause)
G01 Z 1.0000 (going to cutting z 1.0000)
G01 Z -1.0000 F 100.0000(Penetrate)
G02 X 412.4933 Y 202.2804 Z -1.0000 I 1.2515 J -2.1642 F 400.0000
G02 X 413.1411 Y 202.3658 Z -1.0000 I 0.6479 J -2.4146
G00 Z 5.0000
M05 (turn off plasma)
(End cutting path id: path7588)

(Start cutting path id: path7586)
(Change tool to Plasma cutter)
 
G00 Z 5.0000
G00 X 413.1411 Y 202.3658
G31 Z -100.0000 F 500.0000 (f 500.0000ind metal)
G92 Z 0.0000 (z 0.0000ero z 0.0000)
G00 Z 10.0000 F 500.0000 (going up)
M03 (turn on plasma)
G04 P0.2 (pause)
G01 Z 1.0000 (going to cutting z 1.0000)
G01 Z -1.0000 F 100.0000(Penetrate)
G02 X 413.7890 Y 202.2804 Z -1.0000 I 0.0000 J -2.5000 F 400.0000
G02 X 414.3926 Y 202.0300 Z -1.0000 I -0.6479 J -2.4146
G00 Z 5.0000
M05 (turn off plasma)
(End cutting path id: path7586)

(Start cutting path id: path7584)
(Change tool to Plasma cutter)
 
G00 Z 5.0000
G00 X 414.3926 Y 202.0300
G31 Z -100.0000 F 500.0000 (f 500.0000ind metal)
G92 Z 0.0000 (z 0.0000ero z 0.0000)
G00 Z 10.0000 F 500.0000 (going up)
M03 (turn on plasma)
G04 P0.2 (pause)
G01 Z 1.0000 (going to cutting z 1.0000)
G01 Z -1.0000 F 100.0000(Penetrate)
G02 X 414.9107 Y 201.6318 Z -1.0000 I -1.2515 J -2.1642 F 400.0000
G02 X 415.3079 Y 201.1129 Z -1.0000 I -1.7696 J -1.7660
G00 Z 5.0000
M05 (turn off plasma)
(End cutting path id: path7584)

(Start cutting path id: path7582)
(Change tool to Plasma cutter)
 
G00 Z 5.0000
G00 X 415.3079 Y 201.1129
G31 Z -100.0000 F 500.0000 (f 500.0000ind metal)
G92 Z 0.0000 (z 0.0000ero z 0.0000)
G00 Z 10.0000 F 500.0000 (going up)
M03 (turn on plasma)
G04 P0.2 (pause)
G01 Z 1.0000 (going to cutting z 1.0000)
G01 Z -1.0000 F 100.0000(Penetrate)
G02 X 415.5570 Y 200.5088 Z -1.0000 I -2.1667 J -1.2471 F 400.0000
G02 X 415.6411 Y 199.8608 Z -1.0000 I -2.4159 J -0.6430
G00 Z 5.0000
M05 (turn off plasma)
(End cutting path id: path7582)

(Start cutting path id: path7580)
(Change tool to Plasma cutter)
 
G00 Z 5.0000
G00 X 232.6411 Y 145.0009
G31 Z -100.0000 F 500.0000 (f 500.0000ind metal)
G92 Z 0.0000 (z 0.0000ero z 0.0000)
G00 Z 10.0000 F 500.0000 (going up)
M03 (turn on plasma)
G04 P0.2 (pause)
G01 Z 1.0000 (going to cutting z 1.0000)
G01 Z -1.0000 F 100.0000(Penetrate)
G02 X 241.6998 Y 143.8083 Z -1.0000 I -0.0000 J -35.0000 F 400.0000
G02 X 250.1411 Y 140.3118 Z -1.0000 I -9.0587 J -33.8074
G00 Z 5.0000
M05 (turn off plasma)
(End cutting path id: path7580)

(Start cutting path id: path7578)
(Change tool to Plasma cutter)
 
G00 Z 5.0000
G00 X 250.1411 Y 140.3118
G31 Z -100.0000 F 500.0000 (f 500.0000ind metal)
G92 Z 0.0000 (z 0.0000ero z 0.0000)
G00 Z 10.0000 F 500.0000 (going up)
M03 (turn on plasma)
G04 P0.2 (pause)
G01 Z 1.0000 (going to cutting z 1.0000)
G01 Z -1.0000 F 100.0000(Penetrate)
G02 X 257.3899 Y 134.7497 Z -1.0000 I -17.5000 J -30.3109 F 400.0000
G02 X 262.9520 Y 127.5009 Z -1.0000 I -24.7487 J -24.7487
G00 Z 5.0000
M05 (turn off plasma)
(End cutting path id: path7578)

(Start cutting path id: path7576)
(Change tool to Plasma cutter)
 
G00 Z 5.0000
G00 X 262.9520 Y 127.5009
G31 Z -100.0000 F 500.0000 (f 500.0000ind metal)
G92 Z 0.0000 (z 0.0000ero z 0.0000)
G00 Z 10.0000 F 500.0000 (going up)
M03 (turn on plasma)
G04 P0.2 (pause)
G01 Z 1.0000 (going to cutting z 1.0000)
G01 Z -1.0000 F 100.0000(Penetrate)
G02 X 266.4485 Y 119.0596 Z -1.0000 I -30.3109 J -17.5000 F 400.0000
G02 X 267.6411 Y 110.0009 Z -1.0000 I -33.8074 J -9.0587
G00 Z 5.0000
M05 (turn off plasma)
(End cutting path id: path7576)

(Start cutting path id: path7574)
(Change tool to Plasma cutter)
 
G00 Z 5.0000
G00 X 267.6411 Y 110.0009
G31 Z -100.0000 F 500.0000 (f 500.0000ind metal)
G92 Z 0.0000 (z 0.0000ero z 0.0000)
G00 Z 10.0000 F 500.0000 (going up)
M03 (turn on plasma)
G04 P0.2 (pause)
G01 Z 1.0000 (going to cutting z 1.0000)
G01 Z -1.0000 F 100.0000(Penetrate)
G02 X 266.4485 Y 100.9423 Z -1.0000 I -35.0000 J -0.0000 F 400.0000
G02 X 262.9520 Y 92.5009 Z -1.0000 I -33.8074 J 9.0587
G00 Z 5.0000
M05 (turn off plasma)
(End cutting path id: path7574)

(Start cutting path id: path7572)
(Change tool to Plasma cutter)
 
G00 Z 5.0000
G00 X 262.9520 Y 92.5009
G31 Z -100.0000 F 500.0000 (f 500.0000ind metal)
G92 Z 0.0000 (z 0.0000ero z 0.0000)
G00 Z 10.0000 F 500.0000 (going up)
M03 (turn on plasma)
G04 P0.2 (pause)
G01 Z 1.0000 (going to cutting z 1.0000)
G01 Z -1.0000 F 100.0000(Penetrate)
G02 X 257.3899 Y 85.2522 Z -1.0000 I -30.3109 J 17.5000 F 400.0000
G02 X 250.1411 Y 79.6900 Z -1.0000 I -24.7487 J 24.7487
G00 Z 5.0000
M05 (turn off plasma)
(End cutting path id: path7572)

(Start cutting path id: path7570)
(Change tool to Plasma cutter)
 
G00 Z 5.0000
G00 X 250.1411 Y 79.6900
G31 Z -100.0000 F 500.0000 (f 500.0000ind metal)
G92 Z 0.0000 (z 0.0000ero z 0.0000)
G00 Z 10.0000 F 500.0000 (going up)
M03 (turn on plasma)
G04 P0.2 (pause)
G01 Z 1.0000 (going to cutting z 1.0000)
G01 Z -1.0000 F 100.0000(Penetrate)
G02 X 241.6998 Y 76.1935 Z -1.0000 I -17.5000 J 30.3109 F 400.0000
G02 X 232.6411 Y 75.0009 Z -1.0000 I -9.0587 J 33.8074
G00 Z 5.0000
M05 (turn off plasma)
(End cutting path id: path7570)

(Start cutting path id: path7566)
(Change tool to Plasma cutter)
 
G00 Z 5.0000
G00 X 127.6411 Y 75.0009
G31 Z -100.0000 F 500.0000 (f 500.0000ind metal)
G92 Z 0.0000 (z 0.0000ero z 0.0000)
G00 Z 10.0000 F 500.0000 (going up)
M03 (turn on plasma)
G04 P0.2 (pause)
G01 Z 1.0000 (going to cutting z 1.0000)
G01 Z -1.0000 F 100.0000(Penetrate)
G02 X 118.5824 Y 76.1935 Z -1.0000 I -0.0000 J 35.0000 F 400.0000
G02 X 110.1411 Y 79.6900 Z -1.0000 I 9.0587 J 33.8074
G00 Z 5.0000
M05 (turn off plasma)
(End cutting path id: path7566)

(Start cutting path id: path7564)
(Change tool to Plasma cutter)
 
G00 Z 5.0000
G00 X 110.1411 Y 79.6900
G31 Z -100.0000 F 500.0000 (f 500.0000ind metal)
G92 Z 0.0000 (z 0.0000ero z 0.0000)
G00 Z 10.0000 F 500.0000 (going up)
M03 (turn on plasma)
G04 P0.2 (pause)
G01 Z 1.0000 (going to cutting z 1.0000)
G01 Z -1.0000 F 100.0000(Penetrate)
G02 X 102.8924 Y 85.2522 Z -1.0000 I 17.5000 J 30.3109 F 400.0000
G02 X 97.3302 Y 92.5009 Z -1.0000 I 24.7487 J 24.7487
G00 Z 5.0000
M05 (turn off plasma)
(End cutting path id: path7564)

(Start cutting path id: path7562)
(Change tool to Plasma cutter)
 
G00 Z 5.0000
G00 X 97.3302 Y 92.5009
G31 Z -100.0000 F 500.0000 (f 500.0000ind metal)
G92 Z 0.0000 (z 0.0000ero z 0.0000)
G00 Z 10.0000 F 500.0000 (going up)
M03 (turn on plasma)
G04 P0.2 (pause)
G01 Z 1.0000 (going to cutting z 1.0000)
G01 Z -1.0000 F 100.0000(Penetrate)
G02 X 93.8337 Y 100.9423 Z -1.0000 I 30.3109 J 17.5000 F 400.0000
G02 X 92.6411 Y 110.0009 Z -1.0000 I 33.8074 J 9.0587
G00 Z 5.0000
M05 (turn off plasma)
(End cutting path id: path7562)

(Start cutting path id: path7560)
(Change tool to Plasma cutter)
 
G00 Z 5.0000
G00 X 92.6411 Y 110.0009
G31 Z -100.0000 F 500.0000 (f 500.0000ind metal)
G92 Z 0.0000 (z 0.0000ero z 0.0000)
G00 Z 10.0000 F 500.0000 (going up)
M03 (turn on plasma)
G04 P0.2 (pause)
G01 Z 1.0000 (going to cutting z 1.0000)
G01 Z -1.0000 F 100.0000(Penetrate)
G02 X 93.8337 Y 119.0596 Z -1.0000 I 35.0000 J -0.0000 F 400.0000
G02 X 97.3302 Y 127.5009 Z -1.0000 I 33.8074 J -9.0587
G00 Z 5.0000
M05 (turn off plasma)
(End cutting path id: path7560)

(Start cutting path id: path7558)
(Change tool to Plasma cutter)
 
G00 Z 5.0000
G00 X 97.3302 Y 127.5009
G31 Z -100.0000 F 500.0000 (f 500.0000ind metal)
G92 Z 0.0000 (z 0.0000ero z 0.0000)
G00 Z 10.0000 F 500.0000 (going up)
M03 (turn on plasma)
G04 P0.2 (pause)
G01 Z 1.0000 (going to cutting z 1.0000)
G01 Z -1.0000 F 100.0000(Penetrate)
G02 X 102.8924 Y 134.7497 Z -1.0000 I 30.3109 J -17.5000 F 400.0000
G02 X 110.1411 Y 140.3118 Z -1.0000 I 24.7487 J -24.7487
G00 Z 5.0000
M05 (turn off plasma)
(End cutting path id: path7558)

(Start cutting path id: path7556)
(Change tool to Plasma cutter)
 
G00 Z 5.0000
G00 X 110.1411 Y 140.3118
G31 Z -100.0000 F 500.0000 (f 500.0000ind metal)
G92 Z 0.0000 (z 0.0000ero z 0.0000)
G00 Z 10.0000 F 500.0000 (going up)
M03 (turn on plasma)
G04 P0.2 (pause)
G01 Z 1.0000 (going to cutting z 1.0000)
G01 Z -1.0000 F 100.0000(Penetrate)
G02 X 118.5824 Y 143.8083 Z -1.0000 I 17.5000 J -30.3109 F 400.0000
G02 X 127.6411 Y 145.0009 Z -1.0000 I 9.0587 J -33.8074
G00 Z 5.0000
M05 (turn off plasma)
(End cutting path id: path7556)

(Start cutting path id: path7550)
(Change tool to Plasma cutter)
 
G00 Z 5.0000
G00 X 387.6411 Y 110.0009
G31 Z -100.0000 F 500.0000 (f 500.0000ind metal)
G92 Z 0.0000 (z 0.0000ero z 0.0000)
G00 Z 10.0000 F 500.0000 (going up)
M03 (turn on plasma)
G04 P0.2 (pause)
G01 Z 1.0000 (going to cutting z 1.0000)
G01 Z -1.0000 F 100.0000(Penetrate)
G02 X 386.4485 Y 100.9423 Z -1.0000 I -35.0000 J 0.0000 F 400.0000
G02 X 382.9520 Y 92.5009 Z -1.0000 I -33.8074 J 9.0587
G00 Z 5.0000
M05 (turn off plasma)
(End cutting path id: path7550)

(Start cutting path id: path7548)
(Change tool to Plasma cutter)
 
G00 Z 5.0000
G00 X 382.9520 Y 92.5009
G31 Z -100.0000 F 500.0000 (f 500.0000ind metal)
G92 Z 0.0000 (z 0.0000ero z 0.0000)
G00 Z 10.0000 F 500.0000 (going up)
M03 (turn on plasma)
G04 P0.2 (pause)
G01 Z 1.0000 (going to cutting z 1.0000)
G01 Z -1.0000 F 100.0000(Penetrate)
G02 X 377.3898 Y 85.2522 Z -1.0000 I -30.3109 J 17.5000 F 400.0000
G02 X 370.1411 Y 79.6901 Z -1.0000 I -24.7487 J 24.7487
G00 Z 5.0000
M05 (turn off plasma)
(End cutting path id: path7548)

(Start cutting path id: path7546)
(Change tool to Plasma cutter)
 
G00 Z 5.0000
G00 X 370.1411 Y 79.6901
G31 Z -100.0000 F 500.0000 (f 500.0000ind metal)
G92 Z 0.0000 (z 0.0000ero z 0.0000)
G00 Z 10.0000 F 500.0000 (going up)
M03 (turn on plasma)
G04 P0.2 (pause)
G01 Z 1.0000 (going to cutting z 1.0000)
G01 Z -1.0000 F 100.0000(Penetrate)
G02 X 361.6998 Y 76.1935 Z -1.0000 I -17.5000 J 30.3109 F 400.0000
G02 X 352.6411 Y 75.0009 Z -1.0000 I -9.0587 J 33.8074
G00 Z 5.0000
M05 (turn off plasma)
(End cutting path id: path7546)

(Start cutting path id: path7544)
(Change tool to Plasma cutter)
 
G00 Z 5.0000
G00 X 352.6411 Y 75.0009
G31 Z -100.0000 F 500.0000 (f 500.0000ind metal)
G92 Z 0.0000 (z 0.0000ero z 0.0000)
G00 Z 10.0000 F 500.0000 (going up)
M03 (turn on plasma)
G04 P0.2 (pause)
G01 Z 1.0000 (going to cutting z 1.0000)
G01 Z -1.0000 F 100.0000(Penetrate)
G02 X 343.5824 Y 76.1935 Z -1.0000 I 0.0000 J 35.0000 F 400.0000
G02 X 335.1411 Y 79.6901 Z -1.0000 I 9.0587 J 33.8074
G00 Z 5.0000
M05 (turn off plasma)
(End cutting path id: path7544)

(Start cutting path id: path7542)
(Change tool to Plasma cutter)
 
G00 Z 5.0000
G00 X 335.1411 Y 79.6901
G31 Z -100.0000 F 500.0000 (f 500.0000ind metal)
G92 Z 0.0000 (z 0.0000ero z 0.0000)
G00 Z 10.0000 F 500.0000 (going up)
M03 (turn on plasma)
G04 P0.2 (pause)
G01 Z 1.0000 (going to cutting z 1.0000)
G01 Z -1.0000 F 100.0000(Penetrate)
G02 X 327.8924 Y 85.2522 Z -1.0000 I 17.5000 J 30.3109 F 400.0000
G02 X 322.3302 Y 92.5009 Z -1.0000 I 24.7487 J 24.7487
G00 Z 5.0000
M05 (turn off plasma)
(End cutting path id: path7542)

(Start cutting path id: path7540)
(Change tool to Plasma cutter)
 
G00 Z 5.0000
G00 X 322.3302 Y 92.5009
G31 Z -100.0000 F 500.0000 (f 500.0000ind metal)
G92 Z 0.0000 (z 0.0000ero z 0.0000)
G00 Z 10.0000 F 500.0000 (going up)
M03 (turn on plasma)
G04 P0.2 (pause)
G01 Z 1.0000 (going to cutting z 1.0000)
G01 Z -1.0000 F 100.0000(Penetrate)
G02 X 318.8337 Y 100.9423 Z -1.0000 I 30.3109 J 17.5000 F 400.0000
G02 X 317.6411 Y 110.0009 Z -1.0000 I 33.8074 J 9.0587
G00 Z 5.0000
M05 (turn off plasma)
(End cutting path id: path7540)

(Start cutting path id: path7538)
(Change tool to Plasma cutter)
 
G00 Z 5.0000
G00 X 317.6411 Y 110.0009
G31 Z -100.0000 F 500.0000 (f 500.0000ind metal)
G92 Z 0.0000 (z 0.0000ero z 0.0000)
G00 Z 10.0000 F 500.0000 (going up)
M03 (turn on plasma)
G04 P0.2 (pause)
G01 Z 1.0000 (going to cutting z 1.0000)
G01 Z -1.0000 F 100.0000(Penetrate)
G02 X 318.8337 Y 119.0596 Z -1.0000 I 35.0000 J -0.0000 F 400.0000
G02 X 322.3302 Y 127.5009 Z -1.0000 I 33.8074 J -9.0587
G00 Z 5.0000
M05 (turn off plasma)
(End cutting path id: path7538)

(Start cutting path id: path7536)
(Change tool to Plasma cutter)
 
G00 Z 5.0000
G00 X 322.3302 Y 127.5009
G31 Z -100.0000 F 500.0000 (f 500.0000ind metal)
G92 Z 0.0000 (z 0.0000ero z 0.0000)
G00 Z 10.0000 F 500.0000 (going up)
M03 (turn on plasma)
G04 P0.2 (pause)
G01 Z 1.0000 (going to cutting z 1.0000)
G01 Z -1.0000 F 100.0000(Penetrate)
G02 X 327.8924 Y 134.7497 Z -1.0000 I 30.3109 J -17.5000 F 400.0000
G02 X 335.1411 Y 140.3118 Z -1.0000 I 24.7487 J -24.7487
G00 Z 5.0000
M05 (turn off plasma)
(End cutting path id: path7536)

(Start cutting path id: path7534)
(Change tool to Plasma cutter)
 
G00 Z 5.0000
G00 X 335.1411 Y 140.3118
G31 Z -100.0000 F 500.0000 (f 500.0000ind metal)
G92 Z 0.0000 (z 0.0000ero z 0.0000)
G00 Z 10.0000 F 500.0000 (going up)
M03 (turn on plasma)
G04 P0.2 (pause)
G01 Z 1.0000 (going to cutting z 1.0000)
G01 Z -1.0000 F 100.0000(Penetrate)
G02 X 343.5824 Y 143.8083 Z -1.0000 I 17.5000 J -30.3109 F 400.0000
G02 X 352.6411 Y 145.0009 Z -1.0000 I 9.0587 J -33.8074
G00 Z 5.0000
M05 (turn off plasma)
(End cutting path id: path7534)

(Start cutting path id: path7532)
(Change tool to Plasma cutter)
 
G00 Z 5.0000
G00 X 352.6411 Y 145.0009
G31 Z -100.0000 F 500.0000 (f 500.0000ind metal)
G92 Z 0.0000 (z 0.0000ero z 0.0000)
G00 Z 10.0000 F 500.0000 (going up)
M03 (turn on plasma)
G04 P0.2 (pause)
G01 Z 1.0000 (going to cutting z 1.0000)
G01 Z -1.0000 F 100.0000(Penetrate)
G02 X 361.6998 Y 143.8083 Z -1.0000 I 0.0000 J -35.0000 F 400.0000
G02 X 370.1411 Y 140.3118 Z -1.0000 I -9.0587 J -33.8074
G00 Z 5.0000
M05 (turn off plasma)
(End cutting path id: path7532)

(Start cutting path id: path7530)
(Change tool to Plasma cutter)
 
G00 Z 5.0000
G00 X 370.1411 Y 140.3118
G31 Z -100.0000 F 500.0000 (f 500.0000ind metal)
G92 Z 0.0000 (z 0.0000ero z 0.0000)
G00 Z 10.0000 F 500.0000 (going up)
M03 (turn on plasma)
G04 P0.2 (pause)
G01 Z 1.0000 (going to cutting z 1.0000)
G01 Z -1.0000 F 100.0000(Penetrate)
G02 X 377.3898 Y 134.7497 Z -1.0000 I -17.5000 J -30.3109 F 400.0000
G02 X 382.9520 Y 127.5009 Z -1.0000 I -24.7487 J -24.7487
G00 Z 5.0000
M05 (turn off plasma)
(End cutting path id: path7530)

(Start cutting path id: path7528)
(Change tool to Plasma cutter)
 
G00 Z 5.0000
G00 X 382.9520 Y 127.5009
G31 Z -100.0000 F 500.0000 (f 500.0000ind metal)
G92 Z 0.0000 (z 0.0000ero z 0.0000)
G00 Z 10.0000 F 500.0000 (going up)
M03 (turn on plasma)
G04 P0.2 (pause)
G01 Z 1.0000 (going to cutting z 1.0000)
G01 Z -1.0000 F 100.0000(Penetrate)
G02 X 386.4485 Y 119.0596 Z -1.0000 I -30.3109 J -17.5000 F 400.0000
G02 X 387.6411 Y 110.0009 Z -1.0000 I -33.8074 J -9.0587
G00 Z 5.0000
M05 (turn off plasma)
(End cutting path id: path7528)

(Start cutting path id: path7524)
(Change tool to Plasma cutter)
 
G00 Z 5.0000
G00 X 373.8911 Y 160.0010
G31 Z -100.0000 F 500.0000 (f 500.0000ind metal)
G92 Z 0.0000 (z 0.0000ero z 0.0000)
G00 Z 10.0000 F 500.0000 (going up)
M03 (turn on plasma)
G04 P0.2 (pause)
G01 Z 1.0000 (going to cutting z 1.0000)
G01 Z -1.0000 F 100.0000(Penetrate)
G02 X 373.6799 Y 158.3817 Z -1.0000 I -6.2500 J -0.0082 F 400.0000
G02 X 373.0565 Y 156.8725 Z -1.0000 I -6.0388 J 1.6110
G00 Z 5.0000
M05 (turn off plasma)
(End cutting path id: path7524)

(Start cutting path id: path7522)
(Change tool to Plasma cutter)
 
G00 Z 5.0000
G00 X 373.0565 Y 156.8725
G31 Z -100.0000 F 500.0000 (f 500.0000ind metal)
G92 Z 0.0000 (z 0.0000ero z 0.0000)
G00 Z 10.0000 F 500.0000 (going up)
M03 (turn on plasma)
G04 P0.2 (pause)
G01 Z 1.0000 (going to cutting z 1.0000)
G01 Z -1.0000 F 100.0000(Penetrate)
G02 X 372.0634 Y 155.5762 Z -1.0000 I -5.4154 J 3.1203 F 400.0000
G02 X 370.7685 Y 154.5815 Z -1.0000 I -4.4223 J 4.4165
G00 Z 5.0000
M05 (turn off plasma)
(End cutting path id: path7522)

(Start cutting path id: path7520)
(Change tool to Plasma cutter)
 
G00 Z 5.0000
G00 X 370.7685 Y 154.5815
G31 Z -100.0000 F 500.0000 (f 500.0000ind metal)
G92 Z 0.0000 (z 0.0000ero z 0.0000)
G00 Z 10.0000 F 500.0000 (going up)
M03 (turn on plasma)
G04 P0.2 (pause)
G01 Z 1.0000 (going to cutting z 1.0000)
G01 Z -1.0000 F 100.0000(Penetrate)
G02 X 369.2600 Y 153.9561 Z -1.0000 I -3.1274 J 5.4113 F 400.0000
G02 X 367.6411 Y 153.7428 Z -1.0000 I -1.6189 J 6.0367
G00 Z 5.0000
M05 (turn off plasma)
(End cutting path id: path7520)

(Start cutting path id: path7518)
(Change tool to Plasma cutter)
 
G00 Z 5.0000
G00 X 367.6411 Y 153.7428
G31 Z -100.0000 F 500.0000 (f 500.0000ind metal)
G92 Z 0.0000 (z 0.0000ero z 0.0000)
G00 Z 10.0000 F 500.0000 (going up)
M03 (turn on plasma)
G04 P0.2 (pause)
G01 Z 1.0000 (going to cutting z 1.0000)
G01 Z -1.0000 F 100.0000(Penetrate)
G02 X 366.0222 Y 153.9561 Z -1.0000 I 0.0000 J 6.2500 F 400.0000
G02 X 364.5137 Y 154.5815 Z -1.0000 I 1.6189 J 6.0367
G00 Z 5.0000
M05 (turn off plasma)
(End cutting path id: path7518)

(Start cutting path id: path7516)
(Change tool to Plasma cutter)
 
G00 Z 5.0000
G00 X 364.5137 Y 154.5815
G31 Z -100.0000 F 500.0000 (f 500.0000ind metal)
G92 Z 0.0000 (z 0.0000ero z 0.0000)
G00 Z 10.0000 F 500.0000 (going up)
M03 (turn on plasma)
G04 P0.2 (pause)
G01 Z 1.0000 (going to cutting z 1.0000)
G01 Z -1.0000 F 100.0000(Penetrate)
G02 X 363.2188 Y 155.5762 Z -1.0000 I 3.1274 J 5.4113 F 400.0000
G02 X 362.2257 Y 156.8725 Z -1.0000 I 4.4223 J 4.4165
G00 Z 5.0000
M05 (turn off plasma)
(End cutting path id: path7516)

(Start cutting path id: path7514)
(Change tool to Plasma cutter)
 
G00 Z 5.0000
G00 X 362.2257 Y 156.8725
G31 Z -100.0000 F 500.0000 (f 500.0000ind metal)
G92 Z 0.0000 (z 0.0000ero z 0.0000)
G00 Z 10.0000 F 500.0000 (going up)
M03 (turn on plasma)
G04 P0.2 (pause)
G01 Z 1.0000 (going to cutting z 1.0000)
G01 Z -1.0000 F 100.0000(Penetrate)
G02 X 361.6023 Y 158.3817 Z -1.0000 I 5.4154 J 3.1203 F 400.0000
G02 X 361.3911 Y 160.0010 Z -1.0000 I 6.0388 J 1.6110
G00 Z 5.0000
M05 (turn off plasma)
(End cutting path id: path7514)

(Start cutting path id: path7512)
(Change tool to Plasma cutter)
 
G00 Z 5.0000
G00 X 361.3911 Y 160.0009
G31 Z -100.0000 F 500.0000 (f 500.0000ind metal)
G92 Z 0.0000 (z 0.0000ero z 0.0000)
G00 Z 10.0000 F 500.0000 (going up)
M03 (turn on plasma)
G04 P0.2 (pause)
G01 Z 1.0000 (going to cutting z 1.0000)
G01 Z -1.0000 F 100.0000(Penetrate)
G02 X 361.6023 Y 161.6202 Z -1.0000 I 6.2500 J 0.0082 F 400.0000
G02 X 362.2257 Y 163.1294 Z -1.0000 I 6.0388 J -1.6110
G00 Z 5.0000
M05 (turn off plasma)
(End cutting path id: path7512)

(Start cutting path id: path7510)
(Change tool to Plasma cutter)
 
G00 Z 5.0000
G00 X 362.2257 Y 163.1294
G31 Z -100.0000 F 500.0000 (f 500.0000ind metal)
G92 Z 0.0000 (z 0.0000ero z 0.0000)
G00 Z 10.0000 F 500.0000 (going up)
M03 (turn on plasma)
G04 P0.2 (pause)
G01 Z 1.0000 (going to cutting z 1.0000)
G01 Z -1.0000 F 100.0000(Penetrate)
G02 X 363.2188 Y 164.4257 Z -1.0000 I 5.4154 J -3.1203 F 400.0000
G02 X 364.5137 Y 165.4204 Z -1.0000 I 4.4223 J -4.4165
G00 Z 5.0000
M05 (turn off plasma)
(End cutting path id: path7510)

(Start cutting path id: path7508)
(Change tool to Plasma cutter)
 
G00 Z 5.0000
G00 X 364.5137 Y 165.4204
G31 Z -100.0000 F 500.0000 (f 500.0000ind metal)
G92 Z 0.0000 (z 0.0000ero z 0.0000)
G00 Z 10.0000 F 500.0000 (going up)
M03 (turn on plasma)
G04 P0.2 (pause)
G01 Z 1.0000 (going to cutting z 1.0000)
G01 Z -1.0000 F 100.0000(Penetrate)
G02 X 366.0222 Y 166.0458 Z -1.0000 I 3.1274 J -5.4113 F 400.0000
G02 X 367.6411 Y 166.2591 Z -1.0000 I 1.6189 J -6.0367
G00 Z 5.0000
M05 (turn off plasma)
(End cutting path id: path7508)

(Start cutting path id: path7506)
(Change tool to Plasma cutter)
 
G00 Z 5.0000
G00 X 367.6411 Y 166.2591
G31 Z -100.0000 F 500.0000 (f 500.0000ind metal)
G92 Z 0.0000 (z 0.0000ero z 0.0000)
G00 Z 10.0000 F 500.0000 (going up)
M03 (turn on plasma)
G04 P0.2 (pause)
G01 Z 1.0000 (going to cutting z 1.0000)
G01 Z -1.0000 F 100.0000(Penetrate)
G02 X 369.2600 Y 166.0458 Z -1.0000 I -0.0000 J -6.2500 F 400.0000
G02 X 370.7685 Y 165.4204 Z -1.0000 I -1.6189 J -6.0367
G00 Z 5.0000
M05 (turn off plasma)
(End cutting path id: path7506)

(Start cutting path id: path7504)
(Change tool to Plasma cutter)
 
G00 Z 5.0000
G00 X 370.7685 Y 165.4204
G31 Z -100.0000 F 500.0000 (f 500.0000ind metal)
G92 Z 0.0000 (z 0.0000ero z 0.0000)
G00 Z 10.0000 F 500.0000 (going up)
M03 (turn on plasma)
G04 P0.2 (pause)
G01 Z 1.0000 (going to cutting z 1.0000)
G01 Z -1.0000 F 100.0000(Penetrate)
G02 X 372.0634 Y 164.4257 Z -1.0000 I -3.1273 J -5.4113 F 400.0000
G02 X 373.0565 Y 163.1294 Z -1.0000 I -4.4223 J -4.4165
G00 Z 5.0000
M05 (turn off plasma)
(End cutting path id: path7504)

(Start cutting path id: path7502)
(Change tool to Plasma cutter)
 
G00 Z 5.0000
G00 X 373.0565 Y 163.1294
G31 Z -100.0000 F 500.0000 (f 500.0000ind metal)
G92 Z 0.0000 (z 0.0000ero z 0.0000)
G00 Z 10.0000 F 500.0000 (going up)
M03 (turn on plasma)
G04 P0.2 (pause)
G01 Z 1.0000 (going to cutting z 1.0000)
G01 Z -1.0000 F 100.0000(Penetrate)
G02 X 373.6799 Y 161.6202 Z -1.0000 I -5.4154 J -3.1202 F 400.0000
G02 X 373.8911 Y 160.0009 Z -1.0000 I -6.0388 J -1.6110
G00 Z 5.0000
M05 (turn off plasma)
(End cutting path id: path7502)

(Start cutting path id: path7498)
(Change tool to Plasma cutter)
 
G00 Z 5.0000
G00 X 373.8911 Y 60.0009
G31 Z -100.0000 F 500.0000 (f 500.0000ind metal)
G92 Z 0.0000 (z 0.0000ero z 0.0000)
G00 Z 10.0000 F 500.0000 (going up)
M03 (turn on plasma)
G04 P0.2 (pause)
G01 Z 1.0000 (going to cutting z 1.0000)
G01 Z -1.0000 F 100.0000(Penetrate)
G02 X 373.6799 Y 58.3817 Z -1.0000 I -6.2500 J -0.0082 F 400.0000
G02 X 373.0565 Y 56.8725 Z -1.0000 I -6.0388 J 1.6110
G00 Z 5.0000
M05 (turn off plasma)
(End cutting path id: path7498)

(Start cutting path id: path7496)
(Change tool to Plasma cutter)
 
G00 Z 5.0000
G00 X 373.0565 Y 56.8725
G31 Z -100.0000 F 500.0000 (f 500.0000ind metal)
G92 Z 0.0000 (z 0.0000ero z 0.0000)
G00 Z 10.0000 F 500.0000 (going up)
M03 (turn on plasma)
G04 P0.2 (pause)
G01 Z 1.0000 (going to cutting z 1.0000)
G01 Z -1.0000 F 100.0000(Penetrate)
G02 X 372.0634 Y 55.5762 Z -1.0000 I -5.4154 J 3.1203 F 400.0000
G02 X 370.7685 Y 54.5814 Z -1.0000 I -4.4223 J 4.4165
G00 Z 5.0000
M05 (turn off plasma)
(End cutting path id: path7496)

(Start cutting path id: path7494)
(Change tool to Plasma cutter)
 
G00 Z 5.0000
G00 X 370.7685 Y 54.5814
G31 Z -100.0000 F 500.0000 (f 500.0000ind metal)
G92 Z 0.0000 (z 0.0000ero z 0.0000)
G00 Z 10.0000 F 500.0000 (going up)
M03 (turn on plasma)
G04 P0.2 (pause)
G01 Z 1.0000 (going to cutting z 1.0000)
G01 Z -1.0000 F 100.0000(Penetrate)
G02 X 369.2600 Y 53.9561 Z -1.0000 I -3.1274 J 5.4113 F 400.0000
G02 X 367.6411 Y 53.7427 Z -1.0000 I -1.6189 J 6.0367
G00 Z 5.0000
M05 (turn off plasma)
(End cutting path id: path7494)

(Start cutting path id: path7492)
(Change tool to Plasma cutter)
 
G00 Z 5.0000
G00 X 367.6411 Y 53.7427
G31 Z -100.0000 F 500.0000 (f 500.0000ind metal)
G92 Z 0.0000 (z 0.0000ero z 0.0000)
G00 Z 10.0000 F 500.0000 (going up)
M03 (turn on plasma)
G04 P0.2 (pause)
G01 Z 1.0000 (going to cutting z 1.0000)
G01 Z -1.0000 F 100.0000(Penetrate)
G02 X 366.0222 Y 53.9561 Z -1.0000 I 0.0000 J 6.2500 F 400.0000
G02 X 364.5137 Y 54.5814 Z -1.0000 I 1.6189 J 6.0367
G00 Z 5.0000
M05 (turn off plasma)
(End cutting path id: path7492)

(Start cutting path id: path7490)
(Change tool to Plasma cutter)
 
G00 Z 5.0000
G00 X 364.5137 Y 54.5814
G31 Z -100.0000 F 500.0000 (f 500.0000ind metal)
G92 Z 0.0000 (z 0.0000ero z 0.0000)
G00 Z 10.0000 F 500.0000 (going up)
M03 (turn on plasma)
G04 P0.2 (pause)
G01 Z 1.0000 (going to cutting z 1.0000)
G01 Z -1.0000 F 100.0000(Penetrate)
G02 X 363.2188 Y 55.5762 Z -1.0000 I 3.1274 J 5.4113 F 400.0000
G02 X 362.2257 Y 56.8725 Z -1.0000 I 4.4223 J 4.4165
G00 Z 5.0000
M05 (turn off plasma)
(End cutting path id: path7490)

(Start cutting path id: path7488)
(Change tool to Plasma cutter)
 
G00 Z 5.0000
G00 X 362.2257 Y 56.8725
G31 Z -100.0000 F 500.0000 (f 500.0000ind metal)
G92 Z 0.0000 (z 0.0000ero z 0.0000)
G00 Z 10.0000 F 500.0000 (going up)
M03 (turn on plasma)
G04 P0.2 (pause)
G01 Z 1.0000 (going to cutting z 1.0000)
G01 Z -1.0000 F 100.0000(Penetrate)
G02 X 361.6023 Y 58.3817 Z -1.0000 I 5.4154 J 3.1203 F 400.0000
G02 X 361.3911 Y 60.0009 Z -1.0000 I 6.0388 J 1.6110
G00 Z 5.0000
M05 (turn off plasma)
(End cutting path id: path7488)

(Start cutting path id: path7486)
(Change tool to Plasma cutter)
 
G00 Z 5.0000
G00 X 361.3911 Y 60.0009
G31 Z -100.0000 F 500.0000 (f 500.0000ind metal)
G92 Z 0.0000 (z 0.0000ero z 0.0000)
G00 Z 10.0000 F 500.0000 (going up)
M03 (turn on plasma)
G04 P0.2 (pause)
G01 Z 1.0000 (going to cutting z 1.0000)
G01 Z -1.0000 F 100.0000(Penetrate)
G02 X 361.6023 Y 61.6201 Z -1.0000 I 6.2500 J 0.0082 F 400.0000
G02 X 362.2257 Y 63.1294 Z -1.0000 I 6.0388 J -1.6110
G00 Z 5.0000
M05 (turn off plasma)
(End cutting path id: path7486)

(Start cutting path id: path7484)
(Change tool to Plasma cutter)
 
G00 Z 5.0000
G00 X 362.2257 Y 63.1294
G31 Z -100.0000 F 500.0000 (f 500.0000ind metal)
G92 Z 0.0000 (z 0.0000ero z 0.0000)
G00 Z 10.0000 F 500.0000 (going up)
M03 (turn on plasma)
G04 P0.2 (pause)
G01 Z 1.0000 (going to cutting z 1.0000)
G01 Z -1.0000 F 100.0000(Penetrate)
G02 X 363.2188 Y 64.4256 Z -1.0000 I 5.4154 J -3.1203 F 400.0000
G02 X 364.5137 Y 65.4204 Z -1.0000 I 4.4223 J -4.4165
G00 Z 5.0000
M05 (turn off plasma)
(End cutting path id: path7484)

(Start cutting path id: path7482)
(Change tool to Plasma cutter)
 
G00 Z 5.0000
G00 X 364.5137 Y 65.4204
G31 Z -100.0000 F 500.0000 (f 500.0000ind metal)
G92 Z 0.0000 (z 0.0000ero z 0.0000)
G00 Z 10.0000 F 500.0000 (going up)
M03 (turn on plasma)
G04 P0.2 (pause)
G01 Z 1.0000 (going to cutting z 1.0000)
G01 Z -1.0000 F 100.0000(Penetrate)
G02 X 366.0222 Y 66.0458 Z -1.0000 I 3.1274 J -5.4113 F 400.0000
G02 X 367.6411 Y 66.2591 Z -1.0000 I 1.6189 J -6.0367
G00 Z 5.0000
M05 (turn off plasma)
(End cutting path id: path7482)

(Start cutting path id: path7480)
(Change tool to Plasma cutter)
 
G00 Z 5.0000
G00 X 367.6411 Y 66.2591
G31 Z -100.0000 F 500.0000 (f 500.0000ind metal)
G92 Z 0.0000 (z 0.0000ero z 0.0000)
G00 Z 10.0000 F 500.0000 (going up)
M03 (turn on plasma)
G04 P0.2 (pause)
G01 Z 1.0000 (going to cutting z 1.0000)
G01 Z -1.0000 F 100.0000(Penetrate)
G02 X 369.2600 Y 66.0458 Z -1.0000 I -0.0000 J -6.2500 F 400.0000
G02 X 370.7685 Y 65.4204 Z -1.0000 I -1.6189 J -6.0367
G00 Z 5.0000
M05 (turn off plasma)
(End cutting path id: path7480)

(Start cutting path id: path7478)
(Change tool to Plasma cutter)
 
G00 Z 5.0000
G00 X 370.7685 Y 65.4204
G31 Z -100.0000 F 500.0000 (f 500.0000ind metal)
G92 Z 0.0000 (z 0.0000ero z 0.0000)
G00 Z 10.0000 F 500.0000 (going up)
M03 (turn on plasma)
G04 P0.2 (pause)
G01 Z 1.0000 (going to cutting z 1.0000)
G01 Z -1.0000 F 100.0000(Penetrate)
G02 X 372.0634 Y 64.4256 Z -1.0000 I -3.1273 J -5.4113 F 400.0000
G02 X 373.0565 Y 63.1294 Z -1.0000 I -4.4223 J -4.4165
G00 Z 5.0000
M05 (turn off plasma)
(End cutting path id: path7478)

(Start cutting path id: path7476)
(Change tool to Plasma cutter)
 
G00 Z 5.0000
G00 X 373.0565 Y 63.1294
G31 Z -100.0000 F 500.0000 (f 500.0000ind metal)
G92 Z 0.0000 (z 0.0000ero z 0.0000)
G00 Z 10.0000 F 500.0000 (going up)
M03 (turn on plasma)
G04 P0.2 (pause)
G01 Z 1.0000 (going to cutting z 1.0000)
G01 Z -1.0000 F 100.0000(Penetrate)
G02 X 373.6799 Y 61.6201 Z -1.0000 I -5.4154 J -3.1202 F 400.0000
G02 X 373.8911 Y 60.0009 Z -1.0000 I -6.0388 J -1.6110
G00 Z 5.0000
M05 (turn off plasma)
(End cutting path id: path7476)

(Start cutting path id: path7472)
(Change tool to Plasma cutter)
 
G00 Z 5.0000
G00 X 413.8911 Y 160.0009
G31 Z -100.0000 F 500.0000 (f 500.0000ind metal)
G92 Z 0.0000 (z 0.0000ero z 0.0000)
G00 Z 10.0000 F 500.0000 (going up)
M03 (turn on plasma)
G04 P0.2 (pause)
G01 Z 1.0000 (going to cutting z 1.0000)
G01 Z -1.0000 F 100.0000(Penetrate)
G02 X 413.6799 Y 158.3817 Z -1.0000 I -6.2500 J -0.0084 F 400.0000
G02 X 413.0566 Y 156.8724 Z -1.0000 I -6.0388 J 1.6108
G00 Z 5.0000
M05 (turn off plasma)
(End cutting path id: path7472)

(Start cutting path id: path7470)
(Change tool to Plasma cutter)
 
G00 Z 5.0000
G00 X 413.0566 Y 156.8724
G31 Z -100.0000 F 500.0000 (f 500.0000ind metal)
G92 Z 0.0000 (z 0.0000ero z 0.0000)
G00 Z 10.0000 F 500.0000 (going up)
M03 (turn on plasma)
G04 P0.2 (pause)
G01 Z 1.0000 (going to cutting z 1.0000)
G01 Z -1.0000 F 100.0000(Penetrate)
G02 X 412.0635 Y 155.5761 Z -1.0000 I -5.4155 J 3.1202 F 400.0000
G02 X 410.7685 Y 154.5813 Z -1.0000 I -4.4224 J 4.4164
G00 Z 5.0000
M05 (turn off plasma)
(End cutting path id: path7470)

(Start cutting path id: path7468)
(Change tool to Plasma cutter)
 
G00 Z 5.0000
G00 X 410.7685 Y 154.5813
G31 Z -100.0000 F 500.0000 (f 500.0000ind metal)
G92 Z 0.0000 (z 0.0000ero z 0.0000)
G00 Z 10.0000 F 500.0000 (going up)
M03 (turn on plasma)
G04 P0.2 (pause)
G01 Z 1.0000 (going to cutting z 1.0000)
G01 Z -1.0000 F 100.0000(Penetrate)
G02 X 409.2601 Y 153.9559 Z -1.0000 I -3.1274 J 5.4113 F 400.0000
G02 X 407.6411 Y 153.7426 Z -1.0000 I -1.6190 J 6.0367
G00 Z 5.0000
M05 (turn off plasma)
(End cutting path id: path7468)

(Start cutting path id: path7466)
(Change tool to Plasma cutter)
 
G00 Z 5.0000
G00 X 407.6411 Y 153.7426
G31 Z -100.0000 F 500.0000 (f 500.0000ind metal)
G92 Z 0.0000 (z 0.0000ero z 0.0000)
G00 Z 10.0000 F 500.0000 (going up)
M03 (turn on plasma)
G04 P0.2 (pause)
G01 Z 1.0000 (going to cutting z 1.0000)
G01 Z -1.0000 F 100.0000(Penetrate)
G02 X 406.0221 Y 153.9559 Z -1.0000 I 0.0000 J 6.2500 F 400.0000
G02 X 404.5137 Y 154.5813 Z -1.0000 I 1.6190 J 6.0367
G00 Z 5.0000
M05 (turn off plasma)
(End cutting path id: path7466)

(Start cutting path id: path7464)
(Change tool to Plasma cutter)
 
G00 Z 5.0000
G00 X 404.5137 Y 154.5813
G31 Z -100.0000 F 500.0000 (f 500.0000ind metal)
G92 Z 0.0000 (z 0.0000ero z 0.0000)
G00 Z 10.0000 F 500.0000 (going up)
M03 (turn on plasma)
G04 P0.2 (pause)
G01 Z 1.0000 (going to cutting z 1.0000)
G01 Z -1.0000 F 100.0000(Penetrate)
G02 X 403.2187 Y 155.5761 Z -1.0000 I 3.1274 J 5.4113 F 400.0000
G02 X 402.2257 Y 156.8724 Z -1.0000 I 4.4224 J 4.4164
G00 Z 5.0000
M05 (turn off plasma)
(End cutting path id: path7464)

(Start cutting path id: path7462)
(Change tool to Plasma cutter)
 
G00 Z 5.0000
G00 X 402.2257 Y 156.8724
G31 Z -100.0000 F 500.0000 (f 500.0000ind metal)
G92 Z 0.0000 (z 0.0000ero z 0.0000)
G00 Z 10.0000 F 500.0000 (going up)
M03 (turn on plasma)
G04 P0.2 (pause)
G01 Z 1.0000 (going to cutting z 1.0000)
G01 Z -1.0000 F 100.0000(Penetrate)
G02 X 401.6023 Y 158.3817 Z -1.0000 I 5.4154 J 3.1202 F 400.0000
G02 X 401.3911 Y 160.0009 Z -1.0000 I 6.0388 J 1.6109
G00 Z 5.0000
M05 (turn off plasma)
(End cutting path id: path7462)

(Start cutting path id: path7460)
(Change tool to Plasma cutter)
 
G00 Z 5.0000
G00 X 401.3911 Y 160.0010
G31 Z -100.0000 F 500.0000 (f 500.0000ind metal)
G92 Z 0.0000 (z 0.0000ero z 0.0000)
G00 Z 10.0000 F 500.0000 (going up)
M03 (turn on plasma)
G04 P0.2 (pause)
G01 Z 1.0000 (going to cutting z 1.0000)
G01 Z -1.0000 F 100.0000(Penetrate)
G02 X 401.6023 Y 161.6202 Z -1.0000 I 6.2500 J 0.0084 F 400.0000
G02 X 402.2257 Y 163.1295 Z -1.0000 I 6.0388 J -1.6109
G00 Z 5.0000
M05 (turn off plasma)
(End cutting path id: path7460)

(Start cutting path id: path7458)
(Change tool to Plasma cutter)
 
G00 Z 5.0000
G00 X 402.2257 Y 163.1295
G31 Z -100.0000 F 500.0000 (f 500.0000ind metal)
G92 Z 0.0000 (z 0.0000ero z 0.0000)
G00 Z 10.0000 F 500.0000 (going up)
M03 (turn on plasma)
G04 P0.2 (pause)
G01 Z 1.0000 (going to cutting z 1.0000)
G01 Z -1.0000 F 100.0000(Penetrate)
G02 X 403.2187 Y 164.4258 Z -1.0000 I 5.4155 J -3.1201 F 400.0000
G02 X 404.5137 Y 165.4206 Z -1.0000 I 4.4224 J -4.4164
G00 Z 5.0000
M05 (turn off plasma)
(End cutting path id: path7458)

(Start cutting path id: path7456)
(Change tool to Plasma cutter)
 
G00 Z 5.0000
G00 X 404.5137 Y 165.4206
G31 Z -100.0000 F 500.0000 (f 500.0000ind metal)
G92 Z 0.0000 (z 0.0000ero z 0.0000)
G00 Z 10.0000 F 500.0000 (going up)
M03 (turn on plasma)
G04 P0.2 (pause)
G01 Z 1.0000 (going to cutting z 1.0000)
G01 Z -1.0000 F 100.0000(Penetrate)
G02 X 406.0221 Y 166.0460 Z -1.0000 I 3.1274 J -5.4113 F 400.0000
G02 X 407.6411 Y 166.2594 Z -1.0000 I 1.6190 J -6.0367
G00 Z 5.0000
M05 (turn off plasma)
(End cutting path id: path7456)

(Start cutting path id: path7454)
(Change tool to Plasma cutter)
 
G00 Z 5.0000
G00 X 407.6411 Y 166.2594
G31 Z -100.0000 F 500.0000 (f 500.0000ind metal)
G92 Z 0.0000 (z 0.0000ero z 0.0000)
G00 Z 10.0000 F 500.0000 (going up)
M03 (turn on plasma)
G04 P0.2 (pause)
G01 Z 1.0000 (going to cutting z 1.0000)
G01 Z -1.0000 F 100.0000(Penetrate)
G02 X 409.2601 Y 166.0460 Z -1.0000 I -0.0000 J -6.2500 F 400.0000
G02 X 410.7685 Y 165.4206 Z -1.0000 I -1.6190 J -6.0367
G00 Z 5.0000
M05 (turn off plasma)
(End cutting path id: path7454)

(Start cutting path id: path7452)
(Change tool to Plasma cutter)
 
G00 Z 5.0000
G00 X 410.7685 Y 165.4206
G31 Z -100.0000 F 500.0000 (f 500.0000ind metal)
G92 Z 0.0000 (z 0.0000ero z 0.0000)
G00 Z 10.0000 F 500.0000 (going up)
M03 (turn on plasma)
G04 P0.2 (pause)
G01 Z 1.0000 (going to cutting z 1.0000)
G01 Z -1.0000 F 100.0000(Penetrate)
G02 X 412.0635 Y 164.4258 Z -1.0000 I -3.1274 J -5.4113 F 400.0000
G02 X 413.0566 Y 163.1295 Z -1.0000 I -4.4224 J -4.4164
G00 Z 5.0000
M05 (turn off plasma)
(End cutting path id: path7452)

(Start cutting path id: path7450)
(Change tool to Plasma cutter)
 
G00 Z 5.0000
G00 X 413.0566 Y 163.1295
G31 Z -100.0000 F 500.0000 (f 500.0000ind metal)
G92 Z 0.0000 (z 0.0000ero z 0.0000)
G00 Z 10.0000 F 500.0000 (going up)
M03 (turn on plasma)
G04 P0.2 (pause)
G01 Z 1.0000 (going to cutting z 1.0000)
G01 Z -1.0000 F 100.0000(Penetrate)
G02 X 413.6799 Y 161.6202 Z -1.0000 I -5.4155 J -3.1201 F 400.0000
G02 X 413.8911 Y 160.0010 Z -1.0000 I -6.0388 J -1.6108
G00 Z 5.0000
M05 (turn off plasma)
(End cutting path id: path7450)

(Start cutting path id: path7446)
(Change tool to Plasma cutter)
 
G00 Z 5.0000
G00 X 413.8911 Y 60.0009
G31 Z -100.0000 F 500.0000 (f 500.0000ind metal)
G92 Z 0.0000 (z 0.0000ero z 0.0000)
G00 Z 10.0000 F 500.0000 (going up)
M03 (turn on plasma)
G04 P0.2 (pause)
G01 Z 1.0000 (going to cutting z 1.0000)
G01 Z -1.0000 F 100.0000(Penetrate)
G02 X 413.6799 Y 58.3817 Z -1.0000 I -6.2500 J -0.0084 F 400.0000
G02 X 413.0566 Y 56.8724 Z -1.0000 I -6.0388 J 1.6108
G00 Z 5.0000
M05 (turn off plasma)
(End cutting path id: path7446)

(Start cutting path id: path7444)
(Change tool to Plasma cutter)
 
G00 Z 5.0000
G00 X 413.0566 Y 56.8724
G31 Z -100.0000 F 500.0000 (f 500.0000ind metal)
G92 Z 0.0000 (z 0.0000ero z 0.0000)
G00 Z 10.0000 F 500.0000 (going up)
M03 (turn on plasma)
G04 P0.2 (pause)
G01 Z 1.0000 (going to cutting z 1.0000)
G01 Z -1.0000 F 100.0000(Penetrate)
G02 X 412.0635 Y 55.5761 Z -1.0000 I -5.4155 J 3.1202 F 400.0000
G02 X 410.7685 Y 54.5813 Z -1.0000 I -4.4224 J 4.4164
G00 Z 5.0000
M05 (turn off plasma)
(End cutting path id: path7444)

(Start cutting path id: path7442)
(Change tool to Plasma cutter)
 
G00 Z 5.0000
G00 X 410.7685 Y 54.5813
G31 Z -100.0000 F 500.0000 (f 500.0000ind metal)
G92 Z 0.0000 (z 0.0000ero z 0.0000)
G00 Z 10.0000 F 500.0000 (going up)
M03 (turn on plasma)
G04 P0.2 (pause)
G01 Z 1.0000 (going to cutting z 1.0000)
G01 Z -1.0000 F 100.0000(Penetrate)
G02 X 409.2601 Y 53.9558 Z -1.0000 I -3.1274 J 5.4113 F 400.0000
G02 X 407.6411 Y 53.7425 Z -1.0000 I -1.6190 J 6.0367
G00 Z 5.0000
M05 (turn off plasma)
(End cutting path id: path7442)

(Start cutting path id: path7440)
(Change tool to Plasma cutter)
 
G00 Z 5.0000
G00 X 407.6411 Y 53.7425
G31 Z -100.0000 F 500.0000 (f 500.0000ind metal)
G92 Z 0.0000 (z 0.0000ero z 0.0000)
G00 Z 10.0000 F 500.0000 (going up)
M03 (turn on plasma)
G04 P0.2 (pause)
G01 Z 1.0000 (going to cutting z 1.0000)
G01 Z -1.0000 F 100.0000(Penetrate)
G02 X 406.0221 Y 53.9558 Z -1.0000 I 0.0000 J 6.2500 F 400.0000
G02 X 404.5137 Y 54.5813 Z -1.0000 I 1.6190 J 6.0367
G00 Z 5.0000
M05 (turn off plasma)
(End cutting path id: path7440)

(Start cutting path id: path7438)
(Change tool to Plasma cutter)
 
G00 Z 5.0000
G00 X 404.5137 Y 54.5813
G31 Z -100.0000 F 500.0000 (f 500.0000ind metal)
G92 Z 0.0000 (z 0.0000ero z 0.0000)
G00 Z 10.0000 F 500.0000 (going up)
M03 (turn on plasma)
G04 P0.2 (pause)
G01 Z 1.0000 (going to cutting z 1.0000)
G01 Z -1.0000 F 100.0000(Penetrate)
G02 X 403.2187 Y 55.5761 Z -1.0000 I 3.1274 J 5.4113 F 400.0000
G02 X 402.2257 Y 56.8724 Z -1.0000 I 4.4224 J 4.4164
G00 Z 5.0000
M05 (turn off plasma)
(End cutting path id: path7438)

(Start cutting path id: path7436)
(Change tool to Plasma cutter)
 
G00 Z 5.0000
G00 X 402.2257 Y 56.8724
G31 Z -100.0000 F 500.0000 (f 500.0000ind metal)
G92 Z 0.0000 (z 0.0000ero z 0.0000)
G00 Z 10.0000 F 500.0000 (going up)
M03 (turn on plasma)
G04 P0.2 (pause)
G01 Z 1.0000 (going to cutting z 1.0000)
G01 Z -1.0000 F 100.0000(Penetrate)
G02 X 401.6023 Y 58.3817 Z -1.0000 I 5.4154 J 3.1202 F 400.0000
G02 X 401.3911 Y 60.0009 Z -1.0000 I 6.0388 J 1.6109
G00 Z 5.0000
M05 (turn off plasma)
(End cutting path id: path7436)

(Start cutting path id: path7434)
(Change tool to Plasma cutter)
 
G00 Z 5.0000
G00 X 401.3911 Y 60.0009
G31 Z -100.0000 F 500.0000 (f 500.0000ind metal)
G92 Z 0.0000 (z 0.0000ero z 0.0000)
G00 Z 10.0000 F 500.0000 (going up)
M03 (turn on plasma)
G04 P0.2 (pause)
G01 Z 1.0000 (going to cutting z 1.0000)
G01 Z -1.0000 F 100.0000(Penetrate)
G02 X 401.6023 Y 61.6202 Z -1.0000 I 6.2500 J 0.0084 F 400.0000
G02 X 402.2257 Y 63.1295 Z -1.0000 I 6.0388 J -1.6109
G00 Z 5.0000
M05 (turn off plasma)
(End cutting path id: path7434)

(Start cutting path id: path7432)
(Change tool to Plasma cutter)
 
G00 Z 5.0000
G00 X 402.2257 Y 63.1295
G31 Z -100.0000 F 500.0000 (f 500.0000ind metal)
G92 Z 0.0000 (z 0.0000ero z 0.0000)
G00 Z 10.0000 F 500.0000 (going up)
M03 (turn on plasma)
G04 P0.2 (pause)
G01 Z 1.0000 (going to cutting z 1.0000)
G01 Z -1.0000 F 100.0000(Penetrate)
G02 X 403.2187 Y 64.4258 Z -1.0000 I 5.4155 J -3.1201 F 400.0000
G02 X 404.5137 Y 65.4206 Z -1.0000 I 4.4224 J -4.4164
G00 Z 5.0000
M05 (turn off plasma)
(End cutting path id: path7432)

(Start cutting path id: path7430)
(Change tool to Plasma cutter)
 
G00 Z 5.0000
G00 X 404.5137 Y 65.4206
G31 Z -100.0000 F 500.0000 (f 500.0000ind metal)
G92 Z 0.0000 (z 0.0000ero z 0.0000)
G00 Z 10.0000 F 500.0000 (going up)
M03 (turn on plasma)
G04 P0.2 (pause)
G01 Z 1.0000 (going to cutting z 1.0000)
G01 Z -1.0000 F 100.0000(Penetrate)
G02 X 406.0221 Y 66.0460 Z -1.0000 I 3.1274 J -5.4113 F 400.0000
G02 X 407.6411 Y 66.2593 Z -1.0000 I 1.6190 J -6.0367
G00 Z 5.0000
M05 (turn off plasma)
(End cutting path id: path7430)

(Start cutting path id: path7428)
(Change tool to Plasma cutter)
 
G00 Z 5.0000
G00 X 407.6411 Y 66.2593
G31 Z -100.0000 F 500.0000 (f 500.0000ind metal)
G92 Z 0.0000 (z 0.0000ero z 0.0000)
G00 Z 10.0000 F 500.0000 (going up)
M03 (turn on plasma)
G04 P0.2 (pause)
G01 Z 1.0000 (going to cutting z 1.0000)
G01 Z -1.0000 F 100.0000(Penetrate)
G02 X 409.2601 Y 66.0460 Z -1.0000 I -0.0000 J -6.2500 F 400.0000
G02 X 410.7685 Y 65.4206 Z -1.0000 I -1.6190 J -6.0367
G00 Z 5.0000
M05 (turn off plasma)
(End cutting path id: path7428)

(Start cutting path id: path7426)
(Change tool to Plasma cutter)
 
G00 Z 5.0000
G00 X 410.7685 Y 65.4206
G31 Z -100.0000 F 500.0000 (f 500.0000ind metal)
G92 Z 0.0000 (z 0.0000ero z 0.0000)
G00 Z 10.0000 F 500.0000 (going up)
M03 (turn on plasma)
G04 P0.2 (pause)
G01 Z 1.0000 (going to cutting z 1.0000)
G01 Z -1.0000 F 100.0000(Penetrate)
G02 X 412.0635 Y 64.4258 Z -1.0000 I -3.1274 J -5.4113 F 400.0000
G02 X 413.0566 Y 63.1295 Z -1.0000 I -4.4224 J -4.4164
G00 Z 5.0000
M05 (turn off plasma)
(End cutting path id: path7426)

(Start cutting path id: path7424)
(Change tool to Plasma cutter)
 
G00 Z 5.0000
G00 X 413.0566 Y 63.1295
G31 Z -100.0000 F 500.0000 (f 500.0000ind metal)
G92 Z 0.0000 (z 0.0000ero z 0.0000)
G00 Z 10.0000 F 500.0000 (going up)
M03 (turn on plasma)
G04 P0.2 (pause)
G01 Z 1.0000 (going to cutting z 1.0000)
G01 Z -1.0000 F 100.0000(Penetrate)
G02 X 413.6799 Y 61.6202 Z -1.0000 I -5.4155 J -3.1201 F 400.0000
G02 X 413.8911 Y 60.0009 Z -1.0000 I -6.0388 J -1.6108
G00 Z 5.0000
M05 (turn off plasma)
(End cutting path id: path7424)

(Start cutting path id: path7420)
(Change tool to Plasma cutter)
 
G00 Z 5.0000
G00 X 23.8911 Y 160.0010
G31 Z -100.0000 F 500.0000 (f 500.0000ind metal)
G92 Z 0.0000 (z 0.0000ero z 0.0000)
G00 Z 10.0000 F 500.0000 (going up)
M03 (turn on plasma)
G04 P0.2 (pause)
G01 Z 1.0000 (going to cutting z 1.0000)
G01 Z -1.0000 F 100.0000(Penetrate)
G02 X 23.6782 Y 158.3833 Z -1.0000 I -6.2500 J 0.0000 F 400.0000
G02 X 23.0538 Y 156.8760 Z -1.0000 I -6.0370 J 1.6176
G00 Z 5.0000
M05 (turn off plasma)
(End cutting path id: path7420)

(Start cutting path id: path7418)
(Change tool to Plasma cutter)
 
G00 Z 5.0000
G00 X 23.0538 Y 156.8760
G31 Z -100.0000 F 500.0000 (f 500.0000ind metal)
G92 Z 0.0000 (z 0.0000ero z 0.0000)
G00 Z 10.0000 F 500.0000 (going up)
M03 (turn on plasma)
G04 P0.2 (pause)
G01 Z 1.0000 (going to cutting z 1.0000)
G01 Z -1.0000 F 100.0000(Penetrate)
G02 X 22.0605 Y 155.5815 Z -1.0000 I -5.4127 J 3.1250 F 400.0000
G02 X 20.7661 Y 154.5883 Z -1.0000 I -4.4194 J 4.4194
G00 Z 5.0000
M05 (turn off plasma)
(End cutting path id: path7418)

(Start cutting path id: path7416)
(Change tool to Plasma cutter)
 
G00 Z 5.0000
G00 X 20.7661 Y 154.5883
G31 Z -100.0000 F 500.0000 (f 500.0000ind metal)
G92 Z 0.0000 (z 0.0000ero z 0.0000)
G00 Z 10.0000 F 500.0000 (going up)
M03 (turn on plasma)
G04 P0.2 (pause)
G01 Z 1.0000 (going to cutting z 1.0000)
G01 Z -1.0000 F 100.0000(Penetrate)
G02 X 19.2587 Y 153.9639 Z -1.0000 I -3.1250 J 5.4127 F 400.0000
G02 X 17.6411 Y 153.7510 Z -1.0000 I -1.6176 J 6.0370
G00 Z 5.0000
M05 (turn off plasma)
(End cutting path id: path7416)

(Start cutting path id: path7414)
(Change tool to Plasma cutter)
 
G00 Z 5.0000
G00 X 17.6411 Y 153.7510
G31 Z -100.0000 F 500.0000 (f 500.0000ind metal)
G92 Z 0.0000 (z 0.0000ero z 0.0000)
G00 Z 10.0000 F 500.0000 (going up)
M03 (turn on plasma)
G04 P0.2 (pause)
G01 Z 1.0000 (going to cutting z 1.0000)
G01 Z -1.0000 F 100.0000(Penetrate)
G02 X 16.0235 Y 153.9639 Z -1.0000 I 0.0000 J 6.2500 F 400.0000
G02 X 14.5161 Y 154.5883 Z -1.0000 I 1.6176 J 6.0370
G00 Z 5.0000
M05 (turn off plasma)
(End cutting path id: path7414)

(Start cutting path id: path7412)
(Change tool to Plasma cutter)
 
G00 Z 5.0000
G00 X 14.5161 Y 154.5883
G31 Z -100.0000 F 500.0000 (f 500.0000ind metal)
G92 Z 0.0000 (z 0.0000ero z 0.0000)
G00 Z 10.0000 F 500.0000 (going up)
M03 (turn on plasma)
G04 P0.2 (pause)
G01 Z 1.0000 (going to cutting z 1.0000)
G01 Z -1.0000 F 100.0000(Penetrate)
G02 X 13.2217 Y 155.5815 Z -1.0000 I 3.1250 J 5.4127 F 400.0000
G02 X 12.2285 Y 156.8760 Z -1.0000 I 4.4194 J 4.4194
G00 Z 5.0000
M05 (turn off plasma)
(End cutting path id: path7412)

(Start cutting path id: path7410)
(Change tool to Plasma cutter)
 
G00 Z 5.0000
G00 X 12.2285 Y 156.8760
G31 Z -100.0000 F 500.0000 (f 500.0000ind metal)
G92 Z 0.0000 (z 0.0000ero z 0.0000)
G00 Z 10.0000 F 500.0000 (going up)
M03 (turn on plasma)
G04 P0.2 (pause)
G01 Z 1.0000 (going to cutting z 1.0000)
G01 Z -1.0000 F 100.0000(Penetrate)
G02 X 11.6041 Y 158.3833 Z -1.0000 I 5.4127 J 3.1250 F 400.0000
G02 X 11.3911 Y 160.0010 Z -1.0000 I 6.0370 J 1.6176
G00 Z 5.0000
M05 (turn off plasma)
(End cutting path id: path7410)

(Start cutting path id: path7408)
(Change tool to Plasma cutter)
 
G00 Z 5.0000
G00 X 11.3911 Y 160.0010
G31 Z -100.0000 F 500.0000 (f 500.0000ind metal)
G92 Z 0.0000 (z 0.0000ero z 0.0000)
G00 Z 10.0000 F 500.0000 (going up)
M03 (turn on plasma)
G04 P0.2 (pause)
G01 Z 1.0000 (going to cutting z 1.0000)
G01 Z -1.0000 F 100.0000(Penetrate)
G02 X 11.6041 Y 161.6186 Z -1.0000 I 6.2500 J 0.0000 F 400.0000
G02 X 12.2285 Y 163.1260 Z -1.0000 I 6.0370 J -1.6176
G00 Z 5.0000
M05 (turn off plasma)
(End cutting path id: path7408)

(Start cutting path id: path7406)
(Change tool to Plasma cutter)
 
G00 Z 5.0000
G00 X 12.2285 Y 163.1260
G31 Z -100.0000 F 500.0000 (f 500.0000ind metal)
G92 Z 0.0000 (z 0.0000ero z 0.0000)
G00 Z 10.0000 F 500.0000 (going up)
M03 (turn on plasma)
G04 P0.2 (pause)
G01 Z 1.0000 (going to cutting z 1.0000)
G01 Z -1.0000 F 100.0000(Penetrate)
G02 X 13.2217 Y 164.4204 Z -1.0000 I 5.4127 J -3.1250 F 400.0000
G02 X 14.5161 Y 165.4136 Z -1.0000 I 4.4194 J -4.4194
G00 Z 5.0000
M05 (turn off plasma)
(End cutting path id: path7406)

(Start cutting path id: path7404)
(Change tool to Plasma cutter)
 
G00 Z 5.0000
G00 X 14.5161 Y 165.4136
G31 Z -100.0000 F 500.0000 (f 500.0000ind metal)
G92 Z 0.0000 (z 0.0000ero z 0.0000)
G00 Z 10.0000 F 500.0000 (going up)
M03 (turn on plasma)
G04 P0.2 (pause)
G01 Z 1.0000 (going to cutting z 1.0000)
G01 Z -1.0000 F 100.0000(Penetrate)
G02 X 16.0235 Y 166.0380 Z -1.0000 I 3.1250 J -5.4127 F 400.0000
G02 X 17.6411 Y 166.2510 Z -1.0000 I 1.6176 J -6.0370
G00 Z 5.0000
M05 (turn off plasma)
(End cutting path id: path7404)

(Start cutting path id: path7402)
(Change tool to Plasma cutter)
 
G00 Z 5.0000
G00 X 17.6411 Y 166.2510
G31 Z -100.0000 F 500.0000 (f 500.0000ind metal)
G92 Z 0.0000 (z 0.0000ero z 0.0000)
G00 Z 10.0000 F 500.0000 (going up)
M03 (turn on plasma)
G04 P0.2 (pause)
G01 Z 1.0000 (going to cutting z 1.0000)
G01 Z -1.0000 F 100.0000(Penetrate)
G02 X 19.2587 Y 166.0380 Z -1.0000 I 0.0000 J -6.2500 F 400.0000
G02 X 20.7661 Y 165.4136 Z -1.0000 I -1.6176 J -6.0370
G00 Z 5.0000
M05 (turn off plasma)
(End cutting path id: path7402)

(Start cutting path id: path7400)
(Change tool to Plasma cutter)
 
G00 Z 5.0000
G00 X 20.7661 Y 165.4136
G31 Z -100.0000 F 500.0000 (f 500.0000ind metal)
G92 Z 0.0000 (z 0.0000ero z 0.0000)
G00 Z 10.0000 F 500.0000 (going up)
M03 (turn on plasma)
G04 P0.2 (pause)
G01 Z 1.0000 (going to cutting z 1.0000)
G01 Z -1.0000 F 100.0000(Penetrate)
G02 X 22.0605 Y 164.4204 Z -1.0000 I -3.1250 J -5.4127 F 400.0000
G02 X 23.0538 Y 163.1260 Z -1.0000 I -4.4194 J -4.4194
G00 Z 5.0000
M05 (turn off plasma)
(End cutting path id: path7400)

(Start cutting path id: path7398)
(Change tool to Plasma cutter)
 
G00 Z 5.0000
G00 X 23.0538 Y 163.1260
G31 Z -100.0000 F 500.0000 (f 500.0000ind metal)
G92 Z 0.0000 (z 0.0000ero z 0.0000)
G00 Z 10.0000 F 500.0000 (going up)
M03 (turn on plasma)
G04 P0.2 (pause)
G01 Z 1.0000 (going to cutting z 1.0000)
G01 Z -1.0000 F 100.0000(Penetrate)
G02 X 23.6782 Y 161.6186 Z -1.0000 I -5.4127 J -3.1250 F 400.0000
G02 X 23.8911 Y 160.0010 Z -1.0000 I -6.0370 J -1.6176
G00 Z 5.0000
M05 (turn off plasma)
(End cutting path id: path7398)

(Start cutting path id: path7394)
(Change tool to Plasma cutter)
 
G00 Z 5.0000
G00 X 23.8911 Y 60.0009
G31 Z -100.0000 F 500.0000 (f 500.0000ind metal)
G92 Z 0.0000 (z 0.0000ero z 0.0000)
G00 Z 10.0000 F 500.0000 (going up)
M03 (turn on plasma)
G04 P0.2 (pause)
G01 Z 1.0000 (going to cutting z 1.0000)
G01 Z -1.0000 F 100.0000(Penetrate)
G02 X 23.6782 Y 58.3833 Z -1.0000 I -6.2500 J 0.0000 F 400.0000
G02 X 23.0538 Y 56.8759 Z -1.0000 I -6.0370 J 1.6176
G00 Z 5.0000
M05 (turn off plasma)
(End cutting path id: path7394)

(Start cutting path id: path7392)
(Change tool to Plasma cutter)
 
G00 Z 5.0000
G00 X 23.0538 Y 56.8759
G31 Z -100.0000 F 500.0000 (f 500.0000ind metal)
G92 Z 0.0000 (z 0.0000ero z 0.0000)
G00 Z 10.0000 F 500.0000 (going up)
M03 (turn on plasma)
G04 P0.2 (pause)
G01 Z 1.0000 (going to cutting z 1.0000)
G01 Z -1.0000 F 100.0000(Penetrate)
G02 X 22.0605 Y 55.5815 Z -1.0000 I -5.4127 J 3.1250 F 400.0000
G02 X 20.7661 Y 54.5883 Z -1.0000 I -4.4194 J 4.4194
G00 Z 5.0000
M05 (turn off plasma)
(End cutting path id: path7392)

(Start cutting path id: path7390)
(Change tool to Plasma cutter)
 
G00 Z 5.0000
G00 X 20.7661 Y 54.5883
G31 Z -100.0000 F 500.0000 (f 500.0000ind metal)
G92 Z 0.0000 (z 0.0000ero z 0.0000)
G00 Z 10.0000 F 500.0000 (going up)
M03 (turn on plasma)
G04 P0.2 (pause)
G01 Z 1.0000 (going to cutting z 1.0000)
G01 Z -1.0000 F 100.0000(Penetrate)
G02 X 19.2587 Y 53.9639 Z -1.0000 I -3.1250 J 5.4127 F 400.0000
G02 X 17.6411 Y 53.7509 Z -1.0000 I -1.6176 J 6.0370
G00 Z 5.0000
M05 (turn off plasma)
(End cutting path id: path7390)

(Start cutting path id: path7388)
(Change tool to Plasma cutter)
 
G00 Z 5.0000
G00 X 17.6411 Y 53.7509
G31 Z -100.0000 F 500.0000 (f 500.0000ind metal)
G92 Z 0.0000 (z 0.0000ero z 0.0000)
G00 Z 10.0000 F 500.0000 (going up)
M03 (turn on plasma)
G04 P0.2 (pause)
G01 Z 1.0000 (going to cutting z 1.0000)
G01 Z -1.0000 F 100.0000(Penetrate)
G02 X 16.0235 Y 53.9639 Z -1.0000 I 0.0000 J 6.2500 F 400.0000
G02 X 14.5161 Y 54.5883 Z -1.0000 I 1.6176 J 6.0370
G00 Z 5.0000
M05 (turn off plasma)
(End cutting path id: path7388)

(Start cutting path id: path7386)
(Change tool to Plasma cutter)
 
G00 Z 5.0000
G00 X 14.5161 Y 54.5883
G31 Z -100.0000 F 500.0000 (f 500.0000ind metal)
G92 Z 0.0000 (z 0.0000ero z 0.0000)
G00 Z 10.0000 F 500.0000 (going up)
M03 (turn on plasma)
G04 P0.2 (pause)
G01 Z 1.0000 (going to cutting z 1.0000)
G01 Z -1.0000 F 100.0000(Penetrate)
G02 X 13.2217 Y 55.5815 Z -1.0000 I 3.1250 J 5.4127 F 400.0000
G02 X 12.2285 Y 56.8759 Z -1.0000 I 4.4194 J 4.4194
G00 Z 5.0000
M05 (turn off plasma)
(End cutting path id: path7386)

(Start cutting path id: path7384)
(Change tool to Plasma cutter)
 
G00 Z 5.0000
G00 X 12.2285 Y 56.8759
G31 Z -100.0000 F 500.0000 (f 500.0000ind metal)
G92 Z 0.0000 (z 0.0000ero z 0.0000)
G00 Z 10.0000 F 500.0000 (going up)
M03 (turn on plasma)
G04 P0.2 (pause)
G01 Z 1.0000 (going to cutting z 1.0000)
G01 Z -1.0000 F 100.0000(Penetrate)
G02 X 11.6041 Y 58.3833 Z -1.0000 I 5.4127 J 3.1250 F 400.0000
G02 X 11.3911 Y 60.0009 Z -1.0000 I 6.0370 J 1.6176
G00 Z 5.0000
M05 (turn off plasma)
(End cutting path id: path7384)

(Start cutting path id: path7382)
(Change tool to Plasma cutter)
 
G00 Z 5.0000
G00 X 11.3911 Y 60.0009
G31 Z -100.0000 F 500.0000 (f 500.0000ind metal)
G92 Z 0.0000 (z 0.0000ero z 0.0000)
G00 Z 10.0000 F 500.0000 (going up)
M03 (turn on plasma)
G04 P0.2 (pause)
G01 Z 1.0000 (going to cutting z 1.0000)
G01 Z -1.0000 F 100.0000(Penetrate)
G02 X 11.6041 Y 61.6185 Z -1.0000 I 6.2500 J 0.0000 F 400.0000
G02 X 12.2285 Y 63.1259 Z -1.0000 I 6.0370 J -1.6176
G00 Z 5.0000
M05 (turn off plasma)
(End cutting path id: path7382)

(Start cutting path id: path7380)
(Change tool to Plasma cutter)
 
G00 Z 5.0000
G00 X 12.2285 Y 63.1259
G31 Z -100.0000 F 500.0000 (f 500.0000ind metal)
G92 Z 0.0000 (z 0.0000ero z 0.0000)
G00 Z 10.0000 F 500.0000 (going up)
M03 (turn on plasma)
G04 P0.2 (pause)
G01 Z 1.0000 (going to cutting z 1.0000)
G01 Z -1.0000 F 100.0000(Penetrate)
G02 X 13.2217 Y 64.4203 Z -1.0000 I 5.4127 J -3.1250 F 400.0000
G02 X 14.5161 Y 65.4136 Z -1.0000 I 4.4194 J -4.4194
G00 Z 5.0000
M05 (turn off plasma)
(End cutting path id: path7380)

(Start cutting path id: path7378)
(Change tool to Plasma cutter)
 
G00 Z 5.0000
G00 X 14.5161 Y 65.4136
G31 Z -100.0000 F 500.0000 (f 500.0000ind metal)
G92 Z 0.0000 (z 0.0000ero z 0.0000)
G00 Z 10.0000 F 500.0000 (going up)
M03 (turn on plasma)
G04 P0.2 (pause)
G01 Z 1.0000 (going to cutting z 1.0000)
G01 Z -1.0000 F 100.0000(Penetrate)
G02 X 16.0235 Y 66.0380 Z -1.0000 I 3.1250 J -5.4127 F 400.0000
G02 X 17.6411 Y 66.2509 Z -1.0000 I 1.6176 J -6.0370
G00 Z 5.0000
M05 (turn off plasma)
(End cutting path id: path7378)

(Start cutting path id: path7376)
(Change tool to Plasma cutter)
 
G00 Z 5.0000
G00 X 17.6411 Y 66.2509
G31 Z -100.0000 F 500.0000 (f 500.0000ind metal)
G92 Z 0.0000 (z 0.0000ero z 0.0000)
G00 Z 10.0000 F 500.0000 (going up)
M03 (turn on plasma)
G04 P0.2 (pause)
G01 Z 1.0000 (going to cutting z 1.0000)
G01 Z -1.0000 F 100.0000(Penetrate)
G02 X 19.2587 Y 66.0380 Z -1.0000 I -0.0000 J -6.2500 F 400.0000
G02 X 20.7661 Y 65.4136 Z -1.0000 I -1.6176 J -6.0370
G00 Z 5.0000
M05 (turn off plasma)
(End cutting path id: path7376)

(Start cutting path id: path7374)
(Change tool to Plasma cutter)
 
G00 Z 5.0000
G00 X 20.7661 Y 65.4136
G31 Z -100.0000 F 500.0000 (f 500.0000ind metal)
G92 Z 0.0000 (z 0.0000ero z 0.0000)
G00 Z 10.0000 F 500.0000 (going up)
M03 (turn on plasma)
G04 P0.2 (pause)
G01 Z 1.0000 (going to cutting z 1.0000)
G01 Z -1.0000 F 100.0000(Penetrate)
G02 X 22.0605 Y 64.4203 Z -1.0000 I -3.1250 J -5.4127 F 400.0000
G02 X 23.0538 Y 63.1259 Z -1.0000 I -4.4194 J -4.4194
G00 Z 5.0000
M05 (turn off plasma)
(End cutting path id: path7374)

(Start cutting path id: path7372)
(Change tool to Plasma cutter)
 
G00 Z 5.0000
G00 X 23.0538 Y 63.1259
G31 Z -100.0000 F 500.0000 (f 500.0000ind metal)
G92 Z 0.0000 (z 0.0000ero z 0.0000)
G00 Z 10.0000 F 500.0000 (going up)
M03 (turn on plasma)
G04 P0.2 (pause)
G01 Z 1.0000 (going to cutting z 1.0000)
G01 Z -1.0000 F 100.0000(Penetrate)
G02 X 23.6782 Y 61.6185 Z -1.0000 I -5.4127 J -3.1250 F 400.0000
G02 X 23.8911 Y 60.0009 Z -1.0000 I -6.0370 J -1.6176
G00 Z 5.0000
M05 (turn off plasma)
(End cutting path id: path7372)

(Start cutting path id: path7370)
(Change tool to Plasma cutter)
 
G00 Z 5.0000
G00 X 32.1411 Y 0.1411
G31 Z -100.0000 F 500.0000 (f 500.0000ind metal)
G92 Z 0.0000 (z 0.0000ero z 0.0000)
G00 Z 10.0000 F 500.0000 (going up)
M03 (turn on plasma)
G04 P0.2 (pause)
G01 Z 1.0000 (going to cutting z 1.0000)
G01 Z -1.0000 F 100.0000(Penetrate)
G02 X 19.8952 Y 2.5770 Z -1.0000 I -0.0000 J 32.0000 F 400.0000
G02 X 9.5137 Y 9.5137 Z -1.0000 I 12.2459 J 29.5642
G00 Z 5.0000
M05 (turn off plasma)
(End cutting path id: path7370)

(Start cutting path id: path7368)
(Change tool to Plasma cutter)
 
G00 Z 5.0000
G00 X 9.5137 Y 9.5137
G31 Z -100.0000 F 500.0000 (f 500.0000ind metal)
G92 Z 0.0000 (z 0.0000ero z 0.0000)
G00 Z 10.0000 F 500.0000 (going up)
M03 (turn on plasma)
G04 P0.2 (pause)
G01 Z 1.0000 (going to cutting z 1.0000)
G01 Z -1.0000 F 100.0000(Penetrate)
G02 X 2.5770 Y 19.8952 Z -1.0000 I 22.6274 J 22.6274 F 400.0000
G02 X 0.1411 Y 32.1411 Z -1.0000 I 29.5641 J 12.2459
G00 Z 5.0000
M05 (turn off plasma)
(End cutting path id: path7368)

(Start cutting path id: path7366)
(Change tool to Plasma cutter)
 
G00 Z 5.0000
G00 X 0.1411 Y 187.8608
G31 Z -100.0000 F 500.0000 (f 500.0000ind metal)
G92 Z 0.0000 (z 0.0000ero z 0.0000)
G00 Z 10.0000 F 500.0000 (going up)
M03 (turn on plasma)
G04 P0.2 (pause)
G01 Z 1.0000 (going to cutting z 1.0000)
G01 Z -1.0000 F 100.0000(Penetrate)
G02 X 2.5770 Y 200.1066 Z -1.0000 I 32.0000 J -0.0000 F 400.0000
G02 X 9.5137 Y 210.4882 Z -1.0000 I 29.5641 J -12.2459
G00 Z 5.0000
M05 (turn off plasma)
(End cutting path id: path7366)

(Start cutting path id: path7364)
(Change tool to Plasma cutter)
 
G00 Z 5.0000
G00 X 9.5137 Y 210.4882
G31 Z -100.0000 F 500.0000 (f 500.0000ind metal)
G92 Z 0.0000 (z 0.0000ero z 0.0000)
G00 Z 10.0000 F 500.0000 (going up)
M03 (turn on plasma)
G04 P0.2 (pause)
G01 Z 1.0000 (going to cutting z 1.0000)
G01 Z -1.0000 F 100.0000(Penetrate)
G02 X 19.8952 Y 217.4249 Z -1.0000 I 22.6274 J -22.6274 F 400.0000
G02 X 32.1411 Y 219.8608 Z -1.0000 I 12.2459 J -29.5641
G00 Z 5.0000
M05 (turn off plasma)
(End cutting path id: path7364)

(Start cutting path id: path7360)
(Change tool to Plasma cutter)
 
G00 Z 5.0000
G00 X 425.1411 Y 32.1411
G31 Z -100.0000 F 500.0000 (f 500.0000ind metal)
G92 Z 0.0000 (z 0.0000ero z 0.0000)
G00 Z 10.0000 F 500.0000 (going up)
M03 (turn on plasma)
G04 P0.2 (pause)
G01 Z 1.0000 (going to cutting z 1.0000)
G01 Z -1.0000 F 100.0000(Penetrate)
G02 X 422.7052 Y 19.8952 Z -1.0000 I -32.0000 J 0.0000 F 400.0000
G02 X 415.7685 Y 9.5137 Z -1.0000 I -29.5641 J 12.2459
G00 Z 5.0000
M05 (turn off plasma)
(End cutting path id: path7360)

(Start cutting path id: path7358)
(Change tool to Plasma cutter)
 
G00 Z 5.0000
G00 X 415.7685 Y 9.5137
G31 Z -100.0000 F 500.0000 (f 500.0000ind metal)
G92 Z 0.0000 (z 0.0000ero z 0.0000)
G00 Z 10.0000 F 500.0000 (going up)
M03 (turn on plasma)
G04 P0.2 (pause)
G01 Z 1.0000 (going to cutting z 1.0000)
G01 Z -1.0000 F 100.0000(Penetrate)
G02 X 405.3870 Y 2.5770 Z -1.0000 I -22.6274 J 22.6274 F 400.0000
G02 X 393.1411 Y 0.1411 Z -1.0000 I -12.2459 J 29.5641
G00 Z 5.0000
M05 (turn off plasma)
(End cutting path id: path7358)

(Start cutting path id: path7356)
(Change tool to Plasma cutter)
 
G00 Z 5.0000
G00 X 393.1411 Y 219.8608
G31 Z -100.0000 F 500.0000 (f 500.0000ind metal)
G92 Z 0.0000 (z 0.0000ero z 0.0000)
G00 Z 10.0000 F 500.0000 (going up)
M03 (turn on plasma)
G04 P0.2 (pause)
G01 Z 1.0000 (going to cutting z 1.0000)
G01 Z -1.0000 F 100.0000(Penetrate)
G02 X 405.3870 Y 217.4249 Z -1.0000 I -0.0000 J -32.0000 F 400.0000
G02 X 415.7685 Y 210.4882 Z -1.0000 I -12.2459 J -29.5641
G00 Z 5.0000
M05 (turn off plasma)
(End cutting path id: path7356)

(Start cutting path id: path7354)
(Change tool to Plasma cutter)
 
G00 Z 5.0000
G00 X 415.7685 Y 210.4882
G31 Z -100.0000 F 500.0000 (f 500.0000ind metal)
G92 Z 0.0000 (z 0.0000ero z 0.0000)
G00 Z 10.0000 F 500.0000 (going up)
M03 (turn on plasma)
G04 P0.2 (pause)
G01 Z 1.0000 (going to cutting z 1.0000)
G01 Z -1.0000 F 100.0000(Penetrate)
G02 X 422.7052 Y 200.1066 Z -1.0000 I -22.6274 J -22.6274 F 400.0000
G02 X 425.1411 Y 187.8608 Z -1.0000 I -29.5641 J -12.2459
G00 Z 5.0000
M05 (turn off plasma)
(End cutting path id: path7354)



(Footer)
M5
G00 X0.0000 Y0.0000
M2
(Using default footer. To add your own footer create file "footer" in the output dir.)
(end)
%