%
(Generated by SketchUcam V1.4-22ee)
(File: detail3.skp)
(Bit diameter: 3,2mm)
(Feed rate: 2540,0mm/min)
(Material Thickness: 3,0mm)
(Material length: 3000,0mm X width: 4000,0mm)
(Overhead Gantry: false)
(Plunge Depth first)
(Using plain toolchange)
(Optimization is ON)
(www.PhlatBoyz.com)
G90 G21 G49  G17
(T0 M06)
(M3 S8000)
(Group: _ca_90.0_cd_6,4mm)
G00 Z30.000
 X274.858 Y217.519
(plungeCSINK X274.86,Y217.52,zs 0.00,zo -3.000)
(diam 3.20, 90.00deg, cdiam 6.40)
G00 Z0.500
G01 Z-3.000 F2540
G00 Z0.500
G00 Y217.519 Z30.000
G00 Z0.508
G01 Z0.000 F2540
G00 X274.858 Y217.519
G03 X274.858 Y215.919 Z-0.250 I0.000 J-0.800
G03 X276.458 Y217.519 I0.000 J1.600
G03 X274.858 Y219.119 I-1.600 J0.000
G03 X273.258 Y217.519 I0.000 J-1.600
G03 X274.858 Y215.919 I1.600 J0.000
G00 Z-0.199
G00 X274.858 Y217.519
G03 X274.858 Y216.169 Z-0.500 I0.000 J-0.675
G03 X276.208 Y217.519 I0.000 J1.350
G03 X274.858 Y218.869 I-1.350 J0.000
G03 X273.508 Y217.519 I0.000 J-1.350
G03 X274.858 Y216.169 I1.350 J0.000
G00 Z-0.449
G00 X274.858 Y217.519
G03 X274.858 Y216.419 Z-0.750 I0.000 J-0.550
G03 X275.958 Y217.519 I0.000 J1.100
G03 X274.858 Y218.619 I-1.100 J0.000
G03 X273.758 Y217.519 I0.000 J-1.100
G03 X274.858 Y216.419 I1.100 J0.000
G00 Z-0.699
G00 X274.858 Y217.519
G03 X274.858 Y216.669 Z-1.000 I0.000 J-0.425
G03 X275.708 Y217.519 I0.000 J0.850
G03 X274.858 Y218.369 I-0.850 J0.000
G03 X274.008 Y217.519 I0.000 J-0.850
G03 X274.858 Y216.669 I0.850 J0.000
G00 Z-0.949
G00 X274.858 Y217.519
G03 X274.858 Y216.919 Z-1.250 I0.000 J-0.300
G03 X275.458 Y217.519 I0.000 J0.600
G03 X274.858 Y218.119 I-0.600 J0.000
G03 X274.258 Y217.519 I0.000 J-0.600
G03 X274.858 Y216.919 I0.600 J0.000
G00 Z-1.199
G00 X274.858 Y217.519
G03 X274.858 Y217.169 Z-1.500 I0.000 J-0.175
G03 X275.208 Y217.519 I0.000 J0.350
G03 X274.858 Y217.869 I-0.350 J0.000
G03 X274.508 Y217.519 I0.000 J-0.350
G03 X274.858 Y217.169 I0.350 J0.000
G00 Z-1.449
G00 X274.858 Y217.519
G03 X274.858 Y217.419 Z-1.750 I0.000 J-0.050
G03 X274.958 Y217.519 I0.000 J0.100
G03 X274.858 Y217.619 I-0.100 J0.000
G03 X274.758 Y217.519 I0.000 J-0.100
G03 X274.858 Y217.419 I0.100 J0.000
G00 Z-1.699
G00 Y217.519 Z30.000
(Group complete: _ca_90.0_cd_6,4mm)
(Group: _ca_90.0_cd_6,4mm)
G00 X267.534 Y237.047
(plungeCSINK X267.53,Y237.05,zs 0.00,zo -3.000)
(diam 3.20, 90.00deg, cdiam 6.40)
G00 Z0.500
G01 Z-3.000 F2540
G00 Z0.500
G00 Y237.047 Z30.000
G00 Z0.508
G01 Z0.000 F2540
G00 X267.534 Y237.047
G03 X267.534 Y235.447 Z-0.250 I0.000 J-0.800
G03 X269.134 Y237.047 I0.000 J1.600
G03 X267.534 Y238.647 I-1.600 J0.000
G03 X265.934 Y237.047 I0.000 J-1.600
G03 X267.534 Y235.447 I1.600 J0.000
G00 Z-0.199
G00 X267.534 Y237.047
G03 X267.534 Y235.697 Z-0.500 I0.000 J-0.675
G03 X268.884 Y237.047 I0.000 J1.350
G03 X267.534 Y238.397 I-1.350 J0.000
G03 X266.184 Y237.047 I0.000 J-1.350
G03 X267.534 Y235.697 I1.350 J0.000
G00 Z-0.449
G00 X267.534 Y237.047
G03 X267.534 Y235.947 Z-0.750 I0.000 J-0.550
G03 X268.634 Y237.047 I0.000 J1.100
G03 X267.534 Y238.147 I-1.100 J0.000
G03 X266.434 Y237.047 I0.000 J-1.100
G03 X267.534 Y235.947 I1.100 J0.000
G00 Z-0.699
G00 X267.534 Y237.047
G03 X267.534 Y236.197 Z-1.000 I0.000 J-0.425
G03 X268.384 Y237.047 I0.000 J0.850
G03 X267.534 Y237.897 I-0.850 J0.000
G03 X266.684 Y237.047 I0.000 J-0.850
G03 X267.534 Y236.197 I0.850 J0.000
G00 Z-0.949
G00 X267.534 Y237.047
G03 X267.534 Y236.447 Z-1.250 I0.000 J-0.300
G03 X268.134 Y237.047 I0.000 J0.600
G03 X267.534 Y237.647 I-0.600 J0.000
G03 X266.934 Y237.047 I0.000 J-0.600
G03 X267.534 Y236.447 I0.600 J0.000
G00 Z-1.199
G00 X267.534 Y237.047
G03 X267.534 Y236.697 Z-1.500 I0.000 J-0.175
G03 X267.884 Y237.047 I0.000 J0.350
G03 X267.534 Y237.397 I-0.350 J0.000
G03 X267.184 Y237.047 I0.000 J-0.350
G03 X267.534 Y236.697 I0.350 J0.000
G00 Z-1.449
G00 X267.534 Y237.047
G03 X267.534 Y236.947 Z-1.750 I0.000 J-0.050
G03 X267.634 Y237.047 I0.000 J0.100
G03 X267.534 Y237.147 I-0.100 J0.000
G03 X267.434 Y237.047 I0.000 J-0.100
G03 X267.534 Y236.947 I0.100 J0.000
G00 Z-1.699
G00 Y237.047 Z30.000
(Group complete: _ca_90.0_cd_6,4mm)
(Group: _ca_90.0_cd_6,4mm)
G00 X278.031 Y186.112
(plungeCSINK X278.03,Y186.11,zs 0.00,zo -3.000)
(diam 3.20, 90.00deg, cdiam 6.40)
G00 Z0.500
G01 Z-3.000 F2540
G00 Z0.500
G00 Y186.112 Z30.000
G00 Z0.508
G01 Z0.000 F2540
G00 X278.031 Y186.112
G03 X278.031 Y184.512 Z-0.250 I0.000 J-0.800
G03 X279.631 Y186.112 I0.000 J1.600
G03 X278.031 Y187.712 I-1.600 J0.000
G03 X276.431 Y186.112 I0.000 J-1.600
G03 X278.031 Y184.512 I1.600 J0.000
G00 Z-0.199
G00 X278.031 Y186.112
G03 X278.031 Y184.762 Z-0.500 I0.000 J-0.675
G03 X279.381 Y186.112 I0.000 J1.350
G03 X278.031 Y187.462 I-1.350 J0.000
G03 X276.681 Y186.112 I0.000 J-1.350
G03 X278.031 Y184.762 I1.350 J0.000
G00 Z-0.449
G00 X278.031 Y186.112
G03 X278.031 Y185.012 Z-0.750 I0.000 J-0.550
G03 X279.131 Y186.112 I0.000 J1.100
G03 X278.031 Y187.212 I-1.100 J0.000
G03 X276.931 Y186.112 I0.000 J-1.100
G03 X278.031 Y185.012 I1.100 J0.000
G00 Z-0.699
G00 X278.031 Y186.112
G03 X278.031 Y185.262 Z-1.000 I0.000 J-0.425
G03 X278.881 Y186.112 I0.000 J0.850
G03 X278.031 Y186.962 I-0.850 J0.000
G03 X277.181 Y186.112 I0.000 J-0.850
G03 X278.031 Y185.262 I0.850 J0.000
G00 Z-0.949
G00 X278.031 Y186.112
G03 X278.031 Y185.512 Z-1.250 I0.000 J-0.300
G03 X278.631 Y186.112 I0.000 J0.600
G03 X278.031 Y186.712 I-0.600 J0.000
G03 X277.431 Y186.112 I0.000 J-0.600
G03 X278.031 Y185.512 I0.600 J0.000
G00 Z-1.199
G00 X278.031 Y186.112
G03 X278.031 Y185.762 Z-1.500 I0.000 J-0.175
G03 X278.381 Y186.112 I0.000 J0.350
G03 X278.031 Y186.462 I-0.350 J0.000
G03 X277.681 Y186.112 I0.000 J-0.350
G03 X278.031 Y185.762 I0.350 J0.000
G00 Z-1.449
G00 X278.031 Y186.112
G03 X278.031 Y186.012 Z-1.750 I0.000 J-0.050
G03 X278.131 Y186.112 I0.000 J0.100
G03 X278.031 Y186.212 I-0.100 J0.000
G03 X277.931 Y186.112 I0.000 J-0.100
G03 X278.031 Y186.012 I0.100 J0.000
G00 Z-1.699
G00 Y186.112 Z30.000
(Group complete: _ca_90.0_cd_6,4mm)
G00 X2.394 Y33.350
G00 Z0.500
G01 Z-1.500 F2540
 X27.592
G00 Z30.000
 X28.386
G00 Z0.500
G01 Z-3.000 F2540
G02 X28.7819 Y36.3559 R8.4000
 X29.9421 Y39.1569 R8.4000
 X31.7878 Y41.5622 R8.4000
 X34.1931 Y43.4079 R8.4000
 X36.9941 Y44.5681 R8.4000
 X39.8951 Y44.9500 R8.4000
G01 X58.400
 Y65.100
 X1.600
 Y1.600
 X58.400
 Y21.750
 X39.895
G02 X36.9941 Y22.1319 R8.4000
 X34.1931 Y23.2921 R8.4000
 X31.7878 Y25.1378 R8.4000
 X29.9421 Y27.5431 R8.4000
 X28.7819 Y30.3441 R8.4000
 X28.3862 Y33.3500 R8.4000
G00 Z30.000
 X31.614
G00 Z0.500
G01 Z-3.000 F2540
G03 X31.8996 Y31.1795 R11.6000
 X32.7373 Y29.1569 R11.6000
 X34.0701 Y27.4201 R11.6000
 X35.8069 Y26.0873 R11.6000
 X37.8295 Y25.2496 R11.6000
 X40.1049 Y24.9500 R11.6000
G01 X61.600
(move y= -0.062992 LT min of 0.0)
 Y0.000
(move x= -0.062992 LT min of 0.0)
(move y= -0.062992 LT min of 0.0)
 X0.000
(move x= -0.062992 LT min of 0.0)
 Y68.300
 X61.600
 Y41.750
 X40.105
G03 X37.8295 Y41.4504 R11.6000
 X35.8069 Y40.6127 R11.6000
 X34.0701 Y39.2799 R11.6000
 X32.7373 Y37.5431 R11.6000
 X31.8996 Y35.5205 R11.6000
 X31.6138 Y33.3500 R11.6000
G00 Z30.000
 X1.991 Y131.116
G00 Z0.500
G01 Z-3.000 F2540
 Y212.916
G00 Z30.000
 Y131.116
G00 Z0.500
G01 Z-3.000 F2540
G00 Z30.000
 Y212.916
G00 Z0.500
G01 Z-3.000 F2540
 Y131.116
G00 Z30.000
 Y212.916
G00 Z0.500
G01 Z-3.000 F2540
G00 Z30.000
 X0.391 Y216.116
G00 Z0.500
G01 Z-3.000 F2540
 X20.391
G00 Z30.000
 X0.391 Y129.516
G00 Z0.500
G01 Z-3.000 F2540
 Y216.116
G00 Z30.000
 Y124.765
G00 Z0.500
G01 Z-3.000 F2540
 Y129.516
G00 Z30.000
 X0.478 Y123.807
G00 Z0.500
G01 Z-3.000 F2540
G03 X0.3912 Y124.7653 R19.2777
G00 Z30.000
 X1.198 Y120.918
G00 Z0.500
G01 Z-3.000 F2540
G03 X0.4776 Y123.8066 R19.2777
G00 Z30.000
 X2.355 Y118.175
G00 Z0.500
G01 Z-3.000 F2540
G03 X1.1983 Y120.9180 R19.2777
G00 Z30.000
 X3.920 Y115.642
G00 Z0.500
G01 Z-3.000 F2540
G03 X2.3549 Y118.1748 R19.2777
G00 Z30.000
 X5.856 Y113.381
G00 Z0.500
G01 Z-3.000 F2540
G03 X3.9201 Y115.6423 R19.2777
G00 Z30.000
 X8.118 Y111.445
G00 Z0.500
G01 Z-3.000 F2540
G03 X5.8564 Y113.3809 R19.2777
G00 Z30.000
 X10.650 Y109.879
G00 Z0.500
G01 Z-3.000 F2540
G03 X8.1178 Y111.4446 R19.2777
G00 Z30.000
 X13.394 Y108.723
G00 Z0.500
G01 Z-3.000 F2540
G03 X10.6503 Y109.8794 R19.2777
G00 Z30.000
 X16.282 Y108.002
G00 Z0.500
G01 Z-3.000 F2540
G03 X13.3936 Y108.7227 R19.2777
G00 Z30.000
 X17.241 Y107.916
G00 Z0.500
G01 Z-3.000 F2540
G03 X16.2822 Y108.0021 R19.2777
G00 Z30.000
 X21.991 Y107.916
G00 Z0.500
G01 Z-3.000 F2540
 X17.241
G00 Z30.000
 X183.591
G00 Z0.500
G01 Z-3.000 F2540
 X21.991
G00 Z30.000
 X183.591 Y127.916
G00 Z0.500
G01 Z-3.000 F2540
 Y107.916
G00 Z30.000
 X220.391 Y127.916
G00 Z0.500
G01 Z-3.000 F2540
 X183.591
G00 Z30.000
 X220.391 Y107.916
G00 Z0.500
G01 Z-3.000 F2540
 Y127.916
G00 Z30.000
 X381.991 Y107.916
G00 Z0.500
G01 Z-3.000 F2540
 X220.391
G00 Z30.000
 X386.742
G00 Z0.500
G01 Z-3.000 F2540
 X381.991
G00 Z30.000
 X387.700 Y108.002
G00 Z0.500
G01 Z-3.000 F2540
G03 X386.7415 Y107.9157 R19.2777
G00 Z30.000
 X390.589 Y108.723
G00 Z0.500
G01 Z-3.000 F2540
G03 X387.7003 Y108.0021 R19.2777
G00 Z30.000
 X393.332 Y109.879
G00 Z0.500
G01 Z-3.000 F2540
G03 X390.5889 Y108.7227 R19.2777
G00 Z30.000
 X395.865 Y111.445
G00 Z0.500
G01 Z-3.000 F2540
G03 X393.3321 Y109.8794 R19.2777
G00 Z30.000
 X398.126 Y113.381
G00 Z0.500
G01 Z-3.000 F2540
G03 X395.8646 Y111.4446 R19.2777
G00 Z30.000
 X400.062 Y115.642
G00 Z0.500
G01 Z-3.000 F2540
G03 X398.1260 Y113.3809 R19.2777
G00 Z30.000
 X401.627 Y118.175
G00 Z0.500
G01 Z-3.000 F2540
G03 X400.0623 Y115.6423 R19.2777
G00 Z30.000
 X402.784 Y120.918
G00 Z0.500
G01 Z-3.000 F2540
G03 X401.6275 Y118.1748 R19.2777
G00 Z30.000
 X403.505 Y123.807
G00 Z0.500
G01 Z-3.000 F2540
G03 X402.7841 Y120.9180 R19.2777
G00 Z30.000
 X403.591 Y124.765
G00 Z0.500
G01 Z-3.000 F2540
G03 X403.5048 Y123.8066 R19.2777
G00 Z30.000
 X403.591 Y129.516
G00 Z0.500
G01 Z-3.000 F2540
 Y124.765
G00 Z30.000
 Y216.116
G00 Z0.500
G01 Z-3.000 F2540
 Y129.516
G00 Z30.000
 X383.591 Y216.116
G00 Z0.500
G01 Z-3.000 F2540
 X403.591
G00 Z30.000
 X383.591 Y252.916
G00 Z0.500
G01 Z-3.000 F2540
 Y216.116
G00 Z30.000
 X403.591 Y252.916
G00 Z0.500
G01 Z-3.000 F2540
 X383.591
G00 Z30.000
 X403.591 Y339.516
G00 Z0.500
G01 Z-3.000 F2540
 Y252.916
G00 Z30.000
 Y344.266
G00 Z0.500
G01 Z-3.000 F2540
 Y339.516
G00 Z30.000
 X403.505 Y345.225
G00 Z0.500
G01 Z-3.000 F2540
G03 X403.5912 Y344.2660 R19.2777
G00 Z30.000
 X402.784 Y348.113
G00 Z0.500
G01 Z-3.000 F2540
G03 X403.5048 Y345.2247 R19.2777
G00 Z30.000
 X401.627 Y350.857
G00 Z0.500
G01 Z-3.000 F2540
G03 X402.7841 Y348.1133 R19.2777
G00 Z30.000
 X400.062 Y353.389
G00 Z0.500
G01 Z-3.000 F2540
G03 X401.6275 Y350.8566 R19.2777
G00 Z30.000
 X398.126 Y355.650
G00 Z0.500
G01 Z-3.000 F2540
G03 X400.0623 Y353.3891 R19.2777
G00 Z30.000
 X395.865 Y357.587
G00 Z0.500
G01 Z-3.000 F2540
G03 X398.1260 Y355.6504 R19.2777
G00 Z30.000
 X393.332 Y359.152
G00 Z0.500
G01 Z-3.000 F2540
G03 X395.8646 Y357.5868 R19.2777
G00 Z30.000
 X390.589 Y360.309
G00 Z0.500
G01 Z-3.000 F2540
G03 X393.3321 Y359.1520 R19.2777
G00 Z30.000
 X387.700 Y361.029
G00 Z0.500
G01 Z-3.000 F2540
G03 X390.5889 Y360.3086 R19.2777
G00 Z30.000
 X386.742 Y361.116
G00 Z0.500
G01 Z-3.000 F2540
G03 X387.7003 Y361.0292 R19.2777
G00 Z30.000
 X381.991 Y361.116
G00 Z0.500
G01 Z-3.000 F2540
 X386.742
G00 Z30.000
 X220.391
G00 Z0.500
G01 Z-3.000 F2540
 X381.991
G00 Z30.000
 X220.391 Y341.116
G00 Z0.500
G01 Z-3.000 F2540
 Y361.116
G00 Z30.000
 X183.591 Y341.116
G00 Z0.500
G01 Z-3.000 F2540
 X220.391
G00 Z30.000
 X183.591 Y361.116
G00 Z0.500
G01 Z-3.000 F2540
 Y341.116
G00 Z30.000
 X21.991 Y361.116
G00 Z0.500
G01 Z-3.000 F2540
 X183.591
G00 Z30.000
 X17.241
G00 Z0.500
G01 Z-3.000 F2540
 X21.991
G00 Z30.000
 X16.282 Y361.029
G00 Z0.500
G01 Z-3.000 F2540
G03 X17.2409 Y361.1157 R19.2777
G00 Z30.000
 X13.394 Y360.309
G00 Z0.500
G01 Z-3.000 F2540
G03 X16.2822 Y361.0292 R19.2777
G00 Z30.000
 X10.650 Y359.152
G00 Z0.500
G01 Z-3.000 F2540
G03 X13.3936 Y360.3086 R19.2777
G00 Z30.000
 X8.118 Y357.587
G00 Z0.500
G01 Z-3.000 F2540
G03 X10.6503 Y359.1520 R19.2777
G00 Z30.000
 X5.856 Y355.650
G00 Z0.500
G01 Z-3.000 F2540
G03 X8.1178 Y357.5868 R19.2777
G00 Z30.000
 X3.920 Y353.389
G00 Z0.500
G01 Z-3.000 F2540
G03 X5.8564 Y355.6504 R19.2777
G00 Z30.000
 X2.355 Y350.857
G00 Z0.500
G01 Z-3.000 F2540
G03 X3.9201 Y353.3891 R19.2777
G00 Z30.000
 X1.198 Y348.113
G00 Z0.500
G01 Z-3.000 F2540
G03 X2.3549 Y350.8566 R19.2777
G00 Z30.000
 X0.478 Y345.225
G00 Z0.500
G01 Z-3.000 F2540
G03 X1.1983 Y348.1133 R19.2777
G00 Z30.000
 X0.391 Y344.266
G00 Z0.500
G01 Z-3.000 F2540
G03 X0.4776 Y345.2247 R19.2777
G00 Z30.000
 X0.391 Y339.516
G00 Z0.500
G01 Z-3.000 F2540
 Y344.266
G00 Z30.000
 Y252.916
G00 Z0.500
G01 Z-3.000 F2540
 Y339.516
G00 Z30.000
 X20.391 Y252.916
G00 Z0.500
G01 Z-3.000 F2540
 X0.391
G00 Z30.000
 X20.391 Y216.116
G00 Z0.500
G01 Z-3.000 F2540
 Y252.916
G00 Z30.000
G00 X0 Y0 (home)
(M05)
(M30)
%
