%
(Header)
(Generated by gcodetools from Inkscape.)
(Using default header. To add your own header create file "header" in the output dir.)
(M3)
(Header end.)
G21 (All units in mm)

(Start cutting path id: face0-cut)
(Change tool to Default tool)

G00 Z5.000000
G00 X-50.098117 Y56.453676

G01 Z-0.125000 F100.0(Penetrate)
G01 X-48.684400 Y56.453676 Z-0.125000 F400.000000
G01 X-48.684400 Y45.164787 Z-0.125000
G01 X-54.328845 Y45.164787 Z-0.125000
G01 X-54.328845 Y19.944901 Z-0.125000
G01 X-55.742562 Y19.944901 Z-0.125000
G00 Z5.000000

(End cutting path id: face0-cut)


(Start cutting path id: face0-cut)
(Change tool to Default tool)

G00 Z5.000000
G00 X-55.742562 Y19.952239

G01 Z-0.125000 F100.0(Penetrate)
G01 X-54.328845 Y19.952239 Z-0.125000 F400.000000
G01 X-54.328845 Y19.855465 Z-0.125000
G01 X-54.309400 Y19.639931 Z-0.125000
G01 X-54.122955 Y18.892579 Z-0.125000
G01 X-53.823684 Y18.182790 Z-0.125000
G01 X-53.418723 Y17.527555 Z-0.125000
G01 X-52.917722 Y16.942451 Z-0.125000
G01 X-52.332628 Y16.441451 Z-0.125000
G01 X-51.677384 Y16.036490 Z-0.125000
G01 X-50.967615 Y15.737221 Z-0.125000
G01 X-50.220237 Y15.550785 Z-0.125000
G01 X-48.709908 Y15.531312 Z-0.125000
G01 X-48.728134 Y14.117713 Z-0.125000
G00 Z5.000000

(End cutting path id: face0-cut)


(Start cutting path id: face0-cut)
(Change tool to Default tool)

G00 Z5.000000
G00 X-48.684395 Y14.117595

G01 Z-0.125000 F100.0(Penetrate)
G01 X-48.684395 Y15.531312 Z-0.125000 F400.000000
G01 X-38.806617 Y15.531312 Z-0.125000
G01 X-38.806617 Y21.175757 Z-0.125000
G01 X-27.517728 Y21.175757 Z-0.125000
G01 X-27.517728 Y15.531312 Z-0.125000
G01 X-17.639948 Y15.531312 Z-0.125000
G01 X-17.639948 Y14.117595 Z-0.125000
G00 Z5.000000

(End cutting path id: face0-cut)


(Start cutting path id: face0-cut)
(Change tool to Default tool)

G00 Z5.000000
G00 X-17.614658 Y14.117710

G01 Z-0.125000 F100.0(Penetrate)
G01 X-17.632667 Y15.531312 Z-0.125000 F400.000000
G01 X-16.104101 Y15.550785 Z-0.125000
G01 X-15.356723 Y15.737221 Z-0.125000
G01 X-14.646951 Y16.036490 Z-0.125000
G01 X-13.991710 Y16.441451 Z-0.125000
G01 X-13.406612 Y16.942451 Z-0.125000
G01 X-12.905614 Y17.527555 Z-0.125000
G01 X-12.500651 Y18.182790 Z-0.125000
G01 X-12.201382 Y18.892579 Z-0.125000
G01 X-12.014935 Y19.639931 Z-0.125000
G01 X-11.995490 Y19.855465 Z-0.125000
G01 X-10.587492 Y19.728437 Z-0.125000
G00 Z5.000000

(End cutting path id: face0-cut)


(Start cutting path id: face0-cut)
(Change tool to Default tool)

G00 Z5.000000
G00 X-10.568876 Y19.835300

G01 Z-0.125000 F100.0(Penetrate)
G01 X-11.982592 Y19.834580 Z-0.125000 F400.000000
G01 X-11.995490 Y45.164589 Z-0.125000
G01 X-17.639934 Y45.164589 Z-0.125000
G01 X-17.639934 Y56.453478 Z-0.125000
G01 X-11.995490 Y56.453478 Z-0.125000
G01 X-11.995490 Y80.442367 Z-0.125000
G01 X-10.581773 Y80.442367 Z-0.125000
G00 Z5.000000

(End cutting path id: face0-cut)


(Start cutting path id: face0-cut)
(Change tool to Default tool)

G00 Z5.000000
G00 X-10.590921 Y80.449041

G01 Z-0.125000 F100.0(Penetrate)
G01 X-12.004606 Y80.439545 Z-0.125000 F400.000000
G01 X-12.014935 Y81.977233 Z-0.125000
G01 X-12.201382 Y82.724614 Z-0.125000
G01 X-12.500651 Y83.434374 Z-0.125000
G01 X-12.905614 Y84.089610 Z-0.125000
G01 X-13.406612 Y84.674713 Z-0.125000
G01 X-13.991710 Y85.175714 Z-0.125000
G01 X-14.646951 Y85.580674 Z-0.125000
G01 X-15.356723 Y85.879943 Z-0.125000
G01 X-16.104101 Y86.066407 Z-0.125000
G01 X-17.645917 Y86.083905 Z-0.125000
G01 X-17.629874 Y87.497530 Z-0.125000
G00 Z5.000000

(End cutting path id: face0-cut)


(Start cutting path id: face0-cut)
(Change tool to Default tool)

G00 Z5.000000
G00 X-17.639934 Y87.500444

G01 Z-0.125000 F100.0(Penetrate)
G01 X-17.639934 Y86.086727 Z-0.125000 F400.000000
G01 X-27.517714 Y86.086727 Z-0.125000
G01 X-27.517714 Y80.442283 Z-0.125000
G01 X-38.806603 Y80.442283 Z-0.125000
G01 X-38.806603 Y86.086727 Z-0.125000
G01 X-48.684381 Y86.086727 Z-0.125000
G01 X-48.684381 Y87.500444 Z-0.125000
G00 Z5.000000

(End cutting path id: face0-cut)


(Start cutting path id: face0-cut)
(Change tool to Default tool)

G00 Z5.000000
G00 X-48.681293 Y87.500333

G01 Z-0.125000 F100.0(Penetrate)
G01 X-48.663609 Y86.086727 Z-0.125000 F400.000000
G01 X-50.220242 Y86.067254 Z-0.125000
G01 X-50.967621 Y85.880789 Z-0.125000
G01 X-51.677393 Y85.581521 Z-0.125000
G01 X-52.332633 Y85.176560 Z-0.125000
G01 X-52.917728 Y84.675559 Z-0.125000
G01 X-53.418729 Y84.090456 Z-0.125000
G01 X-53.823693 Y83.435221 Z-0.125000
G01 X-54.122961 Y82.725460 Z-0.125000
G01 X-54.309408 Y81.978079 Z-0.125000
G01 X-54.341737 Y80.473045 Z-0.125000
G01 X-55.755128 Y80.503405 Z-0.125000
G00 Z5.000000

(End cutting path id: face0-cut)


(Start cutting path id: face0-cut)
(Change tool to Default tool)

G00 Z5.000000
G00 X-55.742556 Y80.442226

G01 Z-0.125000 F100.0(Penetrate)
G01 X-54.328839 Y80.442226 Z-0.125000 F400.000000
G01 X-54.328839 Y56.453337 Z-0.125000
G01 X-48.684395 Y56.453337 Z-0.125000
G01 X-48.684395 Y55.039620 Z-0.125000
G00 Z5.000000

(End cutting path id: face0-cut)


(Start cutting path id: face0-cut)
(Change tool to Default tool)

G00 Z5.000000
G00 X-37.212666 Y49.532523

G01 Z-0.125000 F100.0(Penetrate)
G01 X-38.614288 Y49.347997 Z-0.125000 F400.000000
G01 X-38.806617 Y50.808893 Z-0.125000
G01 X-38.614288 Y52.269788 Z-0.125000
G01 X-38.050405 Y53.631115 Z-0.125000
G01 X-37.153399 Y54.800136 Z-0.125000
G01 X-35.984395 Y55.697123 Z-0.125000
G01 X-34.623062 Y56.261003 Z-0.125000
G01 X-33.162172 Y56.453337 Z-0.125000
G01 X-31.701283 Y56.261003 Z-0.125000
G01 X-30.339950 Y55.697123 Z-0.125000
G01 X-29.170949 Y54.800136 Z-0.125000
G01 X-28.273942 Y53.631115 Z-0.125000
G01 X-27.710059 Y52.269788 Z-0.125000
G01 X-27.517729 Y50.808893 Z-0.125000
G01 X-27.710059 Y49.347997 Z-0.125000
G01 X-28.273942 Y47.986670 Z-0.125000
G01 X-29.170949 Y46.817678 Z-0.125000
G01 X-30.339950 Y45.920663 Z-0.125000
G01 X-31.701283 Y45.356783 Z-0.125000
G01 X-33.162172 Y45.164448 Z-0.125000
G01 X-34.623062 Y45.356783 Z-0.125000
G01 X-35.984395 Y45.920663 Z-0.125000
G01 X-37.153399 Y46.817678 Z-0.125000
G01 X-38.050405 Y47.986670 Z-0.125000
G01 X-38.614288 Y49.347997 Z-0.125000
G01 X-37.308185 Y49.889006 Z-0.125000
G00 Z5.000000

(End cutting path id: face0-cut)


(Footer)
(M5)
G00 X0.0000 Y0.0000
(M2)
(Using default footer. To add your own footer create file "footer" in the output dir.)
(end)
%