%
(Header)
(Generated by gcodetools from Inkscape.)
(Using default header. To add your own header create file "header" in the output dir.)
M3
(Header end.)
G21 (All units in mm)

(Pass at depth -1.0)
(Start cutting path id: path4440)
(Change tool to Plasma cutter)
 
G00 Z5.000000
G00 X305.641106 Y179.000943
G31 Z-100 F500 (find metal)
G92 Z0 (zero z)
G00 Z10 F500 (going up)
M03 (turn on plasma)
G04 P0.2 (pause)
G01 Z1 (going to cutting z)
G01 Z-1.000000 F100.0(Penetrate)
G01 X265.141116 Y179.000943 Z-1.000000 F400.000000
G00 Z5.000000
M05 (turn off plasma)
(End cutting path id: path4440)

(Start cutting path id: path4438)
(Change tool to Plasma cutter)
 
G00 Z5.000000
G00 X95.141114 Y179.000943
G31 Z-100 F500 (find metal)
G92 Z0 (zero z)
G00 Z10 F500 (going up)
M03 (turn on plasma)
G04 P0.2 (pause)
G01 Z1 (going to cutting z)
G01 Z-1.000000 F100.0(Penetrate)
G01 X54.641112 Y179.000943 Z-1.000000 F400.000000
G00 Z5.000000
M05 (turn off plasma)
(End cutting path id: path4438)

(Start cutting path id: path4436)
(Change tool to Plasma cutter)
 
G00 Z5.000000
G00 X265.141116 Y219.860766
G31 Z-100 F500 (find metal)
G92 Z0 (zero z)
G00 Z10 F500 (going up)
M03 (turn on plasma)
G04 P0.2 (pause)
G01 Z1 (going to cutting z)
G01 Z-1.000000 F100.0(Penetrate)
G01 X95.141114 Y219.860766 Z-1.000000 F400.000000
G00 Z5.000000
M05 (turn off plasma)
(End cutting path id: path4436)

(Start cutting path id: path4434)
(Change tool to Plasma cutter)
 
G00 Z5.000000
G00 X265.141116 Y179.000943
G31 Z-100 F500 (find metal)
G92 Z0 (zero z)
G00 Z10 F500 (going up)
M03 (turn on plasma)
G04 P0.2 (pause)
G01 Z1 (going to cutting z)
G01 Z-1.000000 F100.0(Penetrate)
G01 X265.141116 Y219.860766 Z-1.000000 F400.000000
G00 Z5.000000
M05 (turn off plasma)
(End cutting path id: path4434)

(Start cutting path id: path4432)
(Change tool to Plasma cutter)
 
G00 Z5.000000
G00 X95.141114 Y179.000943
G31 Z-100 F500 (find metal)
G92 Z0 (zero z)
G00 Z10 F500 (going up)
M03 (turn on plasma)
G04 P0.2 (pause)
G01 Z1 (going to cutting z)
G01 Z-1.000000 F100.0(Penetrate)
G01 X95.141114 Y219.860766 Z-1.000000 F400.000000
G00 Z5.000000
M05 (turn off plasma)
(End cutting path id: path4432)

(Start cutting path id: path4430)
(Change tool to Plasma cutter)
 
G00 Z5.000000
G00 X54.641112 Y41.000936
G31 Z-100 F500 (find metal)
G92 Z0 (zero z)
G00 Z10 F500 (going up)
M03 (turn on plasma)
G04 P0.2 (pause)
G01 Z1 (going to cutting z)
G01 Z-1.000000 F100.0(Penetrate)
G01 X95.141114 Y41.000936 Z-1.000000 F400.000000
G00 Z5.000000
M05 (turn off plasma)
(End cutting path id: path4430)

(Start cutting path id: path4428)
(Change tool to Plasma cutter)
 
G00 Z5.000000
G00 X265.141116 Y41.000936
G31 Z-100 F500 (find metal)
G92 Z0 (zero z)
G00 Z10 F500 (going up)
M03 (turn on plasma)
G04 P0.2 (pause)
G01 Z1 (going to cutting z)
G01 Z-1.000000 F100.0(Penetrate)
G01 X305.641106 Y41.000936 Z-1.000000 F400.000000
G00 Z5.000000
M05 (turn off plasma)
(End cutting path id: path4428)

(Start cutting path id: path4426)
(Change tool to Plasma cutter)
 
G00 Z5.000000
G00 X95.141114 Y0.141112
G31 Z-100 F500 (find metal)
G92 Z0 (zero z)
G00 Z10 F500 (going up)
M03 (turn on plasma)
G04 P0.2 (pause)
G01 Z1 (going to cutting z)
G01 Z-1.000000 F100.0(Penetrate)
G01 X265.141116 Y0.141112 Z-1.000000 F400.000000
G00 Z5.000000
M05 (turn off plasma)
(End cutting path id: path4426)

(Start cutting path id: path4424)
(Change tool to Plasma cutter)
 
G00 Z5.000000
G00 X95.141114 Y41.000936
G31 Z-100 F500 (find metal)
G92 Z0 (zero z)
G00 Z10 F500 (going up)
M03 (turn on plasma)
G04 P0.2 (pause)
G01 Z1 (going to cutting z)
G01 Z-1.000000 F100.0(Penetrate)
G01 X95.141114 Y0.141112 Z-1.000000 F400.000000
G00 Z5.000000
M05 (turn off plasma)
(End cutting path id: path4424)

(Start cutting path id: path4422)
(Change tool to Plasma cutter)
 
G00 Z5.000000
G00 X265.141116 Y41.000936
G31 Z-100 F500 (find metal)
G92 Z0 (zero z)
G00 Z10 F500 (going up)
M03 (turn on plasma)
G04 P0.2 (pause)
G01 Z1 (going to cutting z)
G01 Z-1.000000 F100.0(Penetrate)
G01 X265.141116 Y0.141112 Z-1.000000 F400.000000
G00 Z5.000000
M05 (turn off plasma)
(End cutting path id: path4422)

(Start cutting path id: path4420)
(Change tool to Plasma cutter)
 
G00 Z5.000000
G00 X54.641112 Y219.860766
G31 Z-100 F500 (find metal)
G92 Z0 (zero z)
G00 Z10 F500 (going up)
M03 (turn on plasma)
G04 P0.2 (pause)
G01 Z1 (going to cutting z)
G01 Z-1.000000 F100.0(Penetrate)
G01 X32.141112 Y219.860766 Z-1.000000 F400.000000
G00 Z5.000000
M05 (turn off plasma)
(End cutting path id: path4420)

(Start cutting path id: path4418)
(Change tool to Plasma cutter)
 
G00 Z5.000000
G00 X54.641112 Y179.000943
G31 Z-100 F500 (find metal)
G92 Z0 (zero z)
G00 Z10 F500 (going up)
M03 (turn on plasma)
G04 P0.2 (pause)
G01 Z1 (going to cutting z)
G01 Z-1.000000 F100.0(Penetrate)
G01 X54.641112 Y219.860766 Z-1.000000 F400.000000
G00 Z5.000000
M05 (turn off plasma)
(End cutting path id: path4418)

(Start cutting path id: path4416)
(Change tool to Plasma cutter)
 
G00 Z5.000000
G00 X32.141112 Y0.141112
G31 Z-100 F500 (find metal)
G92 Z0 (zero z)
G00 Z10 F500 (going up)
M03 (turn on plasma)
G04 P0.2 (pause)
G01 Z1 (going to cutting z)
G01 Z-1.000000 F100.0(Penetrate)
G01 X54.641112 Y0.141112 Z-1.000000 F400.000000
G00 Z5.000000
M05 (turn off plasma)
(End cutting path id: path4416)

(Start cutting path id: path4414)
(Change tool to Plasma cutter)
 
G00 Z5.000000
G00 X54.641112 Y41.000936
G31 Z-100 F500 (find metal)
G92 Z0 (zero z)
G00 Z10 F500 (going up)
M03 (turn on plasma)
G04 P0.2 (pause)
G01 Z1 (going to cutting z)
G01 Z-1.000000 F100.0(Penetrate)
G01 X54.641112 Y0.141112 Z-1.000000 F400.000000
G00 Z5.000000
M05 (turn off plasma)
(End cutting path id: path4414)

(Start cutting path id: path4412)
(Change tool to Plasma cutter)
 
G00 Z5.000000
G00 X393.141115 Y219.860766
G31 Z-100 F500 (find metal)
G92 Z0 (zero z)
G00 Z10 F500 (going up)
M03 (turn on plasma)
G04 P0.2 (pause)
G01 Z1 (going to cutting z)
G01 Z-1.000000 F100.0(Penetrate)
G01 X305.641106 Y219.860766 Z-1.000000 F400.000000
G00 Z5.000000
M05 (turn off plasma)
(End cutting path id: path4412)

(Start cutting path id: path4410)
(Change tool to Plasma cutter)
 
G00 Z5.000000
G00 X305.641106 Y179.000943
G31 Z-100 F500 (find metal)
G92 Z0 (zero z)
G00 Z10 F500 (going up)
M03 (turn on plasma)
G04 P0.2 (pause)
G01 Z1 (going to cutting z)
G01 Z-1.000000 F100.0(Penetrate)
G01 X305.641106 Y219.860766 Z-1.000000 F400.000000
G00 Z5.000000
M05 (turn off plasma)
(End cutting path id: path4410)

(Start cutting path id: path4408)
(Change tool to Plasma cutter)
 
G00 Z5.000000
G00 X305.641106 Y0.141112
G31 Z-100 F500 (find metal)
G92 Z0 (zero z)
G00 Z10 F500 (going up)
M03 (turn on plasma)
G04 P0.2 (pause)
G01 Z1 (going to cutting z)
G01 Z-1.000000 F100.0(Penetrate)
G01 X393.141115 Y0.141112 Z-1.000000 F400.000000
G00 Z5.000000
M05 (turn off plasma)
(End cutting path id: path4408)

(Start cutting path id: path4406)
(Change tool to Plasma cutter)
 
G00 Z5.000000
G00 X305.641106 Y41.000936
G31 Z-100 F500 (find metal)
G92 Z0 (zero z)
G00 Z10 F500 (going up)
M03 (turn on plasma)
G04 P0.2 (pause)
G01 Z1 (going to cutting z)
G01 Z-1.000000 F100.0(Penetrate)
G01 X305.641106 Y0.141112 Z-1.000000 F400.000000
G00 Z5.000000
M05 (turn off plasma)
(End cutting path id: path4406)

(Start cutting path id: path4404)
(Change tool to Plasma cutter)
 
G00 Z5.000000
G00 X425.141107 Y32.141105
G31 Z-100 F500 (find metal)
G92 Z0 (zero z)
G00 Z10 F500 (going up)
M03 (turn on plasma)
G04 P0.2 (pause)
G01 Z1 (going to cutting z)
G01 Z-1.000000 F100.0(Penetrate)
G01 X425.141107 Y187.860773 Z-1.000000 F400.000000
G00 Z5.000000
M05 (turn off plasma)
(End cutting path id: path4404)

(Start cutting path id: path4402)
(Change tool to Plasma cutter)
 
G00 Z5.000000
G00 X425.141107 Y187.860773
G31 Z-100 F500 (find metal)
G92 Z0 (zero z)
G00 Z10 F500 (going up)
M03 (turn on plasma)
G04 P0.2 (pause)
G01 Z1 (going to cutting z)
G01 Z-1.000000 F100.0(Penetrate)
G03 X415.768524 Y210.488182 Z-1.000000 I-32.000001 J-0.000008 F400.000000
G03 X393.141115 Y219.860766 Z-1.000000 I-22.627418 J-22.627418
G00 Z5.000000
M05 (turn off plasma)
(End cutting path id: path4402)

(Start cutting path id: path4400)
(Change tool to Plasma cutter)
 
G00 Z5.000000
G00 X393.141115 Y0.141112
G31 Z-100 F500 (find metal)
G92 Z0 (zero z)
G00 Z10 F500 (going up)
M03 (turn on plasma)
G04 P0.2 (pause)
G01 Z1 (going to cutting z)
G01 Z-1.000000 F100.0(Penetrate)
G03 X415.768524 Y9.513696 Z-1.000000 I-0.000008 J32.000001 F400.000000
G03 X425.141107 Y32.141105 Z-1.000000 I-22.627418 J22.627418
G00 Z5.000000
M05 (turn off plasma)
(End cutting path id: path4400)

(Start cutting path id: path4398)
(Change tool to Plasma cutter)
 
G00 Z5.000000
G00 X0.141111 Y32.141105
G31 Z-100 F500 (find metal)
G92 Z0 (zero z)
G00 Z10 F500 (going up)
M03 (turn on plasma)
G04 P0.2 (pause)
G01 Z1 (going to cutting z)
G01 Z-1.000000 F100.0(Penetrate)
G01 X0.141111 Y187.860773 Z-1.000000 F400.000000
G00 Z5.000000
M05 (turn off plasma)
(End cutting path id: path4398)

(Start cutting path id: path4396)
(Change tool to Plasma cutter)
 
G00 Z5.000000
G00 X32.141112 Y219.860766
G31 Z-100 F500 (find metal)
G92 Z0 (zero z)
G00 Z10 F500 (going up)
M03 (turn on plasma)
G04 P0.2 (pause)
G01 Z1 (going to cutting z)
G01 Z-1.000000 F100.0(Penetrate)
G03 X9.513697 Y210.488185 Z-1.000000 I-0.000000 J-32.000001 F400.000000
G03 X0.141111 Y187.860773 Z-1.000000 I22.627415 J-22.627421
G00 Z5.000000
M05 (turn off plasma)
(End cutting path id: path4396)

(Start cutting path id: path4394)
(Change tool to Plasma cutter)
 
G00 Z5.000000
G00 X0.141111 Y32.141105
G31 Z-100 F500 (find metal)
G92 Z0 (zero z)
G00 Z10 F500 (going up)
M03 (turn on plasma)
G04 P0.2 (pause)
G01 Z1 (going to cutting z)
G01 Z-1.000000 F100.0(Penetrate)
G03 X9.513697 Y9.513693 Z-1.000000 I32.000001 J0.000008 F400.000000
G03 X32.141112 Y0.141112 Z-1.000000 I22.627415 J22.627421
G00 Z5.000000
M05 (turn off plasma)
(End cutting path id: path4394)

(Start cutting path id: path4392)
(Change tool to Plasma cutter)
 
G00 Z5.000000
G00 X23.891113 Y60.000926
G31 Z-100 F500 (find metal)
G92 Z0 (zero z)
G00 Z10 F500 (going up)
M03 (turn on plasma)
G04 P0.2 (pause)
G01 Z1 (going to cutting z)
G01 Z-1.000000 F100.0(Penetrate)
G03 X23.053772 Y63.125926 Z-1.000000 I-6.250000 J0.000000 F400.000000
G03 X20.766113 Y65.413585 Z-1.000000 I-5.412659 J-3.125000
G03 X17.641113 Y66.250926 Z-1.000000 I-3.125000 J-5.412659
G03 X14.516113 Y65.413585 Z-1.000000 I-0.000000 J-6.250000
G03 X12.228454 Y63.125926 Z-1.000000 I3.125000 J-5.412659
G03 X11.391113 Y60.000926 Z-1.000000 I5.412659 J-3.125000
G03 X12.228454 Y56.875926 Z-1.000000 I6.250000 J0.000000
G03 X14.516113 Y54.588267 Z-1.000000 I5.412659 J3.125000
G03 X17.641113 Y53.750926 Z-1.000000 I3.125000 J5.412659
G03 X20.766113 Y54.588267 Z-1.000000 I-0.000000 J6.250000
G03 X23.053772 Y56.875926 Z-1.000000 I-3.125000 J5.412659
G03 X23.891113 Y60.000926 Z-1.000000 I-5.412659 J3.125000
G01 X23.891113 Y60.000926 Z-1.000000
G00 Z5.000000
M05 (turn off plasma)
(End cutting path id: path4392)

(Start cutting path id: path4390)
(Change tool to Plasma cutter)
 
G00 Z5.000000
G00 X23.891113 Y160.000952
G31 Z-100 F500 (find metal)
G92 Z0 (zero z)
G00 Z10 F500 (going up)
M03 (turn on plasma)
G04 P0.2 (pause)
G01 Z1 (going to cutting z)
G01 Z-1.000000 F100.0(Penetrate)
G03 X23.053772 Y163.125952 Z-1.000000 I-6.250000 J0.000000 F400.000000
G03 X20.766113 Y165.413611 Z-1.000000 I-5.412659 J-3.125000
G03 X17.641113 Y166.250952 Z-1.000000 I-3.125000 J-5.412659
G03 X14.516113 Y165.413611 Z-1.000000 I-0.000000 J-6.250000
G03 X12.228454 Y163.125952 Z-1.000000 I3.125000 J-5.412659
G03 X11.391113 Y160.000952 Z-1.000000 I5.412659 J-3.125000
G03 X12.228454 Y156.875952 Z-1.000000 I6.250000 J-0.000000
G03 X14.516113 Y154.588293 Z-1.000000 I5.412659 J3.125000
G03 X17.641113 Y153.750952 Z-1.000000 I3.125000 J5.412659
G03 X20.766113 Y154.588293 Z-1.000000 I-0.000000 J6.250000
G03 X23.053772 Y156.875952 Z-1.000000 I-3.125000 J5.412659
G03 X23.891113 Y160.000952 Z-1.000000 I-5.412659 J3.125000
G01 X23.891113 Y160.000952 Z-1.000000
G00 Z5.000000
M05 (turn off plasma)
(End cutting path id: path4390)

(Start cutting path id: path4388)
(Change tool to Plasma cutter)
 
G00 Z5.000000
G00 X413.891109 Y60.000926
G31 Z-100 F500 (find metal)
G92 Z0 (zero z)
G00 Z10 F500 (going up)
M03 (turn on plasma)
G04 P0.2 (pause)
G01 Z1 (going to cutting z)
G01 Z-1.000000 F100.0(Penetrate)
G03 X413.056571 Y63.129475 Z-1.000000 I-6.249995 J0.008400 F400.000000
G03 X410.768539 Y65.420584 Z-1.000000 I-5.415457 J-3.120149
G03 X407.641114 Y66.259326 Z-1.000000 I-3.127425 J-5.411258
G03 X404.513690 Y65.420584 Z-1.000000 I-0.000000 J-6.250000
G03 X402.225657 Y63.129475 Z-1.000000 I3.127425 J-5.411258
G03 X401.391120 Y60.000926 Z-1.000000 I5.415457 J-3.120149
G03 X402.225657 Y56.872377 Z-1.000000 I6.249995 J-0.008400
G03 X404.513690 Y54.581268 Z-1.000000 I5.415457 J3.120149
G03 X407.641114 Y53.742526 Z-1.000000 I3.127425 J5.411258
G03 X410.768539 Y54.581268 Z-1.000000 I0.000000 J6.250000
G03 X413.056571 Y56.872377 Z-1.000000 I-3.127425 J5.411258
G03 X413.891109 Y60.000926 Z-1.000000 I-5.415457 J3.120149
G01 X413.891109 Y60.000926 Z-1.000000
G00 Z5.000000
M05 (turn off plasma)
(End cutting path id: path4388)

(Start cutting path id: path4386)
(Change tool to Plasma cutter)
 
G00 Z5.000000
G00 X413.891109 Y160.000952
G31 Z-100 F500 (find metal)
G92 Z0 (zero z)
G00 Z10 F500 (going up)
M03 (turn on plasma)
G04 P0.2 (pause)
G01 Z1 (going to cutting z)
G01 Z-1.000000 F100.0(Penetrate)
G03 X413.056571 Y163.129501 Z-1.000000 I-6.249995 J0.008400 F400.000000
G03 X410.768539 Y165.420610 Z-1.000000 I-5.415457 J-3.120149
G03 X407.641114 Y166.259352 Z-1.000000 I-3.127425 J-5.411258
G03 X404.513690 Y165.420610 Z-1.000000 I0.000000 J-6.250000
G03 X402.225657 Y163.129501 Z-1.000000 I3.127425 J-5.411258
G03 X401.391120 Y160.000952 Z-1.000000 I5.415457 J-3.120149
G03 X402.225657 Y156.872403 Z-1.000000 I6.249995 J-0.008400
G03 X404.513690 Y154.581294 Z-1.000000 I5.415457 J3.120149
G03 X407.641114 Y153.742552 Z-1.000000 I3.127425 J5.411258
G03 X410.768539 Y154.581294 Z-1.000000 I0.000000 J6.250000
G03 X413.056571 Y156.872403 Z-1.000000 I-3.127425 J5.411258
G03 X413.891109 Y160.000952 Z-1.000000 I-5.415457 J3.120149
G01 X413.891109 Y160.000952 Z-1.000000
G00 Z5.000000
M05 (turn off plasma)
(End cutting path id: path4386)

(Start cutting path id: path4384)
(Change tool to Plasma cutter)
 
G00 Z5.000000
G00 X373.891104 Y60.000926
G31 Z-100 F500 (find metal)
G92 Z0 (zero z)
G00 Z10 F500 (going up)
M03 (turn on plasma)
G04 P0.2 (pause)
G01 Z1 (going to cutting z)
G01 Z-1.000000 F100.0(Penetrate)
G03 X373.056495 Y63.129385 Z-1.000000 I-6.249995 J0.008187 F400.000000
G03 X370.768472 Y65.420407 Z-1.000000 I-5.415386 J-3.120272
G03 X367.641109 Y66.259113 Z-1.000000 I-3.127363 J-5.411294
G03 X364.513746 Y65.420407 Z-1.000000 I-0.000000 J-6.250000
G03 X362.225724 Y63.129385 Z-1.000000 I3.127363 J-5.411294
G03 X361.391115 Y60.000926 Z-1.000000 I5.415386 J-3.120272
G03 X362.225724 Y56.872467 Z-1.000000 I6.249995 J-0.008187
G03 X364.513746 Y54.581445 Z-1.000000 I5.415386 J3.120272
G03 X367.641109 Y53.742739 Z-1.000000 I3.127363 J5.411294
G03 X370.768472 Y54.581445 Z-1.000000 I0.000000 J6.250000
G03 X373.056495 Y56.872467 Z-1.000000 I-3.127363 J5.411294
G03 X373.891104 Y60.000926 Z-1.000000 I-5.415386 J3.120272
G01 X373.891104 Y60.000926 Z-1.000000
G00 Z5.000000
M05 (turn off plasma)
(End cutting path id: path4384)

(Start cutting path id: path4382)
(Change tool to Plasma cutter)
 
G00 Z5.000000
G00 X373.891104 Y160.000952
G31 Z-100 F500 (find metal)
G92 Z0 (zero z)
G00 Z10 F500 (going up)
M03 (turn on plasma)
G04 P0.2 (pause)
G01 Z1 (going to cutting z)
G01 Z-1.000000 F100.0(Penetrate)
G03 X373.056495 Y163.129411 Z-1.000000 I-6.249995 J0.008187 F400.000000
G03 X370.768472 Y165.420433 Z-1.000000 I-5.415386 J-3.120272
G03 X367.641109 Y166.259139 Z-1.000000 I-3.127363 J-5.411294
G03 X364.513746 Y165.420433 Z-1.000000 I-0.000000 J-6.250000
G03 X362.225724 Y163.129411 Z-1.000000 I3.127363 J-5.411294
G03 X361.391115 Y160.000952 Z-1.000000 I5.415386 J-3.120272
G03 X362.225724 Y156.872493 Z-1.000000 I6.249995 J-0.008187
G03 X364.513746 Y154.581472 Z-1.000000 I5.415386 J3.120272
G03 X367.641109 Y153.742765 Z-1.000000 I3.127363 J5.411294
G03 X370.768472 Y154.581472 Z-1.000000 I0.000000 J6.250000
G03 X373.056495 Y156.872493 Z-1.000000 I-3.127363 J5.411294
G03 X373.891104 Y160.000952 Z-1.000000 I-5.415386 J3.120272
G01 X373.891104 Y160.000952 Z-1.000000
G00 Z5.000000
M05 (turn off plasma)
(End cutting path id: path4382)

(Start cutting path id: path4380)
(Change tool to Plasma cutter)
 
G00 Z5.000000
G00 X387.641112 Y110.000939
G31 Z-100 F500 (find metal)
G92 Z0 (zero z)
G00 Z10 F500 (going up)
M03 (turn on plasma)
G04 P0.2 (pause)
G01 Z1 (going to cutting z)
G01 Z-1.000000 F100.0(Penetrate)
G03 X382.952001 Y127.500939 Z-1.000000 I-35.000001 J0.000000 F400.000000
G03 X370.141111 Y140.311829 Z-1.000000 I-30.310890 J-17.500000
G03 X352.641111 Y145.000940 Z-1.000000 I-17.500000 J-30.310890
G03 X335.141111 Y140.311829 Z-1.000000 I0.000000 J-35.000001
G03 X322.330221 Y127.500939 Z-1.000000 I17.500000 J-30.310890
G03 X317.641110 Y110.000939 Z-1.000000 I30.310890 J-17.500000
G03 X322.330221 Y92.500939 Z-1.000000 I35.000001 J-0.000000
G03 X335.141111 Y79.690049 Z-1.000000 I30.310890 J17.500000
G03 X352.641111 Y75.000938 Z-1.000000 I17.500000 J30.310890
G03 X370.141111 Y79.690049 Z-1.000000 I-0.000000 J35.000001
G03 X382.952001 Y92.500939 Z-1.000000 I-17.500000 J30.310890
G03 X387.641112 Y110.000939 Z-1.000000 I-30.310890 J17.500000
G01 X387.641112 Y110.000939 Z-1.000000
G00 Z5.000000
M05 (turn off plasma)
(End cutting path id: path4380)

(Start cutting path id: path4378)
(Change tool to Plasma cutter)
 
G00 Z5.000000
G00 X127.641114 Y145.000926
G31 Z-100 F500 (find metal)
G92 Z0 (zero z)
G00 Z10 F500 (going up)
M03 (turn on plasma)
G04 P0.2 (pause)
G01 Z1 (going to cutting z)
G01 Z-1.000000 F100.0(Penetrate)
G01 X232.641113 Y145.000926 Z-1.000000 F400.000000
G00 Z5.000000
M05 (turn off plasma)
(End cutting path id: path4378)

(Start cutting path id: path4376)
(Change tool to Plasma cutter)
 
G00 Z5.000000
G00 X127.641114 Y145.000926
G31 Z-100 F500 (find metal)
G92 Z0 (zero z)
G00 Z10 F500 (going up)
M03 (turn on plasma)
G04 P0.2 (pause)
G01 Z1 (going to cutting z)
G01 Z-1.000000 F100.0(Penetrate)
G03 X110.141113 Y140.311815 Z-1.000000 I0.000000 J-35.000001 F400.000000
G03 X97.330224 Y127.500925 Z-1.000000 I17.500000 J-30.310890
G03 X92.641113 Y110.000925 Z-1.000000 I30.310890 J-17.500000
G03 X97.330224 Y92.500925 Z-1.000000 I35.000001 J-0.000000
G03 X110.141113 Y79.690035 Z-1.000000 I30.310890 J17.500000
G03 X127.641114 Y75.000924 Z-1.000000 I17.500000 J30.310890
G00 Z5.000000
M05 (turn off plasma)
(End cutting path id: path4376)

(Start cutting path id: path4374)
(Change tool to Plasma cutter)
 
G00 Z5.000000
G00 X232.641113 Y75.000924
G31 Z-100 F500 (find metal)
G92 Z0 (zero z)
G00 Z10 F500 (going up)
M03 (turn on plasma)
G04 P0.2 (pause)
G01 Z1 (going to cutting z)
G01 Z-1.000000 F100.0(Penetrate)
G01 X127.641114 Y75.000924 Z-1.000000 F400.000000
G00 Z5.000000
M05 (turn off plasma)
(End cutting path id: path4374)

(Start cutting path id: path4372)
(Change tool to Plasma cutter)
 
G00 Z5.000000
G00 X232.641113 Y75.000924
G31 Z-100 F500 (find metal)
G92 Z0 (zero z)
G00 Z10 F500 (going up)
M03 (turn on plasma)
G04 P0.2 (pause)
G01 Z1 (going to cutting z)
G01 Z-1.000000 F100.0(Penetrate)
G03 X250.141114 Y79.690035 Z-1.000000 I-0.000000 J35.000001 F400.000000
G03 X262.952003 Y92.500925 Z-1.000000 I-17.500000 J30.310890
G03 X267.641114 Y110.000925 Z-1.000000 I-30.310890 J17.500000
G03 X262.952003 Y127.500925 Z-1.000000 I-35.000001 J0.000000
G03 X250.141114 Y140.311815 Z-1.000000 I-30.310890 J-17.500000
G03 X232.641113 Y145.000926 Z-1.000000 I-17.500000 J-30.310890
G00 Z5.000000
M05 (turn off plasma)
(End cutting path id: path4372)

(Start cutting path id: path4370)
(Change tool to Plasma cutter)
 
G00 Z5.000000
G00 X415.641112 Y199.860777
G31 Z-100 F500 (find metal)
G92 Z0 (zero z)
G00 Z10 F500 (going up)
M03 (turn on plasma)
G04 P0.2 (pause)
G01 Z1 (going to cutting z)
G01 Z-1.000000 F100.0(Penetrate)
G03 X415.307859 Y201.112906 Z-1.000000 I-2.499995 J0.005040 F400.000000
G03 X414.392572 Y202.030040 Z-1.000000 I-2.166742 J-1.247089
G03 X413.141117 Y202.365817 Z-1.000000 I-1.251455 J-2.164223
G03 X411.889663 Y202.030040 Z-1.000000 I0.000000 J-2.500000
G03 X410.974376 Y201.112906 Z-1.000000 I1.251455 J-2.164223
G03 X410.641122 Y199.860777 Z-1.000000 I2.166742 J-1.247089
G03 X410.974376 Y198.608648 Z-1.000000 I2.499995 J-0.005040
G03 X411.889663 Y197.691514 Z-1.000000 I2.166742 J1.247089
G03 X413.141117 Y197.355737 Z-1.000000 I1.251455 J2.164223
G03 X414.392572 Y197.691514 Z-1.000000 I0.000000 J2.500000
G03 X415.307859 Y198.608648 Z-1.000000 I-1.251455 J2.164223
G03 X415.641112 Y199.860777 Z-1.000000 I-2.166742 J1.247089
G01 X415.641112 Y199.860777 Z-1.000000
G00 Z5.000000
M05 (turn off plasma)
(End cutting path id: path4370)

(Start cutting path id: path4368)
(Change tool to Plasma cutter)
 
G00 Z5.000000
G00 X372.141128 Y199.860777
G31 Z-100 F500 (find metal)
G92 Z0 (zero z)
G00 Z10 F500 (going up)
M03 (turn on plasma)
G04 P0.2 (pause)
G01 Z1 (going to cutting z)
G01 Z-1.000000 F100.0(Penetrate)
G03 X371.806191 Y201.110782 Z-1.000000 I-2.500009 J0.000000 F400.000000
G03 X370.891124 Y202.025849 Z-1.000000 I-2.165071 J-1.250005
G03 X369.641119 Y202.360787 Z-1.000000 I-1.250005 J-2.165071
G03 X368.391115 Y202.025849 Z-1.000000 I-0.000000 J-2.500009
G03 X367.476048 Y201.110782 Z-1.000000 I1.250005 J-2.165071
G03 X367.141110 Y199.860777 Z-1.000000 I2.165071 J-1.250005
G03 X367.476048 Y198.610773 Z-1.000000 I2.500009 J-0.000000
G03 X368.391115 Y197.695706 Z-1.000000 I2.165071 J1.250005
G03 X369.641119 Y197.360768 Z-1.000000 I1.250005 J2.165071
G03 X370.891124 Y197.695706 Z-1.000000 I-0.000000 J2.500009
G03 X371.806191 Y198.610773 Z-1.000000 I-1.250005 J2.165071
G03 X372.141128 Y199.860777 Z-1.000000 I-2.165071 J1.250005
G01 X372.141128 Y199.860777 Z-1.000000
G00 Z5.000000
M05 (turn off plasma)
(End cutting path id: path4368)


(Footer)
M5
G00 X0.0000 Y0.0000
M2
(Using default footer. To add your own footer create file "footer" in the output dir.)
(end)
%