N5 (File Name = ועאכ_3_לל_180_רע on Wednesday, March 16, 2016)
N10 (Default Plasma Post)
N15  G91.1
N20 G0  Z60.0000 
N25 G0  X1287.4838  Y1799.6890 
N30 G28.1 (Probe for Stock)
N35 G0  Z0.0000 
N40 M3(PLasma On)
N45 G4 P0.1000
N50 G2  Y1812.6890  I-0.9656  J6.5000  F60.00 
N55 G0  Z60.0000 
N60 G0  X1287.4837  Y1799.6890 
N65 G0  Z0.0000 
N70 M3(PLasma On)
N75 G4 P0.1000
N80 G1  X1307.4837 
N85  Y1781.1890 
N90  X1247.4837 
N95  Y1831.1890 
N100  X1307.4837 
N105  Y1812.6890 
N110  X1287.4837 
N115 G4P0.10
N120 M5 (Plasma Off)
N125 G0 Z60.0000 
N130 M30

