N5 (File Name = Деталь_9_3_мм_6_штуки on Monday, March 21, 2016)
N10 (Default Plasma Post)
N15  G91.1
N20 G0  Z60.0000 
N25 G0  X53.4793  Y-149.8670 
N30 G28.1 (Probe for Stock)
N35 G0  Z0.0000 
N40 M3(PLasma On)
N45 G4 P0.1000
N50 G3  X63.4696  Y-144.8598  I3.7404  J5.0072  F60.00 
N55  X53.4793  Y-149.8670  I-6.2500  J0.0000 
N60 G4P0.10
N65 M5 (Plasma Off)
N70 G0  Z60.0000 
N75 G0  X53.4793  Y-249.8670 
N80 G28.1 (Probe for Stock)
N85 G0  Z0.0000 
N90 M3(PLasma On)
N95 G4 P0.1000
N100 G3  X63.4696  Y-244.8598  I3.7404  J5.0072 
N105  X53.4793  Y-249.8670  I-6.2500  J0.0000 
N110 G4P0.10
N115 M5 (Plasma Off)
N120 G0  Z60.0000 
N125 G0  X39.7196  Y-272.7196 
N130 G28.1 (Probe for Stock)
N135 G0  Z0.0000 
N140 M3(PLasma On)
N145 G4 P0.1000
N150 G3  X71.7196  Y-304.7196  I32.0000  J0.0000 
N155 G1  X94.2196 
N160  Y-263.8598 
N165  X134.7196 
N170  Y-304.7196 
N175  X304.7196 
N180  Y-263.8598 
N185  X345.2196 
N190  Y-304.7196 
N195  X432.7196 
N200 G3  X464.7196  Y-272.7196  I0.0000  J32.0000 
N205 G1  Y-117.0000 
N210 G3  X432.7196  Y-85.0000  I-32.0000  J-0.0000 
N215 G1  X345.2196 
N220  Y-125.8598 
N225  X304.7196 
N230  Y-85.0000 
N235  X134.7196 
N240  Y-125.8598 
N245  X94.2196 
N250  Y-85.0000 

