N5 (File Name = Деталь_9_3_мм_6_штуки on Monday, March 21, 2016)
N10 (Default Mill Post)
N15  G90.1
N20 G0  Z60.0000 
N25 M3 
N30  X63.4696  Y-144.8598 
N35  Z0.3000 
N40 G1  Z0.0000  F100.00 
N45 G2  I57.2196  J-144.8598  F8000.00 
N50 G0  Z60.0000 
N55  X63.4696  Y-244.8598 
N60  Z0.3000 
N65 G1  Z0.0000  F100.00 
N70 G2  I57.2196  J-244.8598  F8000.00 
N75 G0  Z60.0000 
N80  X272.2196  Y-159.8598 
N85  Z0.3000 
N90 G1  Z0.0000  F100.00 
N95  X167.2196   F8000.00 
N100 G3  Y-229.8598  I167.2196  J-194.8598 
N105 G1  X272.2196   
N110 G3  Y-159.8598  I272.2196  J-194.8598 
N115 G0  Z60.0000 
N120  X413.4696  Y-144.8598 
N125  Z0.3000 
N130 G1  Z0.0000  F100.00 
N135 G2  I407.2196  J-144.8598  F8000.00 
N140 G0  Z60.0000 
N145  X411.7196  Y-105.0000 
N150  Z0.3000 
N155 G1  Z0.0000  F100.00 
N160 G2  I409.2196  J-105.0000  F8000.00 
N165 G0  Z60.0000 
N170  X455.2196 
N175  Z0.3000 
N180 G1  Z0.0000  F100.00 
N185 G2  I452.7196  J-105.0000  F8000.00 
N190 G0  Z60.0000 
N195  X453.4696  Y-144.8598 
N200  Z0.3000 
N205 G1  Z0.0000  F100.00 
N210 G2  I447.2196  J-144.8598  F8000.00 
N215 G0  Z60.0000 
N220  X427.2196  Y-194.8598 
N225  Z0.3000 
N230 G1  Z0.0000  F100.00 
N235 G2  I392.2196  J-194.8598  F8000.00 
N240 G0  Z60.0000 
N245  X413.4696  Y-244.8598 
N250  Z0.3000 

