N5 (File Name = Деталь_9_3_мм_6_штуки on Monday, March 21, 2016)
N10 (Default Plasma Post)
N15  G91.1
N20 G0  Z60.0000 
N25 G0  X63.4696  Y-144.8598 
N30 G28.1 (Probe for Stock)
N35 G0  Z0.0000 
N40 M3(PLasma On)
N45 G4 P0.1000
N50 G2  I-6.2500  J0.0000  F60.00 
N55 G4P0.10
N60 M5 (Plasma Off)
N65 G0  Z60.0000 
N70 G0  X63.4696  Y-244.8598 
N75 G28.1 (Probe for Stock)
N80 G0  Z0.0000 
N85 M3(PLasma On)
N90 G4 P0.1000
N95 G2  I-6.2500  J0.0000 
N100 G4P0.10
N105 M5 (Plasma Off)
N110 G0  Z60.0000 
N115 G0  X272.2196  Y-159.8598 
N120 G28.1 (Probe for Stock)
N125 G0  Z0.0000 
N130 M3(PLasma On)
N135 G4 P0.1000
N140 G1  X167.2196 
N145 G0  Z60.0000 
N150 G0  X167.2196  Y-229.8598 
N155 G28.1 (Probe for Stock)
N160 G0  Z0.0000 
N165 M3(PLasma On)
N170 G4 P0.1000
N175 G2  Y-159.8598  I0.0000  J35.0000 
N180 G0  Z60.0000 
N185 G0  X167.2196  Y-229.8598 
N190 G0  Z0.0000 
N195 M3(PLasma On)
N200 G4 P0.1000
N205 G1  X272.2196 
N210 G0  Z60.0000 
N215 G0  X272.2196  Y-159.8598 
N220 G28.1 (Probe for Stock)
N225 G0  Z0.0000 
N230 M3(PLasma On)
N235 G4 P0.1000
N240 G2  Y-229.8598  I0.0000  J-35.0000 
N245 G4P0.10
N250 M5 (Plasma Off)

