N1 (Program posted with Plasma Example Post.pst)
N2 M906
N3 M901
N4 G0  Z60.0000 
N5 G0  X63.4696  Y-144.8598 
N6 G0  Z0.3000 
N7 Z0.3000 
N8 M900(PLasma On)
N9 G1  Z0.0000  F60.00 
N10 G2  I-6.2500  J0.0000 
N11 M5 (Plasma Off)
N12 M901
N13 G0  Z60.0000 
N14 G0  X63.4696  Y-244.8598 
N15 G0  Z0.3000 
N16 Z0.3000 
N17 M900(PLasma On)
N18 G1  Z0.0000 
N19 G2  I-6.2500  J0.0000 
N20 M5 (Plasma Off)
N21 M901
N22 G0  Z60.0000 
N23 G0  X272.2196  Y-159.8598 
N24 G0  Z0.3000 
N25 Z0.3000 
N26 M900(PLasma On)
N27 G1  Z0.0000 
N28  X167.2196 
N29 G3  Y-229.8598  I0.0000  J-35.0000 
N30 G1  X272.2196 
N31 G3  Y-159.8598  I0.0000  J35.0000 
N32 M5 (Plasma Off)
N33 M901
N34 G0  Z60.0000 
N35 G0  X411.7196  Y-105.0000 
N36 G0  Z0.3000 
N37 Z0.3000 
N38 M900(PLasma On)
N39 G1  Z0.0000 
N40 G2  I-2.5000  J0.0000 
N41 M5 (Plasma Off)
N42 M901
N43 G0  Z60.0000 
N44 G0  X413.4696  Y-144.8598 
N45 G0  Z0.3000 
N46 Z0.3000 
N47 M900(PLasma On)
N48 G1  Z0.0000 
N49 G2  I-6.2500  J0.0000 
N50 M5 (Plasma Off)
N51 G41 
N52 G40 

