N0010 (Post processor: Purelogic THC.scpost)
N0020 (Date: 21/03/2016)
N0030 G21 (Units: Metric)
N0040 G53 G90 G40
N0050 F1
N0060 S500
N0070 M906
N0080 M901
N0090 G00 X192.6500 Y119.8598
N0100 M900
N0110 G02 X227.5000 Y154.7098 I34.8500 J0.0000
N0120 G01 X332.5000
N0130 G02 X332.5000 Y85.0098 I0.0000 J-34.8500
N0140 G01 X227.5000
N0150 G02 X192.6500 Y119.8598 I0.0000 J34.8500
N0160 M05
N0170 M901
N0180 G00 X117.5000 Y163.7598
N0190 M900
N0200 G02 X117.5000 Y163.7598 I0.0000 J6.1000
N0210 M05
N0220 M901
N0230 G00 X117.5000 Y63.7598
N0240 M900
N0250 G02 X117.5000 Y63.7598 I0.0000 J6.1000
N0260 M05
N0270 M901
N0280 G00 X452.5000 Y85.0098
N0290 M900
N0300 G02 X452.5000 Y85.0098 I0.0000 J34.8500
N0310 M05
N0320 M901
N0330 G00 X467.5000 Y63.7598
N0340 M900
N0350 G02 X467.5000 Y63.7598 I0.0000 J6.1000
N0360 M05
N0370 M901
N0380 G00 X507.5000 Y63.7598
N0390 M900
N0400 G02 X507.5000 Y63.7598 I0.0000 J6.1000
N0410 M05
N0420 M901
N0430 G00 X507.5000 Y163.7598
N0440 M900
N0450 G02 X507.5000 Y163.7598 I0.0000 J6.1000
N0460 M05
N0470 M901
N0480 G00 X467.5000 Y163.7598
N0490 M900
N0500 G02 X467.5000 Y163.7598 I0.0000 J6.1000
N0510 M05
N0520 M901
N0530 G00 X469.5000 Y207.3696
N0540 M900
N0550 G02 X469.5000 Y207.3696 I0.0000 J2.3500
N0560 M05
N0570 M901
N0580 G00 X513.0000 Y207.3696
N0590 M900
N0600 G02 X513.0000 Y207.3696 I0.0000 J2.3500
N0610 M05
N0620 M901
N0630 G00 X154.6500 Y50.7098
N0640 M900
N0650 G01 X194.8500 Y50.7098
N0660 Y10.0000
N0670 G03 X195.0000 Y9.8500 I0.1500 J0.0000
N0680 G01 X365.0000
N0690 G03 X365.1500 Y10.0000 I0.0000 J0.1500
N0700 G01 Y50.7098
N0710 X405.3500
N0720 Y10.0000
N0730 G03 X405.5000 Y9.8500 I0.1500 J0.0000
N0740 G01 X493.0000
N0750 G03 X525.1500 Y42.0000 I0.0000 J32.1500
N0760 G01 Y197.7196
N0770 G03 X493.0000 Y229.8696 I-32.1500 J-0.0000
N0780 G01 X405.5000
N0790 G03 X405.3500 Y229.7196 I0.0000 J-0.1500
N0800 G01 Y189.0098
N0810 X365.1500
N0820 Y229.7196
N0830 G03 X365.0000 Y229.8696 I-0.1500 J0.0000
N0840 G01 X195.0000
N0850 G03 X194.8500 Y229.7196 I0.0000 J-0.1500
N0860 G01 Y189.0098
N0870 X154.6500
N0880 Y229.7196
N0890 G03 X154.5000 Y229.8696 I-0.1500 J0.0000
N0900 G01 X132.0000
N0910 G03 X99.8500 Y197.7196 I0.0000 J-32.1500
N0920 G01 Y42.0000
N0930 G03 X132.0000 Y9.8500 I32.1500 J0.0000
N0940 G01 X154.5000
N0950 G03 X154.6500 Y10.0000 I0.0000 J0.1500
N0960 G01 Y50.7098
N0970 M05
N0980 M901
N0990 M05 M30
